( This gcode generated by /home/petera/artie/data/cad/eagle/ulp/pcb-gcode.ulp )
( Copyright 2005 by John Johnson. See readme.txt for licensing terms. )

( This file generated from the board /home/petera/artie/data/cad/eagle/projects/realway/eyebot/eyebot_chassi2.brd )
( This file generated 1/11/14 10:35 AM )

( Settings from pcb-machine.h )
( tool size = 2.7900 )
( z high = 1.0000	z up = 1.0000	z down = -1.0000 )
( drill depth = -4.0000 )
( spindle on time = 3.0000 )
( milling depth = -3.0000 )
( tool change at X-40.0000, Y0.0000, Z30.0000 )
( feed rate = 180.0000	feed rate z = 100.0000 )

( Settings from pcb-defaults.h )
( Default isolate = 1.0000 )
( isolate max = 1.0000 )
( isolate step = 1.0000 )
( Generated: top outlines, top drill, top fill,  )
( Unit of measure: mm )


G21

G90
G00 Z1.0000 
G00 X0 Y0
M03
G04 P3.000000

G00 Z1.0000 
G00 X76.7450 Y24.5109 
G01 Z-1.0000 F120.00 
G01 X76.7534 Y24.5312 
G01 X76.7688 Y24.5466 
G01 X76.7891 Y24.5550 
G01 X76.8109 Y24.5550 
G01 X76.8312 Y24.5466 
G01 X76.8466 Y24.5312 
G01 X76.8550 Y24.5109 
G01 X76.8550 Y24.4891 
G01 X76.8466 Y24.4688 
G01 X76.8312 Y24.4534 
G01 X76.8109 Y24.4450 
G01 X76.7891 Y24.4450 
G01 X76.7688 Y24.4534 
G01 X76.7534 Y24.4688 
G01 X76.7450 Y24.4891 
G01 X76.7450 Y24.5109 
G00 Z1.0000 

G00 X76.7450 Y24.5109 
G01 Z-2.0000 F120.00 
G01 X76.7534 Y24.5312 
G01 X76.7688 Y24.5466 
G01 X76.7891 Y24.5550 
G01 X76.8109 Y24.5550 
G01 X76.8312 Y24.5466 
G01 X76.8466 Y24.5312 
G01 X76.8550 Y24.5109 
G01 X76.8550 Y24.4891 
G01 X76.8466 Y24.4688 
G01 X76.8312 Y24.4534 
G01 X76.8109 Y24.4450 
G01 X76.7891 Y24.4450 
G01 X76.7688 Y24.4534 
G01 X76.7534 Y24.4688 
G01 X76.7450 Y24.4891 
G01 X76.7450 Y24.5109 
G00 Z1.0000 

G00 X76.7450 Y24.5109 
G01 Z-3.0000 F120.00 
G01 X76.7534 Y24.5312 
G01 X76.7688 Y24.5466 
G01 X76.7891 Y24.5550 
G01 X76.8109 Y24.5550 
G01 X76.8312 Y24.5466 
G01 X76.8466 Y24.5312 
G01 X76.8550 Y24.5109 
G01 X76.8550 Y24.4891 
G01 X76.8466 Y24.4688 
G01 X76.8312 Y24.4534 
G01 X76.8109 Y24.4450 
G01 X76.7891 Y24.4450 
G01 X76.7688 Y24.4534 
G01 X76.7534 Y24.4688 
G01 X76.7450 Y24.4891 
G01 X76.7450 Y24.5109 
G00 Z1.0000 

G00 X76.7450 Y24.5109 
G01 Z-4.2000 F120.00 
G01 X76.7534 Y24.5312 
G01 X76.7688 Y24.5466 
G01 X76.7891 Y24.5550 
G01 X76.8109 Y24.5550 
G01 X76.8312 Y24.5466 
G01 X76.8466 Y24.5312 
G01 X76.8550 Y24.5109 
G01 X76.8550 Y24.4891 
G01 X76.8466 Y24.4688 
G01 X76.8312 Y24.4534 
G01 X76.8109 Y24.4450 
G01 X76.7891 Y24.4450 
G01 X76.7688 Y24.4534 
G01 X76.7534 Y24.4688 
G01 X76.7450 Y24.4891 
G01 X76.7450 Y24.5109 
G00 Z1.0000 



G00 X39.5010 Y25.0050 
G01 Z-1.0000 F120.00 
G01 X39.5028 Y25.0042 
G01 X39.5042 Y25.0028 
G01 X39.5050 Y25.0010 
G01 X39.5050 Y23.4990 
G01 X39.5042 Y23.4972 
G01 X39.5028 Y23.4958 
G01 X39.5010 Y23.4950 
G01 X29.4990 Y23.4950 
G01 X29.4972 Y23.4958 
G01 X29.4958 Y23.4972 
G01 X29.4950 Y23.4990 
G01 X29.4950 Y25.0010 
G01 X29.4958 Y25.0028 
G01 X29.4972 Y25.0042 
G01 X29.4990 Y25.0050 
G01 X39.1500 Y25.0050 
G01 X39.5010 Y25.0050 
G00 Z1.0000 

G00 X39.5010 Y25.0050 
G01 Z-2.0000 F120.00 
G01 X39.5028 Y25.0042 
G01 X39.5042 Y25.0028 
G01 X39.5050 Y25.0010 
G01 X39.5050 Y23.4990 
G01 X39.5042 Y23.4972 
G01 X39.5028 Y23.4958 
G01 X39.5010 Y23.4950 
G01 X29.4990 Y23.4950 
G01 X29.4972 Y23.4958 
G01 X29.4958 Y23.4972 
G01 X29.4950 Y23.4990 
G01 X29.4950 Y25.0010 
G01 X29.4958 Y25.0028 
G01 X29.4972 Y25.0042 
G01 X29.4990 Y25.0050 
G01 X39.1500 Y25.0050 
G01 X39.5010 Y25.0050 
G00 Z1.0000 

G00 X39.5010 Y25.0050 
G01 Z-3.0000 F120.00 
G01 X39.5028 Y25.0042 
G01 X39.5042 Y25.0028 
G01 X39.5050 Y25.0010 
G01 X39.5050 Y23.4990 
G01 X39.5042 Y23.4972 
G01 X39.5028 Y23.4958 
G01 X39.5010 Y23.4950 
G01 X29.4990 Y23.4950 
G01 X29.4972 Y23.4958 
G01 X29.4958 Y23.4972 
G01 X29.4950 Y23.4990 
G01 X29.4950 Y25.0010 
G01 X29.4958 Y25.0028 
G01 X29.4972 Y25.0042 
G01 X29.4990 Y25.0050 
G01 X39.1500 Y25.0050 
G01 X39.5010 Y25.0050 
G00 Z1.0000 

G00 X39.5010 Y25.0050 
G01 Z-4.2000 F120.00 
G01 X39.5028 Y25.0042 
G01 X39.5042 Y25.0028 
G01 X39.5050 Y25.0010 
G01 X39.5050 Y23.4990 
G01 X39.5042 Y23.4972 
G01 X39.5028 Y23.4958 
G01 X39.5010 Y23.4950 
G01 X29.4990 Y23.4950 
G01 X29.4972 Y23.4958 
G01 X29.4958 Y23.4972 
G01 X29.4950 Y23.4990 
G01 X29.4950 Y25.0010 
G01 X29.4958 Y25.0028 
G01 X29.4972 Y25.0042 
G01 X29.4990 Y25.0050 
G01 X39.1500 Y25.0050 
G01 X39.5010 Y25.0050 
G00 Z1.0000 




G00 X34.5159 Y34.6285 
G01 Z-1.0000 F120.00 
G01 X34.4362 Y34.7665 
G01 X34.3950 Y34.9203 
G01 X34.3950 Y35.0797 
G01 X34.4362 Y35.2335 
G01 X34.5159 Y35.3715 
G01 X34.6285 Y35.4841 
G01 X34.7665 Y35.5638 
G01 X34.9203 Y35.6050 
G01 X35.0797 Y35.6050 
G01 X35.2335 Y35.5638 
G01 X35.3715 Y35.4841 
G01 X35.4841 Y35.3715 
G01 X35.5638 Y35.2335 
G01 X35.6050 Y35.0797 
G01 X35.6050 Y34.9203 
G01 X35.5638 Y34.7665 
G01 X35.4841 Y34.6285 
G01 X35.3715 Y34.5159 
G01 X35.2335 Y34.4362 
G01 X35.0797 Y34.3950 
G01 X34.9203 Y34.3950 
G01 X34.7665 Y34.4362 
G01 X34.6285 Y34.5159 
G01 X34.5159 Y34.6285 
G00 Z1.0000 

G00 X34.5159 Y34.6285 
G01 Z-2.0000 F120.00 
G01 X34.4362 Y34.7665 
G01 X34.3950 Y34.9203 
G01 X34.3950 Y35.0797 
G01 X34.4362 Y35.2335 
G01 X34.5159 Y35.3715 
G01 X34.6285 Y35.4841 
G01 X34.7665 Y35.5638 
G01 X34.9203 Y35.6050 
G01 X35.0797 Y35.6050 
G01 X35.2335 Y35.5638 
G01 X35.3715 Y35.4841 
G01 X35.4841 Y35.3715 
G01 X35.5638 Y35.2335 
G01 X35.6050 Y35.0797 
G01 X35.6050 Y34.9203 
G01 X35.5638 Y34.7665 
G01 X35.4841 Y34.6285 
G01 X35.3715 Y34.5159 
G01 X35.2335 Y34.4362 
G01 X35.0797 Y34.3950 
G01 X34.9203 Y34.3950 
G01 X34.7665 Y34.4362 
G01 X34.6285 Y34.5159 
G01 X34.5159 Y34.6285 
G00 Z1.0000 

G00 X34.5159 Y34.6285 
G01 Z-3.0000 F120.00 
G01 X34.4362 Y34.7665 
G01 X34.3950 Y34.9203 
G01 X34.3950 Y35.0797 
G01 X34.4362 Y35.2335 
G01 X34.5159 Y35.3715 
G01 X34.6285 Y35.4841 
G01 X34.7665 Y35.5638 
G01 X34.9203 Y35.6050 
G01 X35.0797 Y35.6050 
G01 X35.2335 Y35.5638 
G01 X35.3715 Y35.4841 
G01 X35.4841 Y35.3715 
G01 X35.5638 Y35.2335 
G01 X35.6050 Y35.0797 
G01 X35.6050 Y34.9203 
G01 X35.5638 Y34.7665 
G01 X35.4841 Y34.6285 
G01 X35.3715 Y34.5159 
G01 X35.2335 Y34.4362 
G01 X35.0797 Y34.3950 
G01 X34.9203 Y34.3950 
G01 X34.7665 Y34.4362 
G01 X34.6285 Y34.5159 
G01 X34.5159 Y34.6285 
G00 Z1.0000 

G00 X34.5159 Y34.6285 
G01 Z-4.2000 F120.00 
G01 X34.4362 Y34.7665 
G01 X34.3950 Y34.9203 
G01 X34.3950 Y35.0797 
G01 X34.4362 Y35.2335 
G01 X34.5159 Y35.3715 
G01 X34.6285 Y35.4841 
G01 X34.7665 Y35.5638 
G01 X34.9203 Y35.6050 
G01 X35.0797 Y35.6050 
G01 X35.2335 Y35.5638 
G01 X35.3715 Y35.4841 
G01 X35.4841 Y35.3715 
G01 X35.5638 Y35.2335 
G01 X35.6050 Y35.0797 
G01 X35.6050 Y34.9203 
G01 X35.5638 Y34.7665 
G01 X35.4841 Y34.6285 
G01 X35.3715 Y34.5159 
G01 X35.2335 Y34.4362 
G01 X35.0797 Y34.3950 
G01 X34.9203 Y34.3950 
G01 X34.7665 Y34.4362 
G01 X34.6285 Y34.5159 
G01 X34.5159 Y34.6285 
G00 Z1.0000 




G00 X59.4950 Y25.0010 
G01 Z-1.0000 F120.00 
G01 X59.4958 Y25.0028 
G01 X59.4972 Y25.0042 
G01 X59.4990 Y25.0050 
G01 X69.5010 Y25.0050 
G01 X69.5028 Y25.0042 
G01 X69.5042 Y25.0028 
G01 X69.5050 Y25.0010 
G01 X69.5050 Y23.4990 
G01 X69.5042 Y23.4972 
G01 X69.5028 Y23.4958 
G01 X69.5010 Y23.4950 
G01 X59.4990 Y23.4950 
G01 X59.4972 Y23.4958 
G01 X59.4958 Y23.4972 
G01 X59.4950 Y23.4990 
G01 X59.4950 Y25.0010 
G00 Z1.0000 

G00 X59.4950 Y25.0010 
G01 Z-2.0000 F120.00 
G01 X59.4958 Y25.0028 
G01 X59.4972 Y25.0042 
G01 X59.4990 Y25.0050 
G01 X69.5010 Y25.0050 
G01 X69.5028 Y25.0042 
G01 X69.5042 Y25.0028 
G01 X69.5050 Y25.0010 
G01 X69.5050 Y23.4990 
G01 X69.5042 Y23.4972 
G01 X69.5028 Y23.4958 
G01 X69.5010 Y23.4950 
G01 X59.4990 Y23.4950 
G01 X59.4972 Y23.4958 
G01 X59.4958 Y23.4972 
G01 X59.4950 Y23.4990 
G01 X59.4950 Y25.0010 
G00 Z1.0000 

G00 X59.4950 Y25.0010 
G01 Z-3.0000 F120.00 
G01 X59.4958 Y25.0028 
G01 X59.4972 Y25.0042 
G01 X59.4990 Y25.0050 
G01 X69.5010 Y25.0050 
G01 X69.5028 Y25.0042 
G01 X69.5042 Y25.0028 
G01 X69.5050 Y25.0010 
G01 X69.5050 Y23.4990 
G01 X69.5042 Y23.4972 
G01 X69.5028 Y23.4958 
G01 X69.5010 Y23.4950 
G01 X59.4990 Y23.4950 
G01 X59.4972 Y23.4958 
G01 X59.4958 Y23.4972 
G01 X59.4950 Y23.4990 
G01 X59.4950 Y25.0010 
G00 Z1.0000 

G00 X59.4950 Y25.0010 
G01 Z-4.2000 F120.00 
G01 X59.4958 Y25.0028 
G01 X59.4972 Y25.0042 
G01 X59.4990 Y25.0050 
G01 X69.5010 Y25.0050 
G01 X69.5028 Y25.0042 
G01 X69.5042 Y25.0028 
G01 X69.5050 Y25.0010 
G01 X69.5050 Y23.4990 
G01 X69.5042 Y23.4972 
G01 X69.5028 Y23.4958 
G01 X69.5010 Y23.4950 
G01 X59.4990 Y23.4950 
G01 X59.4972 Y23.4958 
G01 X59.4958 Y23.4972 
G01 X59.4950 Y23.4990 
G01 X59.4950 Y25.0010 
G00 Z1.0000 




G00 X55.9450 Y15.0109 
G01 Z-1.0000 F120.00 
G01 X55.9534 Y15.0312 
G01 X55.9688 Y15.0466 
G01 X55.9891 Y15.0550 
G01 X56.0109 Y15.0550 
G01 X56.0312 Y15.0466 
G01 X56.0466 Y15.0312 
G01 X56.0550 Y15.0109 
G01 X56.0550 Y14.9891 
G01 X56.0466 Y14.9688 
G01 X56.0312 Y14.9534 
G01 X56.0109 Y14.9450 
G01 X55.9891 Y14.9450 
G01 X55.9688 Y14.9534 
G01 X55.9534 Y14.9688 
G01 X55.9450 Y14.9891 
G01 X55.9450 Y15.0109 
G00 Z1.0000 

G00 X55.9450 Y15.0109 
G01 Z-2.0000 F120.00 
G01 X55.9534 Y15.0312 
G01 X55.9688 Y15.0466 
G01 X55.9891 Y15.0550 
G01 X56.0109 Y15.0550 
G01 X56.0312 Y15.0466 
G01 X56.0466 Y15.0312 
G01 X56.0550 Y15.0109 
G01 X56.0550 Y14.9891 
G01 X56.0466 Y14.9688 
G01 X56.0312 Y14.9534 
G01 X56.0109 Y14.9450 
G01 X55.9891 Y14.9450 
G01 X55.9688 Y14.9534 
G01 X55.9534 Y14.9688 
G01 X55.9450 Y14.9891 
G01 X55.9450 Y15.0109 
G00 Z1.0000 

G00 X55.9450 Y15.0109 
G01 Z-3.0000 F120.00 
G01 X55.9534 Y15.0312 
G01 X55.9688 Y15.0466 
G01 X55.9891 Y15.0550 
G01 X56.0109 Y15.0550 
G01 X56.0312 Y15.0466 
G01 X56.0466 Y15.0312 
G01 X56.0550 Y15.0109 
G01 X56.0550 Y14.9891 
G01 X56.0466 Y14.9688 
G01 X56.0312 Y14.9534 
G01 X56.0109 Y14.9450 
G01 X55.9891 Y14.9450 
G01 X55.9688 Y14.9534 
G01 X55.9534 Y14.9688 
G01 X55.9450 Y14.9891 
G01 X55.9450 Y15.0109 
G00 Z1.0000 

G00 X55.9450 Y15.0109 
G01 Z-4.2000 F120.00 
G01 X55.9534 Y15.0312 
G01 X55.9688 Y15.0466 
G01 X55.9891 Y15.0550 
G01 X56.0109 Y15.0550 
G01 X56.0312 Y15.0466 
G01 X56.0466 Y15.0312 
G01 X56.0550 Y15.0109 
G01 X56.0550 Y14.9891 
G01 X56.0466 Y14.9688 
G01 X56.0312 Y14.9534 
G01 X56.0109 Y14.9450 
G01 X55.9891 Y14.9450 
G01 X55.9688 Y14.9534 
G01 X55.9534 Y14.9688 
G01 X55.9450 Y14.9891 
G01 X55.9450 Y15.0109 
G00 Z1.0000 





G00 X72.9450 Y15.0109 
G01 Z-1.0000 F120.00 
G01 X72.9534 Y15.0312 
G01 X72.9688 Y15.0466 
G01 X72.9891 Y15.0550 
G01 X73.0109 Y15.0550 
G01 X73.0312 Y15.0466 
G01 X73.0466 Y15.0312 
G01 X73.0550 Y15.0109 
G01 X73.0550 Y14.9891 
G01 X73.0466 Y14.9688 
G01 X73.0312 Y14.9534 
G01 X73.0109 Y14.9450 
G01 X72.9891 Y14.9450 
G01 X72.9688 Y14.9534 
G01 X72.9534 Y14.9688 
G01 X72.9450 Y14.9891 
G01 X72.9450 Y15.0109 
G00 Z1.0000 

G00 X72.9450 Y15.0109 
G01 Z-2.0000 F120.00 
G01 X72.9534 Y15.0312 
G01 X72.9688 Y15.0466 
G01 X72.9891 Y15.0550 
G01 X73.0109 Y15.0550 
G01 X73.0312 Y15.0466 
G01 X73.0466 Y15.0312 
G01 X73.0550 Y15.0109 
G01 X73.0550 Y14.9891 
G01 X73.0466 Y14.9688 
G01 X73.0312 Y14.9534 
G01 X73.0109 Y14.9450 
G01 X72.9891 Y14.9450 
G01 X72.9688 Y14.9534 
G01 X72.9534 Y14.9688 
G01 X72.9450 Y14.9891 
G01 X72.9450 Y15.0109 
G00 Z1.0000 

G00 X72.9450 Y15.0109 
G01 Z-3.0000 F120.00 
G01 X72.9534 Y15.0312 
G01 X72.9688 Y15.0466 
G01 X72.9891 Y15.0550 
G01 X73.0109 Y15.0550 
G01 X73.0312 Y15.0466 
G01 X73.0466 Y15.0312 
G01 X73.0550 Y15.0109 
G01 X73.0550 Y14.9891 
G01 X73.0466 Y14.9688 
G01 X73.0312 Y14.9534 
G01 X73.0109 Y14.9450 
G01 X72.9891 Y14.9450 
G01 X72.9688 Y14.9534 
G01 X72.9534 Y14.9688 
G01 X72.9450 Y14.9891 
G01 X72.9450 Y15.0109 
G00 Z1.0000 

G00 X72.9450 Y15.0109 
G01 Z-4.2000 F120.00 
G01 X72.9534 Y15.0312 
G01 X72.9688 Y15.0466 
G01 X72.9891 Y15.0550 
G01 X73.0109 Y15.0550 
G01 X73.0312 Y15.0466 
G01 X73.0466 Y15.0312 
G01 X73.0550 Y15.0109 
G01 X73.0550 Y14.9891 
G01 X73.0466 Y14.9688 
G01 X73.0312 Y14.9534 
G01 X73.0109 Y14.9450 
G01 X72.9891 Y14.9450 
G01 X72.9688 Y14.9534 
G01 X72.9534 Y14.9688 
G01 X72.9450 Y14.9891 
G01 X72.9450 Y15.0109 
G00 Z1.0000 




G00 X64.4450 Y55.0109 
G01 Z-1.0000 F120.00 
G01 X64.4534 Y55.0312 
G01 X64.4688 Y55.0466 
G01 X64.4891 Y55.0550 
G01 X64.5109 Y55.0550 
G01 X64.5312 Y55.0466 
G01 X64.5466 Y55.0312 
G01 X64.5550 Y55.0109 
G01 X64.5550 Y54.9891 
G01 X64.5466 Y54.9688 
G01 X64.5312 Y54.9534 
G01 X64.5109 Y54.9450 
G01 X64.4891 Y54.9450 
G01 X64.4688 Y54.9534 
G01 X64.4534 Y54.9688 
G01 X64.4450 Y54.9891 
G01 X64.4450 Y55.0109 
G00 Z1.0000 

G00 X64.4450 Y55.0109 
G01 Z-2.0000 F120.00 
G01 X64.4534 Y55.0312 
G01 X64.4688 Y55.0466 
G01 X64.4891 Y55.0550 
G01 X64.5109 Y55.0550 
G01 X64.5312 Y55.0466 
G01 X64.5466 Y55.0312 
G01 X64.5550 Y55.0109 
G01 X64.5550 Y54.9891 
G01 X64.5466 Y54.9688 
G01 X64.5312 Y54.9534 
G01 X64.5109 Y54.9450 
G01 X64.4891 Y54.9450 
G01 X64.4688 Y54.9534 
G01 X64.4534 Y54.9688 
G01 X64.4450 Y54.9891 
G01 X64.4450 Y55.0109 
G00 Z1.0000 

G00 X64.4450 Y55.0109 
G01 Z-3.0000 F120.00 
G01 X64.4534 Y55.0312 
G01 X64.4688 Y55.0466 
G01 X64.4891 Y55.0550 
G01 X64.5109 Y55.0550 
G01 X64.5312 Y55.0466 
G01 X64.5466 Y55.0312 
G01 X64.5550 Y55.0109 
G01 X64.5550 Y54.9891 
G01 X64.5466 Y54.9688 
G01 X64.5312 Y54.9534 
G01 X64.5109 Y54.9450 
G01 X64.4891 Y54.9450 
G01 X64.4688 Y54.9534 
G01 X64.4534 Y54.9688 
G01 X64.4450 Y54.9891 
G01 X64.4450 Y55.0109 
G00 Z1.0000 

G00 X64.4450 Y55.0109 
G01 Z-4.2000 F120.00 
G01 X64.4534 Y55.0312 
G01 X64.4688 Y55.0466 
G01 X64.4891 Y55.0550 
G01 X64.5109 Y55.0550 
G01 X64.5312 Y55.0466 
G01 X64.5466 Y55.0312 
G01 X64.5550 Y55.0109 
G01 X64.5550 Y54.9891 
G01 X64.5466 Y54.9688 
G01 X64.5312 Y54.9534 
G01 X64.5109 Y54.9450 
G01 X64.4891 Y54.9450 
G01 X64.4688 Y54.9534 
G01 X64.4534 Y54.9688 
G01 X64.4450 Y54.9891 
G01 X64.4450 Y55.0109 
G00 Z1.0000 




G00 X91.9450 Y8.5109 
G01 Z-1.0000 F120.00 
G01 X91.9534 Y8.5312 
G01 X91.9688 Y8.5466 
G01 X91.9891 Y8.5550 
G01 X92.0109 Y8.5550 
G01 X92.0312 Y8.5466 
G01 X92.0466 Y8.5312 
G01 X92.0550 Y8.5109 
G01 X92.0550 Y8.4891 
G01 X92.0466 Y8.4688 
G01 X92.0312 Y8.4534 
G01 X92.0109 Y8.4450 
G01 X91.9891 Y8.4450 
G01 X91.9688 Y8.4534 
G01 X91.9534 Y8.4688 
G01 X91.9450 Y8.4891 
G01 X91.9450 Y8.5109 
G00 Z1.0000 

G00 X91.9450 Y8.5109 
G01 Z-1.0000 F120.00 
G01 X91.9534 Y8.5312 
G01 X91.9688 Y8.5466 
G01 X91.9891 Y8.5550 
G01 X92.0109 Y8.5550 
G01 X92.0312 Y8.5466 
G01 X92.0466 Y8.5312 
G01 X92.0550 Y8.5109 
G01 X92.0550 Y8.4891 
G01 X92.0466 Y8.4688 
G01 X92.0312 Y8.4534 
G01 X92.0109 Y8.4450 
G01 X91.9891 Y8.4450 
G01 X91.9688 Y8.4534 
G01 X91.9534 Y8.4688 
G01 X91.9450 Y8.4891 
G01 X91.9450 Y8.5109 
G00 Z1.0000 

G00 X91.9450 Y8.5109 
G01 Z-2.0000 F120.00 
G01 X91.9534 Y8.5312 
G01 X91.9688 Y8.5466 
G01 X91.9891 Y8.5550 
G01 X92.0109 Y8.5550 
G01 X92.0312 Y8.5466 
G01 X92.0466 Y8.5312 
G01 X92.0550 Y8.5109 
G01 X92.0550 Y8.4891 
G01 X92.0466 Y8.4688 
G01 X92.0312 Y8.4534 
G01 X92.0109 Y8.4450 
G01 X91.9891 Y8.4450 
G01 X91.9688 Y8.4534 
G01 X91.9534 Y8.4688 
G01 X91.9450 Y8.4891 
G01 X91.9450 Y8.5109 
G00 Z1.0000 

G00 X91.9450 Y8.5109 
G01 Z-3.0000 F120.00 
G01 X91.9534 Y8.5312 
G01 X91.9688 Y8.5466 
G01 X91.9891 Y8.5550 
G01 X92.0109 Y8.5550 
G01 X92.0312 Y8.5466 
G01 X92.0466 Y8.5312 
G01 X92.0550 Y8.5109 
G01 X92.0550 Y8.4891 
G01 X92.0466 Y8.4688 
G01 X92.0312 Y8.4534 
G01 X92.0109 Y8.4450 
G01 X91.9891 Y8.4450 
G01 X91.9688 Y8.4534 
G01 X91.9534 Y8.4688 
G01 X91.9450 Y8.4891 
G01 X91.9450 Y8.5109 
G00 Z1.0000 

G00 X91.9450 Y8.5109 
G01 Z-4.2000 F120.00 
G01 X91.9534 Y8.5312 
G01 X91.9688 Y8.5466 
G01 X91.9891 Y8.5550 
G01 X92.0109 Y8.5550 
G01 X92.0312 Y8.5466 
G01 X92.0466 Y8.5312 
G01 X92.0550 Y8.5109 
G01 X92.0550 Y8.4891 
G01 X92.0466 Y8.4688 
G01 X92.0312 Y8.4534 
G01 X92.0109 Y8.4450 
G01 X91.9891 Y8.4450 
G01 X91.9688 Y8.4534 
G01 X91.9534 Y8.4688 
G01 X91.9450 Y8.4891 
G01 X91.9450 Y8.5109 
G00 Z1.0000 




G00 X26.4450 Y61.5109 
G01 Z-1.0000 F120.00 
G01 X26.4534 Y61.5312 
G01 X26.4688 Y61.5466 
G01 X26.4891 Y61.5550 
G01 X26.5109 Y61.5550 
G01 X26.5312 Y61.5466 
G01 X26.5466 Y61.5312 
G01 X26.5550 Y61.5109 
G01 X26.5550 Y61.4891 
G01 X26.5466 Y61.4688 
G01 X26.5312 Y61.4534 
G01 X26.5109 Y61.4450 
G01 X26.4891 Y61.4450 
G01 X26.4688 Y61.4534 
G01 X26.4534 Y61.4688 
G01 X26.4450 Y61.4891 
G01 X26.4450 Y61.5109 
G00 Z1.0000 

G00 X26.4450 Y61.5109 
G01 Z-2.0000 F120.00 
G01 X26.4534 Y61.5312 
G01 X26.4688 Y61.5466 
G01 X26.4891 Y61.5550 
G01 X26.5109 Y61.5550 
G01 X26.5312 Y61.5466 
G01 X26.5466 Y61.5312 
G01 X26.5550 Y61.5109 
G01 X26.5550 Y61.4891 
G01 X26.5466 Y61.4688 
G01 X26.5312 Y61.4534 
G01 X26.5109 Y61.4450 
G01 X26.4891 Y61.4450 
G01 X26.4688 Y61.4534 
G01 X26.4534 Y61.4688 
G01 X26.4450 Y61.4891 
G01 X26.4450 Y61.5109 
G00 Z1.0000 

G00 X26.4450 Y61.5109 
G01 Z-3.0000 F120.00 
G01 X26.4534 Y61.5312 
G01 X26.4688 Y61.5466 
G01 X26.4891 Y61.5550 
G01 X26.5109 Y61.5550 
G01 X26.5312 Y61.5466 
G01 X26.5466 Y61.5312 
G01 X26.5550 Y61.5109 
G01 X26.5550 Y61.4891 
G01 X26.5466 Y61.4688 
G01 X26.5312 Y61.4534 
G01 X26.5109 Y61.4450 
G01 X26.4891 Y61.4450 
G01 X26.4688 Y61.4534 
G01 X26.4534 Y61.4688 
G01 X26.4450 Y61.4891 
G01 X26.4450 Y61.5109 
G00 Z1.0000 

G00 X26.4450 Y61.5109 
G01 Z-4.2000 F120.00 
G01 X26.4534 Y61.5312 
G01 X26.4688 Y61.5466 
G01 X26.4891 Y61.5550 
G01 X26.5109 Y61.5550 
G01 X26.5312 Y61.5466 
G01 X26.5466 Y61.5312 
G01 X26.5550 Y61.5109 
G01 X26.5550 Y61.4891 
G01 X26.5466 Y61.4688 
G01 X26.5312 Y61.4534 
G01 X26.5109 Y61.4450 
G01 X26.4891 Y61.4450 
G01 X26.4688 Y61.4534 
G01 X26.4534 Y61.4688 
G01 X26.4450 Y61.4891 
G01 X26.4450 Y61.5109 
G00 Z1.0000 




G00 X43.9534 Y61.5312 
G01 Z-1.0000 F120.00 
G01 X43.9688 Y61.5466 
G01 X43.9891 Y61.5550 
G01 X44.0109 Y61.5550 
G01 X44.0312 Y61.5466 
G01 X44.0466 Y61.5312 
G01 X44.0550 Y61.5109 
G01 X44.0550 Y61.4891 
G01 X44.0466 Y61.4688 
G01 X44.0312 Y61.4534 
G01 X44.0109 Y61.4450 
G01 X43.9891 Y61.4450 
G01 X43.9688 Y61.4534 
G01 X43.9534 Y61.4688 
G01 X43.9450 Y61.4891 
G01 X43.9450 Y61.5109 
G01 X43.9534 Y61.5312 
G00 Z1.0000 

G00 X43.9534 Y61.5312 
G01 Z-2.0000 F120.00 
G01 X43.9688 Y61.5466 
G01 X43.9891 Y61.5550 
G01 X44.0109 Y61.5550 
G01 X44.0312 Y61.5466 
G01 X44.0466 Y61.5312 
G01 X44.0550 Y61.5109 
G01 X44.0550 Y61.4891 
G01 X44.0466 Y61.4688 
G01 X44.0312 Y61.4534 
G01 X44.0109 Y61.4450 
G01 X43.9891 Y61.4450 
G01 X43.9688 Y61.4534 
G01 X43.9534 Y61.4688 
G01 X43.9450 Y61.4891 
G01 X43.9450 Y61.5109 
G01 X43.9534 Y61.5312 
G00 Z1.0000 

G00 X43.9534 Y61.5312 
G01 Z-3.0000 F120.00 
G01 X43.9688 Y61.5466 
G01 X43.9891 Y61.5550 
G01 X44.0109 Y61.5550 
G01 X44.0312 Y61.5466 
G01 X44.0466 Y61.5312 
G01 X44.0550 Y61.5109 
G01 X44.0550 Y61.4891 
G01 X44.0466 Y61.4688 
G01 X44.0312 Y61.4534 
G01 X44.0109 Y61.4450 
G01 X43.9891 Y61.4450 
G01 X43.9688 Y61.4534 
G01 X43.9534 Y61.4688 
G01 X43.9450 Y61.4891 
G01 X43.9450 Y61.5109 
G01 X43.9534 Y61.5312 
G00 Z1.0000 

G00 X43.9534 Y61.5312 
G01 Z-4.2000 F120.00 
G01 X43.9688 Y61.5466 
G01 X43.9891 Y61.5550 
G01 X44.0109 Y61.5550 
G01 X44.0312 Y61.5466 
G01 X44.0466 Y61.5312 
G01 X44.0550 Y61.5109 
G01 X44.0550 Y61.4891 
G01 X44.0466 Y61.4688 
G01 X44.0312 Y61.4534 
G01 X44.0109 Y61.4450 
G01 X43.9891 Y61.4450 
G01 X43.9688 Y61.4534 
G01 X43.9534 Y61.4688 
G01 X43.9450 Y61.4891 
G01 X43.9450 Y61.5109 
G01 X43.9534 Y61.5312 
G00 Z1.0000 




G00 X34.9450 Y61.5109 
G01 Z-1.0000 F120.00 
G01 X34.9534 Y61.5312 
G01 X34.9688 Y61.5466 
G01 X34.9891 Y61.5550 
G01 X35.0109 Y61.5550 
G01 X35.0312 Y61.5466 
G01 X35.0466 Y61.5312 
G01 X35.0550 Y61.5109 
G01 X35.0550 Y61.4891 
G01 X35.0466 Y61.4688 
G01 X35.0312 Y61.4534 
G01 X35.0109 Y61.4450 
G01 X34.9891 Y61.4450 
G01 X34.9688 Y61.4534 
G01 X34.9534 Y61.4688 
G01 X34.9450 Y61.4891 
G01 X34.9450 Y61.5109 
G00 Z1.0000 

G00 X34.9450 Y61.5109 
G01 Z-2.0000 F120.00 
G01 X34.9534 Y61.5312 
G01 X34.9688 Y61.5466 
G01 X34.9891 Y61.5550 
G01 X35.0109 Y61.5550 
G01 X35.0312 Y61.5466 
G01 X35.0466 Y61.5312 
G01 X35.0550 Y61.5109 
G01 X35.0550 Y61.4891 
G01 X35.0466 Y61.4688 
G01 X35.0312 Y61.4534 
G01 X35.0109 Y61.4450 
G01 X34.9891 Y61.4450 
G01 X34.9688 Y61.4534 
G01 X34.9534 Y61.4688 
G01 X34.9450 Y61.4891 
G01 X34.9450 Y61.5109 
G00 Z1.0000 

G00 X34.9450 Y61.5109 
G01 Z-3.0000 F120.00 
G01 X34.9534 Y61.5312 
G01 X34.9688 Y61.5466 
G01 X34.9891 Y61.5550 
G01 X35.0109 Y61.5550 
G01 X35.0312 Y61.5466 
G01 X35.0466 Y61.5312 
G01 X35.0550 Y61.5109 
G01 X35.0550 Y61.4891 
G01 X35.0466 Y61.4688 
G01 X35.0312 Y61.4534 
G01 X35.0109 Y61.4450 
G01 X34.9891 Y61.4450 
G01 X34.9688 Y61.4534 
G01 X34.9534 Y61.4688 
G01 X34.9450 Y61.4891 
G01 X34.9450 Y61.5109 
G00 Z1.0000 

G00 X34.9450 Y61.5109 
G01 Z-4.2000 F120.00 
G01 X34.9534 Y61.5312 
G01 X34.9688 Y61.5466 
G01 X34.9891 Y61.5550 
G01 X35.0109 Y61.5550 
G01 X35.0312 Y61.5466 
G01 X35.0466 Y61.5312 
G01 X35.0550 Y61.5109 
G01 X35.0550 Y61.4891 
G01 X35.0466 Y61.4688 
G01 X35.0312 Y61.4534 
G01 X35.0109 Y61.4450 
G01 X34.9891 Y61.4450 
G01 X34.9688 Y61.4534 
G01 X34.9534 Y61.4688 
G01 X34.9450 Y61.4891 
G01 X34.9450 Y61.5109 
G00 Z1.0000 




G00 X64.9450 Y15.0109 
G01 Z-1.0000 F120.00 
G01 X64.9534 Y15.0312 
G01 X64.9688 Y15.0466 
G01 X64.9891 Y15.0550 
G01 X65.0109 Y15.0550 
G01 X65.0312 Y15.0466 
G01 X65.0466 Y15.0312 
G01 X65.0550 Y15.0109 
G01 X65.0550 Y14.9891 
G01 X65.0466 Y14.9688 
G01 X65.0312 Y14.9534 
G01 X65.0109 Y14.9450 
G01 X64.9891 Y14.9450 
G01 X64.9688 Y14.9534 
G01 X64.9534 Y14.9688 
G01 X64.9450 Y14.9891 
G01 X64.9450 Y15.0109 
G00 Z1.0000 

G00 X64.9450 Y15.0109 
G01 Z-2.0000 F120.00 
G01 X64.9534 Y15.0312 
G01 X64.9688 Y15.0466 
G01 X64.9891 Y15.0550 
G01 X65.0109 Y15.0550 
G01 X65.0312 Y15.0466 
G01 X65.0466 Y15.0312 
G01 X65.0550 Y15.0109 
G01 X65.0550 Y14.9891 
G01 X65.0466 Y14.9688 
G01 X65.0312 Y14.9534 
G01 X65.0109 Y14.9450 
G01 X64.9891 Y14.9450 
G01 X64.9688 Y14.9534 
G01 X64.9534 Y14.9688 
G01 X64.9450 Y14.9891 
G01 X64.9450 Y15.0109 
G00 Z1.0000 

G00 X64.9450 Y15.0109 
G01 Z-3.0000 F120.00 
G01 X64.9534 Y15.0312 
G01 X64.9688 Y15.0466 
G01 X64.9891 Y15.0550 
G01 X65.0109 Y15.0550 
G01 X65.0312 Y15.0466 
G01 X65.0466 Y15.0312 
G01 X65.0550 Y15.0109 
G01 X65.0550 Y14.9891 
G01 X65.0466 Y14.9688 
G01 X65.0312 Y14.9534 
G01 X65.0109 Y14.9450 
G01 X64.9891 Y14.9450 
G01 X64.9688 Y14.9534 
G01 X64.9534 Y14.9688 
G01 X64.9450 Y14.9891 
G01 X64.9450 Y15.0109 
G00 Z1.0000 

G00 X64.9450 Y15.0109 
G01 Z-4.2000 F120.00 
G01 X64.9534 Y15.0312 
G01 X64.9688 Y15.0466 
G01 X64.9891 Y15.0550 
G01 X65.0109 Y15.0550 
G01 X65.0312 Y15.0466 
G01 X65.0466 Y15.0312 
G01 X65.0550 Y15.0109 
G01 X65.0550 Y14.9891 
G01 X65.0466 Y14.9688 
G01 X65.0312 Y14.9534 
G01 X65.0109 Y14.9450 
G01 X64.9891 Y14.9450 
G01 X64.9688 Y14.9534 
G01 X64.9534 Y14.9688 
G01 X64.9450 Y14.9891 
G01 X64.9450 Y15.0109 
G00 Z1.0000 




G00 X103.9950 Y40.0010 
G01 Z-1.0000 F120.00 
G01 X103.9958 Y40.0028 
G01 X103.9972 Y40.0042 
G01 X103.9990 Y40.0050 
G01 X105.5010 Y40.0050 
G01 X105.5028 Y40.0042 
G01 X105.5042 Y40.0028 
G01 X105.5050 Y40.0010 
G01 X105.5050 Y29.9990 
G01 X105.5042 Y29.9972 
G01 X105.5028 Y29.9958 
G01 X105.5010 Y29.9950 
G01 X103.9990 Y29.9950 
G01 X103.9972 Y29.9958 
G01 X103.9958 Y29.9972 
G01 X103.9950 Y29.9990 
G01 X103.9950 Y39.6500 
G01 X103.9950 Y40.0010 
G00 Z1.0000 

G00 X103.9950 Y40.0010 
G01 Z-2.0000 F120.00 
G01 X103.9958 Y40.0028 
G01 X103.9972 Y40.0042 
G01 X103.9990 Y40.0050 
G01 X105.5010 Y40.0050 
G01 X105.5028 Y40.0042 
G01 X105.5042 Y40.0028 
G01 X105.5050 Y40.0010 
G01 X105.5050 Y29.9990 
G01 X105.5042 Y29.9972 
G01 X105.5028 Y29.9958 
G01 X105.5010 Y29.9950 
G01 X103.9990 Y29.9950 
G01 X103.9972 Y29.9958 
G01 X103.9958 Y29.9972 
G01 X103.9950 Y29.9990 
G01 X103.9950 Y39.6500 
G01 X103.9950 Y40.0010 
G00 Z1.0000 

G00 X103.9950 Y40.0010 
G01 Z-3.0000 F120.00 
G01 X103.9958 Y40.0028 
G01 X103.9972 Y40.0042 
G01 X103.9990 Y40.0050 
G01 X105.5010 Y40.0050 
G01 X105.5028 Y40.0042 
G01 X105.5042 Y40.0028 
G01 X105.5050 Y40.0010 
G01 X105.5050 Y29.9990 
G01 X105.5042 Y29.9972 
G01 X105.5028 Y29.9958 
G01 X105.5010 Y29.9950 
G01 X103.9990 Y29.9950 
G01 X103.9972 Y29.9958 
G01 X103.9958 Y29.9972 
G01 X103.9950 Y29.9990 
G01 X103.9950 Y39.6500 
G01 X103.9950 Y40.0010 
G00 Z1.0000 

G00 X103.9950 Y40.0010 
G01 Z-4.2000 F120.00 
G01 X103.9958 Y40.0028 
G01 X103.9972 Y40.0042 
G01 X103.9990 Y40.0050 
G01 X105.5010 Y40.0050 
G01 X105.5028 Y40.0042 
G01 X105.5042 Y40.0028 
G01 X105.5050 Y40.0010 
G01 X105.5050 Y29.9990 
G01 X105.5042 Y29.9972 
G01 X105.5028 Y29.9958 
G01 X105.5010 Y29.9950 
G01 X103.9990 Y29.9950 
G01 X103.9972 Y29.9958 
G01 X103.9958 Y29.9972 
G01 X103.9950 Y29.9990 
G01 X103.9950 Y39.6500 
G01 X103.9950 Y40.0010 
G00 Z1.0000 




G00 X104.5241 Y45.4500 
G01 Z-1.0000 F120.00 
G01 X104.5459 Y45.4500 
G01 X104.5662 Y45.4416 
G01 X104.5816 Y45.4262 
G01 X104.5900 Y45.4059 
G01 X104.5900 Y45.3841 
G01 X104.5816 Y45.3638 
G01 X104.5662 Y45.3484 
G01 X104.5459 Y45.3400 
G01 X104.5241 Y45.3400 
G01 X104.5038 Y45.3484 
G01 X104.4884 Y45.3638 
G01 X104.4800 Y45.3841 
G01 X104.4800 Y45.4059 
G01 X104.4884 Y45.4262 
G01 X104.5038 Y45.4416 
G01 X104.5241 Y45.4500 
G00 Z1.0000 

G00 X104.5241 Y45.4500 
G01 Z-2.0000 F120.00 
G01 X104.5459 Y45.4500 
G01 X104.5662 Y45.4416 
G01 X104.5816 Y45.4262 
G01 X104.5900 Y45.4059 
G01 X104.5900 Y45.3841 
G01 X104.5816 Y45.3638 
G01 X104.5662 Y45.3484 
G01 X104.5459 Y45.3400 
G01 X104.5241 Y45.3400 
G01 X104.5038 Y45.3484 
G01 X104.4884 Y45.3638 
G01 X104.4800 Y45.3841 
G01 X104.4800 Y45.4059 
G01 X104.4884 Y45.4262 
G01 X104.5038 Y45.4416 
G01 X104.5241 Y45.4500 
G00 Z1.0000 

G00 X104.5241 Y45.4500 
G01 Z-3.0000 F120.00 
G01 X104.5459 Y45.4500 
G01 X104.5662 Y45.4416 
G01 X104.5816 Y45.4262 
G01 X104.5900 Y45.4059 
G01 X104.5900 Y45.3841 
G01 X104.5816 Y45.3638 
G01 X104.5662 Y45.3484 
G01 X104.5459 Y45.3400 
G01 X104.5241 Y45.3400 
G01 X104.5038 Y45.3484 
G01 X104.4884 Y45.3638 
G01 X104.4800 Y45.3841 
G01 X104.4800 Y45.4059 
G01 X104.4884 Y45.4262 
G01 X104.5038 Y45.4416 
G01 X104.5241 Y45.4500 
G00 Z1.0000 

G00 X104.5241 Y45.4500 
G01 Z-4.2000 F120.00 
G01 X104.5459 Y45.4500 
G01 X104.5662 Y45.4416 
G01 X104.5816 Y45.4262 
G01 X104.5900 Y45.4059 
G01 X104.5900 Y45.3841 
G01 X104.5816 Y45.3638 
G01 X104.5662 Y45.3484 
G01 X104.5459 Y45.3400 
G01 X104.5241 Y45.3400 
G01 X104.5038 Y45.3484 
G01 X104.4884 Y45.3638 
G01 X104.4800 Y45.3841 
G01 X104.4800 Y45.4059 
G01 X104.4884 Y45.4262 
G01 X104.5038 Y45.4416 
G01 X104.5241 Y45.4500 
G00 Z1.0000 




G00 X104.4450 Y24.5109 
G01 Z-1.0000 F120.00 
G01 X104.4534 Y24.5312 
G01 X104.4688 Y24.5466 
G01 X104.4891 Y24.5550 
G01 X104.5109 Y24.5550 
G01 X104.5312 Y24.5466 
G01 X104.5466 Y24.5312 
G01 X104.5550 Y24.5109 
G01 X104.5550 Y24.4891 
G01 X104.5466 Y24.4688 
G01 X104.5312 Y24.4534 
G01 X104.5109 Y24.4450 
G01 X104.4891 Y24.4450 
G01 X104.4688 Y24.4534 
G01 X104.4534 Y24.4688 
G01 X104.4450 Y24.4891 
G01 X104.4450 Y24.5109 
G00 Z1.0000 

G00 X104.4450 Y24.5109 
G01 Z-2.0000 F120.00 
G01 X104.4534 Y24.5312 
G01 X104.4688 Y24.5466 
G01 X104.4891 Y24.5550 
G01 X104.5109 Y24.5550 
G01 X104.5312 Y24.5466 
G01 X104.5466 Y24.5312 
G01 X104.5550 Y24.5109 
G01 X104.5550 Y24.4891 
G01 X104.5466 Y24.4688 
G01 X104.5312 Y24.4534 
G01 X104.5109 Y24.4450 
G01 X104.4891 Y24.4450 
G01 X104.4688 Y24.4534 
G01 X104.4534 Y24.4688 
G01 X104.4450 Y24.4891 
G01 X104.4450 Y24.5109 
G00 Z1.0000 

G00 X104.4450 Y24.5109 
G01 Z-3.0000 F120.00 
G01 X104.4534 Y24.5312 
G01 X104.4688 Y24.5466 
G01 X104.4891 Y24.5550 
G01 X104.5109 Y24.5550 
G01 X104.5312 Y24.5466 
G01 X104.5466 Y24.5312 
G01 X104.5550 Y24.5109 
G01 X104.5550 Y24.4891 
G01 X104.5466 Y24.4688 
G01 X104.5312 Y24.4534 
G01 X104.5109 Y24.4450 
G01 X104.4891 Y24.4450 
G01 X104.4688 Y24.4534 
G01 X104.4534 Y24.4688 
G01 X104.4450 Y24.4891 
G01 X104.4450 Y24.5109 
G00 Z1.0000 

G00 X104.4450 Y24.5109 
G01 Z-4.2000 F120.00 
G01 X104.4534 Y24.5312 
G01 X104.4688 Y24.5466 
G01 X104.4891 Y24.5550 
G01 X104.5109 Y24.5550 
G01 X104.5312 Y24.5466 
G01 X104.5466 Y24.5312 
G01 X104.5550 Y24.5109 
G01 X104.5550 Y24.4891 
G01 X104.5466 Y24.4688 
G01 X104.5312 Y24.4534 
G01 X104.5109 Y24.4450 
G01 X104.4891 Y24.4450 
G01 X104.4688 Y24.4534 
G01 X104.4534 Y24.4688 
G01 X104.4450 Y24.4891 
G01 X104.4450 Y24.5109 
G00 Z1.0000 




G00 X69.5010 Y46.5050 
G01 Z-1.0000 F120.00 
G01 X69.5028 Y46.5042 
G01 X69.5042 Y46.5028 
G01 X69.5050 Y46.5010 
G01 X69.5050 Y45.4990 
G01 X69.5042 Y45.4972 
G01 X69.5028 Y45.4958 
G01 X69.5010 Y45.4950 
G01 X59.4990 Y45.4950 
G01 X59.4972 Y45.4958 
G01 X59.4958 Y45.4972 
G01 X59.4950 Y45.4990 
G01 X59.4950 Y46.5010 
G01 X59.4958 Y46.5028 
G01 X59.4972 Y46.5042 
G01 X59.4990 Y46.5050 
G01 X69.1500 Y46.5050 
G01 X69.5010 Y46.5050 
G00 Z1.0000 

G00 X69.5010 Y46.5050 
G01 Z-2.0000 F120.00 
G01 X69.5028 Y46.5042 
G01 X69.5042 Y46.5028 
G01 X69.5050 Y46.5010 
G01 X69.5050 Y45.4990 
G01 X69.5042 Y45.4972 
G01 X69.5028 Y45.4958 
G01 X69.5010 Y45.4950 
G01 X59.4990 Y45.4950 
G01 X59.4972 Y45.4958 
G01 X59.4958 Y45.4972 
G01 X59.4950 Y45.4990 
G01 X59.4950 Y46.5010 
G01 X59.4958 Y46.5028 
G01 X59.4972 Y46.5042 
G01 X59.4990 Y46.5050 
G01 X69.1500 Y46.5050 
G01 X69.5010 Y46.5050 
G00 Z1.0000 

G00 X69.5010 Y46.5050 
G01 Z-3.0000 F120.00 
G01 X69.5028 Y46.5042 
G01 X69.5042 Y46.5028 
G01 X69.5050 Y46.5010 
G01 X69.5050 Y45.4990 
G01 X69.5042 Y45.4972 
G01 X69.5028 Y45.4958 
G01 X69.5010 Y45.4950 
G01 X59.4990 Y45.4950 
G01 X59.4972 Y45.4958 
G01 X59.4958 Y45.4972 
G01 X59.4950 Y45.4990 
G01 X59.4950 Y46.5010 
G01 X59.4958 Y46.5028 
G01 X59.4972 Y46.5042 
G01 X59.4990 Y46.5050 
G01 X69.1500 Y46.5050 
G01 X69.5010 Y46.5050 
G00 Z1.0000 

G00 X69.5010 Y46.5050 
G01 Z-4.2000 F120.00 
G01 X69.5028 Y46.5042 
G01 X69.5042 Y46.5028 
G01 X69.5050 Y46.5010 
G01 X69.5050 Y45.4990 
G01 X69.5042 Y45.4972 
G01 X69.5028 Y45.4958 
G01 X69.5010 Y45.4950 
G01 X59.4990 Y45.4950 
G01 X59.4972 Y45.4958 
G01 X59.4958 Y45.4972 
G01 X59.4950 Y45.4990 
G01 X59.4950 Y46.5010 
G01 X59.4958 Y46.5028 
G01 X59.4972 Y46.5042 
G01 X59.4990 Y46.5050 
G01 X69.1500 Y46.5050 
G01 X69.5010 Y46.5050 
G00 Z1.0000 




G00 X9.4850 Y50.0509 
G01 Z-1.0000 F120.00 
G01 X9.4934 Y50.0712 
G01 X9.5088 Y50.0866 
G01 X9.5291 Y50.0950 
G01 X9.5509 Y50.0950 
G01 X9.5712 Y50.0866 
G01 X9.5866 Y50.0712 
G01 X9.5950 Y50.0509 
G01 X9.5950 Y50.0291 
G01 X9.5866 Y50.0088 
G01 X9.5712 Y49.9934 
G01 X9.5509 Y49.9850 
G01 X9.5291 Y49.9850 
G01 X9.5088 Y49.9934 
G01 X9.4934 Y50.0088 
G01 X9.4850 Y50.0291 
G01 X9.4850 Y50.0509 
G00 Z1.0000 

G00 X9.4850 Y50.0509 
G01 Z-2.0000 F120.00 
G01 X9.4934 Y50.0712 
G01 X9.5088 Y50.0866 
G01 X9.5291 Y50.0950 
G01 X9.5509 Y50.0950 
G01 X9.5712 Y50.0866 
G01 X9.5866 Y50.0712 
G01 X9.5950 Y50.0509 
G01 X9.5950 Y50.0291 
G01 X9.5866 Y50.0088 
G01 X9.5712 Y49.9934 
G01 X9.5509 Y49.9850 
G01 X9.5291 Y49.9850 
G01 X9.5088 Y49.9934 
G01 X9.4934 Y50.0088 
G01 X9.4850 Y50.0291 
G01 X9.4850 Y50.0509 
G00 Z1.0000 

G00 X9.4850 Y50.0509 
G01 Z-3.0000 F120.00 
G01 X9.4934 Y50.0712 
G01 X9.5088 Y50.0866 
G01 X9.5291 Y50.0950 
G01 X9.5509 Y50.0950 
G01 X9.5712 Y50.0866 
G01 X9.5866 Y50.0712 
G01 X9.5950 Y50.0509 
G01 X9.5950 Y50.0291 
G01 X9.5866 Y50.0088 
G01 X9.5712 Y49.9934 
G01 X9.5509 Y49.9850 
G01 X9.5291 Y49.9850 
G01 X9.5088 Y49.9934 
G01 X9.4934 Y50.0088 
G01 X9.4850 Y50.0291 
G01 X9.4850 Y50.0509 
G00 Z1.0000 

G00 X9.4850 Y50.0509 
G01 Z-4.2000 F120.00 
G01 X9.4934 Y50.0712 
G01 X9.5088 Y50.0866 
G01 X9.5291 Y50.0950 
G01 X9.5509 Y50.0950 
G01 X9.5712 Y50.0866 
G01 X9.5866 Y50.0712 
G01 X9.5950 Y50.0509 
G01 X9.5950 Y50.0291 
G01 X9.5866 Y50.0088 
G01 X9.5712 Y49.9934 
G01 X9.5509 Y49.9850 
G01 X9.5291 Y49.9850 
G01 X9.5088 Y49.9934 
G01 X9.4934 Y50.0088 
G01 X9.4850 Y50.0291 
G01 X9.4850 Y50.0509 
G00 Z1.0000 




G00 X19.9850 Y58.4059 
G01 Z-1.0000 F120.00 
G01 X19.9934 Y58.4262 
G01 X20.0088 Y58.4416 
G01 X20.0291 Y58.4500 
G01 X20.0509 Y58.4500 
G01 X20.0712 Y58.4416 
G01 X20.0866 Y58.4262 
G01 X20.0950 Y58.4059 
G01 X20.0950 Y58.3841 
G01 X20.0866 Y58.3638 
G01 X20.0712 Y58.3484 
G01 X20.0509 Y58.3400 
G01 X20.0291 Y58.3400 
G01 X20.0088 Y58.3484 
G01 X19.9934 Y58.3638 
G01 X19.9850 Y58.3841 
G01 X19.9850 Y58.4059 
G00 Z1.0000 

G00 X19.9850 Y58.4059 
G01 Z-2.0000 F120.00 
G01 X19.9934 Y58.4262 
G01 X20.0088 Y58.4416 
G01 X20.0291 Y58.4500 
G01 X20.0509 Y58.4500 
G01 X20.0712 Y58.4416 
G01 X20.0866 Y58.4262 
G01 X20.0950 Y58.4059 
G01 X20.0950 Y58.3841 
G01 X20.0866 Y58.3638 
G01 X20.0712 Y58.3484 
G01 X20.0509 Y58.3400 
G01 X20.0291 Y58.3400 
G01 X20.0088 Y58.3484 
G01 X19.9934 Y58.3638 
G01 X19.9850 Y58.3841 
G01 X19.9850 Y58.4059 
G00 Z1.0000 

G00 X19.9850 Y58.4059 
G01 Z-3.0000 F120.00 
G01 X19.9934 Y58.4262 
G01 X20.0088 Y58.4416 
G01 X20.0291 Y58.4500 
G01 X20.0509 Y58.4500 
G01 X20.0712 Y58.4416 
G01 X20.0866 Y58.4262 
G01 X20.0950 Y58.4059 
G01 X20.0950 Y58.3841 
G01 X20.0866 Y58.3638 
G01 X20.0712 Y58.3484 
G01 X20.0509 Y58.3400 
G01 X20.0291 Y58.3400 
G01 X20.0088 Y58.3484 
G01 X19.9934 Y58.3638 
G01 X19.9850 Y58.3841 
G01 X19.9850 Y58.4059 
G00 Z1.0000 

G00 X19.9850 Y58.4059 
G01 Z-4.2000 F120.00 
G01 X19.9934 Y58.4262 
G01 X20.0088 Y58.4416 
G01 X20.0291 Y58.4500 
G01 X20.0509 Y58.4500 
G01 X20.0712 Y58.4416 
G01 X20.0866 Y58.4262 
G01 X20.0950 Y58.4059 
G01 X20.0950 Y58.3841 
G01 X20.0866 Y58.3638 
G01 X20.0712 Y58.3484 
G01 X20.0509 Y58.3400 
G01 X20.0291 Y58.3400 
G01 X20.0088 Y58.3484 
G01 X19.9934 Y58.3638 
G01 X19.9850 Y58.3841 
G01 X19.9850 Y58.4059 
G00 Z1.0000 




G00 X9.4850 Y20.0509 
G01 Z-1.0000 F120.00 
G01 X9.4934 Y20.0712 
G01 X9.5088 Y20.0866 
G01 X9.5291 Y20.0950 
G01 X9.5509 Y20.0950 
G01 X9.5712 Y20.0866 
G01 X9.5866 Y20.0712 
G01 X9.5950 Y20.0509 
G01 X9.5950 Y20.0291 
G01 X9.5866 Y20.0088 
G01 X9.5712 Y19.9934 
G01 X9.5509 Y19.9850 
G01 X9.5291 Y19.9850 
G01 X9.5088 Y19.9934 
G01 X9.4934 Y20.0088 
G01 X9.4850 Y20.0291 
G01 X9.4850 Y20.0509 
G00 Z1.0000 

G00 X9.4850 Y20.0509 
G01 Z-2.0000 F120.00 
G01 X9.4934 Y20.0712 
G01 X9.5088 Y20.0866 
G01 X9.5291 Y20.0950 
G01 X9.5509 Y20.0950 
G01 X9.5712 Y20.0866 
G01 X9.5866 Y20.0712 
G01 X9.5950 Y20.0509 
G01 X9.5950 Y20.0291 
G01 X9.5866 Y20.0088 
G01 X9.5712 Y19.9934 
G01 X9.5509 Y19.9850 
G01 X9.5291 Y19.9850 
G01 X9.5088 Y19.9934 
G01 X9.4934 Y20.0088 
G01 X9.4850 Y20.0291 
G01 X9.4850 Y20.0509 
G00 Z1.0000 

G00 X9.4850 Y20.0509 
G01 Z-3.0000 F120.00 
G01 X9.4934 Y20.0712 
G01 X9.5088 Y20.0866 
G01 X9.5291 Y20.0950 
G01 X9.5509 Y20.0950 
G01 X9.5712 Y20.0866 
G01 X9.5866 Y20.0712 
G01 X9.5950 Y20.0509 
G01 X9.5950 Y20.0291 
G01 X9.5866 Y20.0088 
G01 X9.5712 Y19.9934 
G01 X9.5509 Y19.9850 
G01 X9.5291 Y19.9850 
G01 X9.5088 Y19.9934 
G01 X9.4934 Y20.0088 
G01 X9.4850 Y20.0291 
G01 X9.4850 Y20.0509 
G00 Z1.0000 

G00 X9.4850 Y20.0509 
G01 Z-4.2000 F120.00 
G01 X9.4934 Y20.0712 
G01 X9.5088 Y20.0866 
G01 X9.5291 Y20.0950 
G01 X9.5509 Y20.0950 
G01 X9.5712 Y20.0866 
G01 X9.5866 Y20.0712 
G01 X9.5950 Y20.0509 
G01 X9.5950 Y20.0291 
G01 X9.5866 Y20.0088 
G01 X9.5712 Y19.9934 
G01 X9.5509 Y19.9850 
G01 X9.5291 Y19.9850 
G01 X9.5088 Y19.9934 
G01 X9.4934 Y20.0088 
G01 X9.4850 Y20.0291 
G01 X9.4850 Y20.0509 
G00 Z1.0000 




G00 X115.4450 Y52.5109 
G01 Z-1.0000 F120.00 
G01 X115.4534 Y52.5312 
G01 X115.4688 Y52.5466 
G01 X115.4891 Y52.5550 
G01 X115.5109 Y52.5550 
G01 X115.5312 Y52.5466 
G01 X115.5466 Y52.5312 
G01 X115.5550 Y52.5109 
G01 X115.5550 Y52.4891 
G01 X115.5466 Y52.4688 
G01 X115.5312 Y52.4534 
G01 X115.5109 Y52.4450 
G01 X115.4891 Y52.4450 
G01 X115.4688 Y52.4534 
G01 X115.4534 Y52.4688 
G01 X115.4450 Y52.4891 
G01 X115.4450 Y52.5109 
G00 Z1.0000 

G00 X115.4450 Y52.5109 
G01 Z-2.0000 F120.00 
G01 X115.4534 Y52.5312 
G01 X115.4688 Y52.5466 
G01 X115.4891 Y52.5550 
G01 X115.5109 Y52.5550 
G01 X115.5312 Y52.5466 
G01 X115.5466 Y52.5312 
G01 X115.5550 Y52.5109 
G01 X115.5550 Y52.4891 
G01 X115.5466 Y52.4688 
G01 X115.5312 Y52.4534 
G01 X115.5109 Y52.4450 
G01 X115.4891 Y52.4450 
G01 X115.4688 Y52.4534 
G01 X115.4534 Y52.4688 
G01 X115.4450 Y52.4891 
G01 X115.4450 Y52.5109 
G00 Z1.0000 

G00 X115.4450 Y52.5109 
G01 Z-3.0000 F120.00 
G01 X115.4534 Y52.5312 
G01 X115.4688 Y52.5466 
G01 X115.4891 Y52.5550 
G01 X115.5109 Y52.5550 
G01 X115.5312 Y52.5466 
G01 X115.5466 Y52.5312 
G01 X115.5550 Y52.5109 
G01 X115.5550 Y52.4891 
G01 X115.5466 Y52.4688 
G01 X115.5312 Y52.4534 
G01 X115.5109 Y52.4450 
G01 X115.4891 Y52.4450 
G01 X115.4688 Y52.4534 
G01 X115.4534 Y52.4688 
G01 X115.4450 Y52.4891 
G01 X115.4450 Y52.5109 
G00 Z1.0000 

G00 X115.4450 Y52.5109 
G01 Z-4.2000 F120.00 
G01 X115.4534 Y52.5312 
G01 X115.4688 Y52.5466 
G01 X115.4891 Y52.5550 
G01 X115.5109 Y52.5550 
G01 X115.5312 Y52.5466 
G01 X115.5466 Y52.5312 
G01 X115.5550 Y52.5109 
G01 X115.5550 Y52.4891 
G01 X115.5466 Y52.4688 
G01 X115.5312 Y52.4534 
G01 X115.5109 Y52.4450 
G01 X115.4891 Y52.4450 
G01 X115.4688 Y52.4534 
G01 X115.4534 Y52.4688 
G01 X115.4450 Y52.4891 
G01 X115.4450 Y52.5109 
G00 Z1.0000 




G00 X115.4450 Y17.5109 
G01 Z-1.0000 F120.00 
G01 X115.4534 Y17.5312 
G01 X115.4688 Y17.5466 
G01 X115.4891 Y17.5550 
G01 X115.5109 Y17.5550 
G01 X115.5312 Y17.5466 
G01 X115.5466 Y17.5312 
G01 X115.5550 Y17.5109 
G01 X115.5550 Y17.4891 
G01 X115.5466 Y17.4688 
G01 X115.5312 Y17.4534 
G01 X115.5109 Y17.4450 
G01 X115.4891 Y17.4450 
G01 X115.4688 Y17.4534 
G01 X115.4534 Y17.4688 
G01 X115.4450 Y17.4891 
G01 X115.4450 Y17.5109 
G00 Z1.0000 

G00 X115.4450 Y17.5109 
G01 Z-2.0000 F120.00 
G01 X115.4534 Y17.5312 
G01 X115.4688 Y17.5466 
G01 X115.4891 Y17.5550 
G01 X115.5109 Y17.5550 
G01 X115.5312 Y17.5466 
G01 X115.5466 Y17.5312 
G01 X115.5550 Y17.5109 
G01 X115.5550 Y17.4891 
G01 X115.5466 Y17.4688 
G01 X115.5312 Y17.4534 
G01 X115.5109 Y17.4450 
G01 X115.4891 Y17.4450 
G01 X115.4688 Y17.4534 
G01 X115.4534 Y17.4688 
G01 X115.4450 Y17.4891 
G01 X115.4450 Y17.5109 
G00 Z1.0000 

G00 X115.4450 Y17.5109 
G01 Z-3.0000 F120.00 
G01 X115.4534 Y17.5312 
G01 X115.4688 Y17.5466 
G01 X115.4891 Y17.5550 
G01 X115.5109 Y17.5550 
G01 X115.5312 Y17.5466 
G01 X115.5466 Y17.5312 
G01 X115.5550 Y17.5109 
G01 X115.5550 Y17.4891 
G01 X115.5466 Y17.4688 
G01 X115.5312 Y17.4534 
G01 X115.5109 Y17.4450 
G01 X115.4891 Y17.4450 
G01 X115.4688 Y17.4534 
G01 X115.4534 Y17.4688 
G01 X115.4450 Y17.4891 
G01 X115.4450 Y17.5109 
G00 Z1.0000 

G00 X115.4450 Y17.5109 
G01 Z-4.2000 F120.00 
G01 X115.4534 Y17.5312 
G01 X115.4688 Y17.5466 
G01 X115.4891 Y17.5550 
G01 X115.5109 Y17.5550 
G01 X115.5312 Y17.5466 
G01 X115.5466 Y17.5312 
G01 X115.5550 Y17.5109 
G01 X115.5550 Y17.4891 
G01 X115.5466 Y17.4688 
G01 X115.5312 Y17.4534 
G01 X115.5109 Y17.4450 
G01 X115.4891 Y17.4450 
G01 X115.4688 Y17.4534 
G01 X115.4534 Y17.4688 
G01 X115.4450 Y17.4891 
G01 X115.4450 Y17.5109 
G00 Z1.0000 




G00 X34.9450 Y8.5109 
G01 Z-1.0000 F120.00 
G01 X34.9534 Y8.5312 
G01 X34.9688 Y8.5466 
G01 X34.9891 Y8.5550 
G01 X35.0109 Y8.5550 
G01 X35.0312 Y8.5466 
G01 X35.0466 Y8.5312 
G01 X35.0550 Y8.5109 
G01 X35.0550 Y8.4891 
G01 X35.0466 Y8.4688 
G01 X35.0312 Y8.4534 
G01 X35.0109 Y8.4450 
G01 X34.9891 Y8.4450 
G01 X34.9688 Y8.4534 
G01 X34.9534 Y8.4688 
G01 X34.9450 Y8.4891 
G01 X34.9450 Y8.5109 
G00 Z1.0000 

G00 X34.9450 Y8.5109 
G01 Z-2.0000 F120.00 
G01 X34.9534 Y8.5312 
G01 X34.9688 Y8.5466 
G01 X34.9891 Y8.5550 
G01 X35.0109 Y8.5550 
G01 X35.0312 Y8.5466 
G01 X35.0466 Y8.5312 
G01 X35.0550 Y8.5109 
G01 X35.0550 Y8.4891 
G01 X35.0466 Y8.4688 
G01 X35.0312 Y8.4534 
G01 X35.0109 Y8.4450 
G01 X34.9891 Y8.4450 
G01 X34.9688 Y8.4534 
G01 X34.9534 Y8.4688 
G01 X34.9450 Y8.4891 
G01 X34.9450 Y8.5109 
G00 Z1.0000 

G00 X34.9450 Y8.5109 
G01 Z-3.0000 F120.00 
G01 X34.9534 Y8.5312 
G01 X34.9688 Y8.5466 
G01 X34.9891 Y8.5550 
G01 X35.0109 Y8.5550 
G01 X35.0312 Y8.5466 
G01 X35.0466 Y8.5312 
G01 X35.0550 Y8.5109 
G01 X35.0550 Y8.4891 
G01 X35.0466 Y8.4688 
G01 X35.0312 Y8.4534 
G01 X35.0109 Y8.4450 
G01 X34.9891 Y8.4450 
G01 X34.9688 Y8.4534 
G01 X34.9534 Y8.4688 
G01 X34.9450 Y8.4891 
G01 X34.9450 Y8.5109 
G00 Z1.0000 

G00 X34.9450 Y8.5109 
G01 Z-4.2000 F120.00 
G01 X34.9534 Y8.5312 
G01 X34.9688 Y8.5466 
G01 X34.9891 Y8.5550 
G01 X35.0109 Y8.5550 
G01 X35.0312 Y8.5466 
G01 X35.0466 Y8.5312 
G01 X35.0550 Y8.5109 
G01 X35.0550 Y8.4891 
G01 X35.0466 Y8.4688 
G01 X35.0312 Y8.4534 
G01 X35.0109 Y8.4450 
G01 X34.9891 Y8.4450 
G01 X34.9688 Y8.4534 
G01 X34.9534 Y8.4688 
G01 X34.9450 Y8.4891 
G01 X34.9450 Y8.5109 
G00 Z1.0000 




G00 X26.4450 Y8.5109 
G01 Z-1.0000 F120.00 
G01 X26.4534 Y8.5312 
G01 X26.4688 Y8.5466 
G01 X26.4891 Y8.5550 
G01 X26.5109 Y8.5550 
G01 X26.5312 Y8.5466 
G01 X26.5466 Y8.5312 
G01 X26.5550 Y8.5109 
G01 X26.5550 Y8.4891 
G01 X26.5466 Y8.4688 
G01 X26.5312 Y8.4534 
G01 X26.5109 Y8.4450 
G01 X26.4891 Y8.4450 
G01 X26.4688 Y8.4534 
G01 X26.4534 Y8.4688 
G01 X26.4450 Y8.4891 
G01 X26.4450 Y8.5109 
G00 Z1.0000 

G00 X26.4450 Y8.5109 
G01 Z-2.0000 F120.00 
G01 X26.4534 Y8.5312 
G01 X26.4688 Y8.5466 
G01 X26.4891 Y8.5550 
G01 X26.5109 Y8.5550 
G01 X26.5312 Y8.5466 
G01 X26.5466 Y8.5312 
G01 X26.5550 Y8.5109 
G01 X26.5550 Y8.4891 
G01 X26.5466 Y8.4688 
G01 X26.5312 Y8.4534 
G01 X26.5109 Y8.4450 
G01 X26.4891 Y8.4450 
G01 X26.4688 Y8.4534 
G01 X26.4534 Y8.4688 
G01 X26.4450 Y8.4891 
G01 X26.4450 Y8.5109 
G00 Z1.0000 

G00 X26.4450 Y8.5109 
G01 Z-3.0000 F120.00 
G01 X26.4534 Y8.5312 
G01 X26.4688 Y8.5466 
G01 X26.4891 Y8.5550 
G01 X26.5109 Y8.5550 
G01 X26.5312 Y8.5466 
G01 X26.5466 Y8.5312 
G01 X26.5550 Y8.5109 
G01 X26.5550 Y8.4891 
G01 X26.5466 Y8.4688 
G01 X26.5312 Y8.4534 
G01 X26.5109 Y8.4450 
G01 X26.4891 Y8.4450 
G01 X26.4688 Y8.4534 
G01 X26.4534 Y8.4688 
G01 X26.4450 Y8.4891 
G01 X26.4450 Y8.5109 
G00 Z1.0000 

G00 X26.4450 Y8.5109 
G01 Z-4.2000 F120.00 
G01 X26.4534 Y8.5312 
G01 X26.4688 Y8.5466 
G01 X26.4891 Y8.5550 
G01 X26.5109 Y8.5550 
G01 X26.5312 Y8.5466 
G01 X26.5466 Y8.5312 
G01 X26.5550 Y8.5109 
G01 X26.5550 Y8.4891 
G01 X26.5466 Y8.4688 
G01 X26.5312 Y8.4534 
G01 X26.5109 Y8.4450 
G01 X26.4891 Y8.4450 
G01 X26.4688 Y8.4534 
G01 X26.4534 Y8.4688 
G01 X26.4450 Y8.4891 
G01 X26.4450 Y8.5109 
G00 Z1.0000 




G00 X43.9534 Y8.5312 
G01 Z-1.0000 F120.00 
G01 X43.9688 Y8.5466 
G01 X43.9891 Y8.5550 
G01 X44.0109 Y8.5550 
G01 X44.0312 Y8.5466 
G01 X44.0466 Y8.5312 
G01 X44.0550 Y8.5109 
G01 X44.0550 Y8.4891 
G01 X44.0466 Y8.4688 
G01 X44.0312 Y8.4534 
G01 X44.0109 Y8.4450 
G01 X43.9891 Y8.4450 
G01 X43.9688 Y8.4534 
G01 X43.9534 Y8.4688 
G01 X43.9450 Y8.4891 
G01 X43.9450 Y8.5109 
G01 X43.9534 Y8.5312 
G00 Z1.0000 

G00 X43.9534 Y8.5312 
G01 Z-2.0000 F120.00 
G01 X43.9688 Y8.5466 
G01 X43.9891 Y8.5550 
G01 X44.0109 Y8.5550 
G01 X44.0312 Y8.5466 
G01 X44.0466 Y8.5312 
G01 X44.0550 Y8.5109 
G01 X44.0550 Y8.4891 
G01 X44.0466 Y8.4688 
G01 X44.0312 Y8.4534 
G01 X44.0109 Y8.4450 
G01 X43.9891 Y8.4450 
G01 X43.9688 Y8.4534 
G01 X43.9534 Y8.4688 
G01 X43.9450 Y8.4891 
G01 X43.9450 Y8.5109 
G01 X43.9534 Y8.5312 
G00 Z1.0000 

G00 X43.9534 Y8.5312 
G01 Z-3.0000 F120.00 
G01 X43.9688 Y8.5466 
G01 X43.9891 Y8.5550 
G01 X44.0109 Y8.5550 
G01 X44.0312 Y8.5466 
G01 X44.0466 Y8.5312 
G01 X44.0550 Y8.5109 
G01 X44.0550 Y8.4891 
G01 X44.0466 Y8.4688 
G01 X44.0312 Y8.4534 
G01 X44.0109 Y8.4450 
G01 X43.9891 Y8.4450 
G01 X43.9688 Y8.4534 
G01 X43.9534 Y8.4688 
G01 X43.9450 Y8.4891 
G01 X43.9450 Y8.5109 
G01 X43.9534 Y8.5312 
G00 Z1.0000 

G00 X43.9534 Y8.5312 
G01 Z-4.2000 F120.00 
G01 X43.9688 Y8.5466 
G01 X43.9891 Y8.5550 
G01 X44.0109 Y8.5550 
G01 X44.0312 Y8.5466 
G01 X44.0466 Y8.5312 
G01 X44.0550 Y8.5109 
G01 X44.0550 Y8.4891 
G01 X44.0466 Y8.4688 
G01 X44.0312 Y8.4534 
G01 X44.0109 Y8.4450 
G01 X43.9891 Y8.4450 
G01 X43.9688 Y8.4534 
G01 X43.9534 Y8.4688 
G01 X43.9450 Y8.4891 
G01 X43.9450 Y8.5109 
G01 X43.9534 Y8.5312 
G00 Z1.0000 




G00 X82.9450 Y61.5109 
G01 Z-1.0000 F120.00 
G01 X82.9534 Y61.5312 
G01 X82.9688 Y61.5466 
G01 X82.9891 Y61.5550 
G01 X83.0109 Y61.5550 
G01 X83.0312 Y61.5466 
G01 X83.0466 Y61.5312 
G01 X83.0550 Y61.5109 
G01 X83.0550 Y61.4891 
G01 X83.0466 Y61.4688 
G01 X83.0312 Y61.4534 
G01 X83.0109 Y61.4450 
G01 X82.9891 Y61.4450 
G01 X82.9688 Y61.4534 
G01 X82.9534 Y61.4688 
G01 X82.9450 Y61.4891 
G01 X82.9450 Y61.5109 
G00 Z1.0000 

G00 X82.9450 Y61.5109 
G01 Z-2.0000 F120.00 
G01 X82.9534 Y61.5312 
G01 X82.9688 Y61.5466 
G01 X82.9891 Y61.5550 
G01 X83.0109 Y61.5550 
G01 X83.0312 Y61.5466 
G01 X83.0466 Y61.5312 
G01 X83.0550 Y61.5109 
G01 X83.0550 Y61.4891 
G01 X83.0466 Y61.4688 
G01 X83.0312 Y61.4534 
G01 X83.0109 Y61.4450 
G01 X82.9891 Y61.4450 
G01 X82.9688 Y61.4534 
G01 X82.9534 Y61.4688 
G01 X82.9450 Y61.4891 
G01 X82.9450 Y61.5109 
G00 Z1.0000 

G00 X82.9450 Y61.5109 
G01 Z-3.0000 F120.00 
G01 X82.9534 Y61.5312 
G01 X82.9688 Y61.5466 
G01 X82.9891 Y61.5550 
G01 X83.0109 Y61.5550 
G01 X83.0312 Y61.5466 
G01 X83.0466 Y61.5312 
G01 X83.0550 Y61.5109 
G01 X83.0550 Y61.4891 
G01 X83.0466 Y61.4688 
G01 X83.0312 Y61.4534 
G01 X83.0109 Y61.4450 
G01 X82.9891 Y61.4450 
G01 X82.9688 Y61.4534 
G01 X82.9534 Y61.4688 
G01 X82.9450 Y61.4891 
G01 X82.9450 Y61.5109 
G00 Z1.0000 

G00 X82.9450 Y61.5109 
G01 Z-4.2000 F120.00 
G01 X82.9534 Y61.5312 
G01 X82.9688 Y61.5466 
G01 X82.9891 Y61.5550 
G01 X83.0109 Y61.5550 
G01 X83.0312 Y61.5466 
G01 X83.0466 Y61.5312 
G01 X83.0550 Y61.5109 
G01 X83.0550 Y61.4891 
G01 X83.0466 Y61.4688 
G01 X83.0312 Y61.4534 
G01 X83.0109 Y61.4450 
G01 X82.9891 Y61.4450 
G01 X82.9688 Y61.4534 
G01 X82.9534 Y61.4688 
G01 X82.9450 Y61.4891 
G01 X82.9450 Y61.5109 
G00 Z1.0000 




G00 X100.4450 Y61.5109 
G01 Z-1.0000 F120.00 
G01 X100.4534 Y61.5312 
G01 X100.4688 Y61.5466 
G01 X100.4891 Y61.5550 
G01 X100.5109 Y61.5550 
G01 X100.5312 Y61.5466 
G01 X100.5466 Y61.5312 
G01 X100.5550 Y61.5109 
G01 X100.5550 Y61.4891 
G01 X100.5466 Y61.4688 
G01 X100.5312 Y61.4534 
G01 X100.5109 Y61.4450 
G01 X100.4891 Y61.4450 
G01 X100.4688 Y61.4534 
G01 X100.4534 Y61.4688 
G01 X100.4450 Y61.4891 
G01 X100.4450 Y61.5109 
G00 Z1.0000 

G00 X100.4450 Y61.5109 
G01 Z-2.0000 F120.00 
G01 X100.4534 Y61.5312 
G01 X100.4688 Y61.5466 
G01 X100.4891 Y61.5550 
G01 X100.5109 Y61.5550 
G01 X100.5312 Y61.5466 
G01 X100.5466 Y61.5312 
G01 X100.5550 Y61.5109 
G01 X100.5550 Y61.4891 
G01 X100.5466 Y61.4688 
G01 X100.5312 Y61.4534 
G01 X100.5109 Y61.4450 
G01 X100.4891 Y61.4450 
G01 X100.4688 Y61.4534 
G01 X100.4534 Y61.4688 
G01 X100.4450 Y61.4891 
G01 X100.4450 Y61.5109 
G00 Z1.0000 

G00 X100.4450 Y61.5109 
G01 Z-3.0000 F120.00 
G01 X100.4534 Y61.5312 
G01 X100.4688 Y61.5466 
G01 X100.4891 Y61.5550 
G01 X100.5109 Y61.5550 
G01 X100.5312 Y61.5466 
G01 X100.5466 Y61.5312 
G01 X100.5550 Y61.5109 
G01 X100.5550 Y61.4891 
G01 X100.5466 Y61.4688 
G01 X100.5312 Y61.4534 
G01 X100.5109 Y61.4450 
G01 X100.4891 Y61.4450 
G01 X100.4688 Y61.4534 
G01 X100.4534 Y61.4688 
G01 X100.4450 Y61.4891 
G01 X100.4450 Y61.5109 
G00 Z1.0000 

G00 X100.4450 Y61.5109 
G01 Z-4.2000 F120.00 
G01 X100.4534 Y61.5312 
G01 X100.4688 Y61.5466 
G01 X100.4891 Y61.5550 
G01 X100.5109 Y61.5550 
G01 X100.5312 Y61.5466 
G01 X100.5466 Y61.5312 
G01 X100.5550 Y61.5109 
G01 X100.5550 Y61.4891 
G01 X100.5466 Y61.4688 
G01 X100.5312 Y61.4534 
G01 X100.5109 Y61.4450 
G01 X100.4891 Y61.4450 
G01 X100.4688 Y61.4534 
G01 X100.4534 Y61.4688 
G01 X100.4450 Y61.4891 
G01 X100.4450 Y61.5109 
G00 Z1.0000 




G00 X100.4450 Y8.5109 
G01 Z-1.0000 F120.00 
G01 X100.4534 Y8.5312 
G01 X100.4688 Y8.5466 
G01 X100.4891 Y8.5550 
G01 X100.5109 Y8.5550 
G01 X100.5312 Y8.5466 
G01 X100.5466 Y8.5312 
G01 X100.5550 Y8.5109 
G01 X100.5550 Y8.4891 
G01 X100.5466 Y8.4688 
G01 X100.5312 Y8.4534 
G01 X100.5109 Y8.4450 
G01 X100.4891 Y8.4450 
G01 X100.4688 Y8.4534 
G01 X100.4534 Y8.4688 
G01 X100.4450 Y8.4891 
G01 X100.4450 Y8.5109 
G00 Z1.0000 

G00 X100.4450 Y8.5109 
G01 Z-2.0000 F120.00 
G01 X100.4534 Y8.5312 
G01 X100.4688 Y8.5466 
G01 X100.4891 Y8.5550 
G01 X100.5109 Y8.5550 
G01 X100.5312 Y8.5466 
G01 X100.5466 Y8.5312 
G01 X100.5550 Y8.5109 
G01 X100.5550 Y8.4891 
G01 X100.5466 Y8.4688 
G01 X100.5312 Y8.4534 
G01 X100.5109 Y8.4450 
G01 X100.4891 Y8.4450 
G01 X100.4688 Y8.4534 
G01 X100.4534 Y8.4688 
G01 X100.4450 Y8.4891 
G01 X100.4450 Y8.5109 
G00 Z1.0000 

G00 X100.4450 Y8.5109 
G01 Z-3.0000 F120.00 
G01 X100.4534 Y8.5312 
G01 X100.4688 Y8.5466 
G01 X100.4891 Y8.5550 
G01 X100.5109 Y8.5550 
G01 X100.5312 Y8.5466 
G01 X100.5466 Y8.5312 
G01 X100.5550 Y8.5109 
G01 X100.5550 Y8.4891 
G01 X100.5466 Y8.4688 
G01 X100.5312 Y8.4534 
G01 X100.5109 Y8.4450 
G01 X100.4891 Y8.4450 
G01 X100.4688 Y8.4534 
G01 X100.4534 Y8.4688 
G01 X100.4450 Y8.4891 
G01 X100.4450 Y8.5109 
G00 Z1.0000 

G00 X100.4450 Y8.5109 
G01 Z-4.2000 F120.00 
G01 X100.4534 Y8.5312 
G01 X100.4688 Y8.5466 
G01 X100.4891 Y8.5550 
G01 X100.5109 Y8.5550 
G01 X100.5312 Y8.5466 
G01 X100.5466 Y8.5312 
G01 X100.5550 Y8.5109 
G01 X100.5550 Y8.4891 
G01 X100.5466 Y8.4688 
G01 X100.5312 Y8.4534 
G01 X100.5109 Y8.4450 
G01 X100.4891 Y8.4450 
G01 X100.4688 Y8.4534 
G01 X100.4534 Y8.4688 
G01 X100.4450 Y8.4891 
G01 X100.4450 Y8.5109 
G00 Z1.0000 




G00 X21.0300 Y35.0060 
G01 Z-1.0000 F120.00 
G01 X21.0300 Y34.9940 
G01 X21.0254 Y34.9830 
G01 X21.0170 Y34.9746 
G01 X21.0060 Y34.9700 
G01 X18.3389 Y34.9700 
G01 X18.2931 Y34.9734 
G01 X18.2017 Y34.9700 
G01 X18.1103 Y34.9700 
G01 X18.0646 Y34.9648 
G01 X18.0187 Y34.9631 
G01 X17.9283 Y34.9495 
G01 X17.8374 Y34.9393 
G01 X17.7926 Y34.9290 
G01 X17.7471 Y34.9222 
G01 X17.6588 Y34.8985 
G01 X17.5697 Y34.8781 
G01 X17.5263 Y34.8630 
G01 X17.4819 Y34.8511 
G01 X17.3968 Y34.8176 
G01 X17.3105 Y34.7874 
G01 X17.2691 Y34.7675 
G01 X17.2263 Y34.7507 
G01 X17.1454 Y34.7080 
G01 X17.0630 Y34.6683 
G01 X17.0241 Y34.6438 
G01 X16.9835 Y34.6224 
G01 X16.9079 Y34.5708 
G01 X16.8305 Y34.5222 
G01 X16.7946 Y34.4935 
G01 X16.7566 Y34.4676 
G01 X16.6873 Y34.4080 
G01 X16.6158 Y34.3510 
G01 X16.5833 Y34.3185 
G01 X16.5485 Y34.2885 
G01 X16.4863 Y34.2214 
G01 X16.4216 Y34.1568 
G01 X16.4020 Y34.1322 
G01 X15.9855 Y33.7157 
G01 X15.6195 Y33.5044 
G01 X15.2113 Y33.3950 
G01 X14.7887 Y33.3950 
G01 X14.3805 Y33.5044 
G01 X14.0145 Y33.7157 
G01 X13.7157 Y34.0145 
G01 X13.5044 Y34.3805 
G01 X13.3950 Y34.7887 
G01 X13.3950 Y35.2113 
G01 X13.5044 Y35.6195 
G01 X13.7157 Y35.9855 
G01 X14.0145 Y36.2843 
G01 X14.3805 Y36.4956 
G01 X14.7887 Y36.6050 
G01 X15.2113 Y36.6050 
G01 X15.6195 Y36.4956 
G01 X15.9855 Y36.2843 
G01 X16.4020 Y35.8678 
G01 X16.4216 Y35.8432 
G01 X16.4863 Y35.7786 
G01 X16.5485 Y35.7115 
G01 X16.5833 Y35.6815 
G01 X16.6158 Y35.6490 
G01 X16.6873 Y35.5920 
G01 X16.7566 Y35.5324 
G01 X16.7946 Y35.5065 
G01 X16.8305 Y35.4778 
G01 X16.9079 Y35.4292 
G01 X16.9835 Y35.3776 
G01 X17.0241 Y35.3562 
G01 X17.0630 Y35.3317 
G01 X17.1454 Y35.2920 
G01 X17.2263 Y35.2493 
G01 X17.2691 Y35.2325 
G01 X17.3105 Y35.2126 
G01 X17.3968 Y35.1824 
G01 X17.4819 Y35.1489 
G01 X17.5263 Y35.1370 
G01 X17.5697 Y35.1219 
G01 X17.6588 Y35.1015 
G01 X17.7471 Y35.0778 
G01 X17.7926 Y35.0710 
G01 X17.8374 Y35.0607 
G01 X17.9283 Y35.0505 
G01 X18.0187 Y35.0369 
G01 X18.0646 Y35.0351 
G01 X18.1103 Y35.0300 
G01 X18.2017 Y35.0300 
G01 X18.2931 Y35.0266 
G01 X18.3389 Y35.0300 
G01 X21.0060 Y35.0300 
G01 X21.0170 Y35.0254 
G01 X21.0254 Y35.0170 
G01 X21.0300 Y35.0060 
G00 Z1.0000 

G00 X21.0300 Y35.0060 
G01 Z-2.0000 F120.00 
G01 X21.0300 Y34.9940 
G01 X21.0254 Y34.9830 
G01 X21.0170 Y34.9746 
G01 X21.0060 Y34.9700 
G01 X18.3389 Y34.9700 
G01 X18.2931 Y34.9734 
G01 X18.2017 Y34.9700 
G01 X18.1103 Y34.9700 
G01 X18.0646 Y34.9648 
G01 X18.0187 Y34.9631 
G01 X17.9283 Y34.9495 
G01 X17.8374 Y34.9393 
G01 X17.7926 Y34.9290 
G01 X17.7471 Y34.9222 
G01 X17.6588 Y34.8985 
G01 X17.5697 Y34.8781 
G01 X17.5263 Y34.8630 
G01 X17.4819 Y34.8511 
G01 X17.3968 Y34.8176 
G01 X17.3105 Y34.7874 
G01 X17.2691 Y34.7675 
G01 X17.2263 Y34.7507 
G01 X17.1454 Y34.7080 
G01 X17.0630 Y34.6683 
G01 X17.0241 Y34.6438 
G01 X16.9835 Y34.6224 
G01 X16.9079 Y34.5708 
G01 X16.8305 Y34.5222 
G01 X16.7946 Y34.4935 
G01 X16.7566 Y34.4676 
G01 X16.6873 Y34.4080 
G01 X16.6158 Y34.3510 
G01 X16.5833 Y34.3185 
G01 X16.5485 Y34.2885 
G01 X16.4863 Y34.2214 
G01 X16.4216 Y34.1568 
G01 X16.4020 Y34.1322 
G01 X15.9855 Y33.7157 
G01 X15.6195 Y33.5044 
G01 X15.2113 Y33.3950 
G01 X14.7887 Y33.3950 
G01 X14.3805 Y33.5044 
G01 X14.0145 Y33.7157 
G01 X13.7157 Y34.0145 
G01 X13.5044 Y34.3805 
G01 X13.3950 Y34.7887 
G01 X13.3950 Y35.2113 
G01 X13.5044 Y35.6195 
G01 X13.7157 Y35.9855 
G01 X14.0145 Y36.2843 
G01 X14.3805 Y36.4956 
G01 X14.7887 Y36.6050 
G01 X15.2113 Y36.6050 
G01 X15.6195 Y36.4956 
G01 X15.9855 Y36.2843 
G01 X16.4020 Y35.8678 
G01 X16.4216 Y35.8432 
G01 X16.4863 Y35.7786 
G01 X16.5485 Y35.7115 
G01 X16.5833 Y35.6815 
G01 X16.6158 Y35.6490 
G01 X16.6873 Y35.5920 
G01 X16.7566 Y35.5324 
G01 X16.7946 Y35.5065 
G01 X16.8305 Y35.4778 
G01 X16.9079 Y35.4292 
G01 X16.9835 Y35.3776 
G01 X17.0241 Y35.3562 
G01 X17.0630 Y35.3317 
G01 X17.1454 Y35.2920 
G01 X17.2263 Y35.2493 
G01 X17.2691 Y35.2325 
G01 X17.3105 Y35.2126 
G01 X17.3968 Y35.1824 
G01 X17.4819 Y35.1489 
G01 X17.5263 Y35.1370 
G01 X17.5697 Y35.1219 
G01 X17.6588 Y35.1015 
G01 X17.7471 Y35.0778 
G01 X17.7926 Y35.0710 
G01 X17.8374 Y35.0607 
G01 X17.9283 Y35.0505 
G01 X18.0187 Y35.0369 
G01 X18.0646 Y35.0351 
G01 X18.1103 Y35.0300 
G01 X18.2017 Y35.0300 
G01 X18.2931 Y35.0266 
G01 X18.3389 Y35.0300 
G01 X21.0060 Y35.0300 
G01 X21.0170 Y35.0254 
G01 X21.0254 Y35.0170 
G01 X21.0300 Y35.0060 
G00 Z1.0000 

G00 X21.0300 Y35.0060 
G01 Z-3.0000 F120.00 
G01 X21.0300 Y34.9940 
G01 X21.0254 Y34.9830 
G01 X21.0170 Y34.9746 
G01 X21.0060 Y34.9700 
G01 X18.3389 Y34.9700 
G01 X18.2931 Y34.9734 
G01 X18.2017 Y34.9700 
G01 X18.1103 Y34.9700 
G01 X18.0646 Y34.9648 
G01 X18.0187 Y34.9631 
G01 X17.9283 Y34.9495 
G01 X17.8374 Y34.9393 
G01 X17.7926 Y34.9290 
G01 X17.7471 Y34.9222 
G01 X17.6588 Y34.8985 
G01 X17.5697 Y34.8781 
G01 X17.5263 Y34.8630 
G01 X17.4819 Y34.8511 
G01 X17.3968 Y34.8176 
G01 X17.3105 Y34.7874 
G01 X17.2691 Y34.7675 
G01 X17.2263 Y34.7507 
G01 X17.1454 Y34.7080 
G01 X17.0630 Y34.6683 
G01 X17.0241 Y34.6438 
G01 X16.9835 Y34.6224 
G01 X16.9079 Y34.5708 
G01 X16.8305 Y34.5222 
G01 X16.7946 Y34.4935 
G01 X16.7566 Y34.4676 
G01 X16.6873 Y34.4080 
G01 X16.6158 Y34.3510 
G01 X16.5833 Y34.3185 
G01 X16.5485 Y34.2885 
G01 X16.4863 Y34.2214 
G01 X16.4216 Y34.1568 
G01 X16.4020 Y34.1322 
G01 X15.9855 Y33.7157 
G01 X15.6195 Y33.5044 
G01 X15.2113 Y33.3950 
G01 X14.7887 Y33.3950 
G01 X14.3805 Y33.5044 
G01 X14.0145 Y33.7157 
G01 X13.7157 Y34.0145 
G01 X13.5044 Y34.3805 
G01 X13.3950 Y34.7887 
G01 X13.3950 Y35.2113 
G01 X13.5044 Y35.6195 
G01 X13.7157 Y35.9855 
G01 X14.0145 Y36.2843 
G01 X14.3805 Y36.4956 
G01 X14.7887 Y36.6050 
G01 X15.2113 Y36.6050 
G01 X15.6195 Y36.4956 
G01 X15.9855 Y36.2843 
G01 X16.4020 Y35.8678 
G01 X16.4216 Y35.8432 
G01 X16.4863 Y35.7786 
G01 X16.5485 Y35.7115 
G01 X16.5833 Y35.6815 
G01 X16.6158 Y35.6490 
G01 X16.6873 Y35.5920 
G01 X16.7566 Y35.5324 
G01 X16.7946 Y35.5065 
G01 X16.8305 Y35.4778 
G01 X16.9079 Y35.4292 
G01 X16.9835 Y35.3776 
G01 X17.0241 Y35.3562 
G01 X17.0630 Y35.3317 
G01 X17.1454 Y35.2920 
G01 X17.2263 Y35.2493 
G01 X17.2691 Y35.2325 
G01 X17.3105 Y35.2126 
G01 X17.3968 Y35.1824 
G01 X17.4819 Y35.1489 
G01 X17.5263 Y35.1370 
G01 X17.5697 Y35.1219 
G01 X17.6588 Y35.1015 
G01 X17.7471 Y35.0778 
G01 X17.7926 Y35.0710 
G01 X17.8374 Y35.0607 
G01 X17.9283 Y35.0505 
G01 X18.0187 Y35.0369 
G01 X18.0646 Y35.0351 
G01 X18.1103 Y35.0300 
G01 X18.2017 Y35.0300 
G01 X18.2931 Y35.0266 
G01 X18.3389 Y35.0300 
G01 X21.0060 Y35.0300 
G01 X21.0170 Y35.0254 
G01 X21.0254 Y35.0170 
G01 X21.0300 Y35.0060 
G00 Z1.0000 

G00 X21.0300 Y35.0060 
G01 Z-4.2000 F120.00 
G01 X21.0300 Y34.9940 
G01 X21.0254 Y34.9830 
G01 X21.0170 Y34.9746 
G01 X21.0060 Y34.9700 
G01 X18.3389 Y34.9700 
G01 X18.2931 Y34.9734 
G01 X18.2017 Y34.9700 
G01 X18.1103 Y34.9700 
G01 X18.0646 Y34.9648 
G01 X18.0187 Y34.9631 
G01 X17.9283 Y34.9495 
G01 X17.8374 Y34.9393 
G01 X17.7926 Y34.9290 
G01 X17.7471 Y34.9222 
G01 X17.6588 Y34.8985 
G01 X17.5697 Y34.8781 
G01 X17.5263 Y34.8630 
G01 X17.4819 Y34.8511 
G01 X17.3968 Y34.8176 
G01 X17.3105 Y34.7874 
G01 X17.2691 Y34.7675 
G01 X17.2263 Y34.7507 
G01 X17.1454 Y34.7080 
G01 X17.0630 Y34.6683 
G01 X17.0241 Y34.6438 
G01 X16.9835 Y34.6224 
G01 X16.9079 Y34.5708 
G01 X16.8305 Y34.5222 
G01 X16.7946 Y34.4935 
G01 X16.7566 Y34.4676 
G01 X16.6873 Y34.4080 
G01 X16.6158 Y34.3510 
G01 X16.5833 Y34.3185 
G01 X16.5485 Y34.2885 
G01 X16.4863 Y34.2214 
G01 X16.4216 Y34.1568 
G01 X16.4020 Y34.1322 
G01 X15.9855 Y33.7157 
G01 X15.6195 Y33.5044 
G01 X15.2113 Y33.3950 
G01 X14.7887 Y33.3950 
G01 X14.3805 Y33.5044 
G01 X14.0145 Y33.7157 
G01 X13.7157 Y34.0145 
G01 X13.5044 Y34.3805 
G01 X13.3950 Y34.7887 
G01 X13.3950 Y35.2113 
G01 X13.5044 Y35.6195 
G01 X13.7157 Y35.9855 
G01 X14.0145 Y36.2843 
G01 X14.3805 Y36.4956 
G01 X14.7887 Y36.6050 
G01 X15.2113 Y36.6050 
G01 X15.6195 Y36.4956 
G01 X15.9855 Y36.2843 
G01 X16.4020 Y35.8678 
G01 X16.4216 Y35.8432 
G01 X16.4863 Y35.7786 
G01 X16.5485 Y35.7115 
G01 X16.5833 Y35.6815 
G01 X16.6158 Y35.6490 
G01 X16.6873 Y35.5920 
G01 X16.7566 Y35.5324 
G01 X16.7946 Y35.5065 
G01 X16.8305 Y35.4778 
G01 X16.9079 Y35.4292 
G01 X16.9835 Y35.3776 
G01 X17.0241 Y35.3562 
G01 X17.0630 Y35.3317 
G01 X17.1454 Y35.2920 
G01 X17.2263 Y35.2493 
G01 X17.2691 Y35.2325 
G01 X17.3105 Y35.2126 
G01 X17.3968 Y35.1824 
G01 X17.4819 Y35.1489 
G01 X17.5263 Y35.1370 
G01 X17.5697 Y35.1219 
G01 X17.6588 Y35.1015 
G01 X17.7471 Y35.0778 
G01 X17.7926 Y35.0710 
G01 X17.8374 Y35.0607 
G01 X17.9283 Y35.0505 
G01 X18.0187 Y35.0369 
G01 X18.0646 Y35.0351 
G01 X18.1103 Y35.0300 
G01 X18.2017 Y35.0300 
G01 X18.2931 Y35.0266 
G01 X18.3389 Y35.0300 
G01 X21.0060 Y35.0300 
G01 X21.0170 Y35.0254 
G01 X21.0254 Y35.0170 
G01 X21.0300 Y35.0060 
G00 Z1.0000 




G00 X91.4362 Y15.2335 
G01 Z-1.0000 F120.00 
G01 X91.5159 Y15.3715 
G01 X91.6285 Y15.4841 
G01 X91.7665 Y15.5638 
G01 X91.9203 Y15.6050 
G01 X92.0797 Y15.6050 
G01 X92.2335 Y15.5638 
G01 X92.3715 Y15.4841 
G01 X92.4841 Y15.3715 
G01 X92.5638 Y15.2335 
G01 X92.6050 Y15.0797 
G01 X92.6050 Y14.9203 
G01 X92.5638 Y14.7665 
G01 X92.4841 Y14.6285 
G01 X92.3715 Y14.5159 
G01 X92.2335 Y14.4362 
G01 X92.0797 Y14.3950 
G01 X91.9203 Y14.3950 
G01 X91.7665 Y14.4362 
G01 X91.6285 Y14.5159 
G01 X91.5159 Y14.6285 
G01 X91.4362 Y14.7665 
G01 X91.3950 Y14.9203 
G01 X91.3950 Y15.0797 
G01 X91.4362 Y15.2335 
G00 Z1.0000 

G00 X91.4362 Y15.2335 
G01 Z-2.0000 F120.00 
G01 X91.5159 Y15.3715 
G01 X91.6285 Y15.4841 
G01 X91.7665 Y15.5638 
G01 X91.9203 Y15.6050 
G01 X92.0797 Y15.6050 
G01 X92.2335 Y15.5638 
G01 X92.3715 Y15.4841 
G01 X92.4841 Y15.3715 
G01 X92.5638 Y15.2335 
G01 X92.6050 Y15.0797 
G01 X92.6050 Y14.9203 
G01 X92.5638 Y14.7665 
G01 X92.4841 Y14.6285 
G01 X92.3715 Y14.5159 
G01 X92.2335 Y14.4362 
G01 X92.0797 Y14.3950 
G01 X91.9203 Y14.3950 
G01 X91.7665 Y14.4362 
G01 X91.6285 Y14.5159 
G01 X91.5159 Y14.6285 
G01 X91.4362 Y14.7665 
G01 X91.3950 Y14.9203 
G01 X91.3950 Y15.0797 
G01 X91.4362 Y15.2335 
G00 Z1.0000 

G00 X91.4362 Y15.2335 
G01 Z-3.0000 F120.00 
G01 X91.5159 Y15.3715 
G01 X91.6285 Y15.4841 
G01 X91.7665 Y15.5638 
G01 X91.9203 Y15.6050 
G01 X92.0797 Y15.6050 
G01 X92.2335 Y15.5638 
G01 X92.3715 Y15.4841 
G01 X92.4841 Y15.3715 
G01 X92.5638 Y15.2335 
G01 X92.6050 Y15.0797 
G01 X92.6050 Y14.9203 
G01 X92.5638 Y14.7665 
G01 X92.4841 Y14.6285 
G01 X92.3715 Y14.5159 
G01 X92.2335 Y14.4362 
G01 X92.0797 Y14.3950 
G01 X91.9203 Y14.3950 
G01 X91.7665 Y14.4362 
G01 X91.6285 Y14.5159 
G01 X91.5159 Y14.6285 
G01 X91.4362 Y14.7665 
G01 X91.3950 Y14.9203 
G01 X91.3950 Y15.0797 
G01 X91.4362 Y15.2335 
G00 Z1.0000 

G00 X91.4362 Y15.2335 
G01 Z-4.2000 F120.00 
G01 X91.5159 Y15.3715 
G01 X91.6285 Y15.4841 
G01 X91.7665 Y15.5638 
G01 X91.9203 Y15.6050 
G01 X92.0797 Y15.6050 
G01 X92.2335 Y15.5638 
G01 X92.3715 Y15.4841 
G01 X92.4841 Y15.3715 
G01 X92.5638 Y15.2335 
G01 X92.6050 Y15.0797 
G01 X92.6050 Y14.9203 
G01 X92.5638 Y14.7665 
G01 X92.4841 Y14.6285 
G01 X92.3715 Y14.5159 
G01 X92.2335 Y14.4362 
G01 X92.0797 Y14.3950 
G01 X91.9203 Y14.3950 
G01 X91.7665 Y14.4362 
G01 X91.6285 Y14.5159 
G01 X91.5159 Y14.6285 
G01 X91.4362 Y14.7665 
G01 X91.3950 Y14.9203 
G01 X91.3950 Y15.0797 
G01 X91.4362 Y15.2335 
G00 Z1.0000 




G00 X6.5159 Y34.6285 
G01 Z-1.0000 F120.00 
G01 X6.4362 Y34.7665 
G01 X6.3950 Y34.9203 
G01 X6.3950 Y35.0797 
G01 X6.4362 Y35.2335 
G01 X6.5159 Y35.3715 
G01 X6.6285 Y35.4841 
G01 X6.7665 Y35.5638 
G01 X6.9203 Y35.6050 
G01 X7.0796 Y35.6050 
G01 X7.2335 Y35.5638 
G01 X7.3715 Y35.4841 
G01 X7.4841 Y35.3715 
G01 X7.5638 Y35.2335 
G01 X7.6050 Y35.0797 
G01 X7.6050 Y34.9203 
G01 X7.5638 Y34.7665 
G01 X7.4841 Y34.6285 
G01 X7.3715 Y34.5159 
G01 X7.2335 Y34.4362 
G01 X7.0797 Y34.3950 
G01 X6.9203 Y34.3950 
G01 X6.7665 Y34.4362 
G01 X6.6285 Y34.5159 
G01 X6.5159 Y34.6285 
G00 Z1.0000 

G00 X6.5159 Y34.6285 
G01 Z-2.0000 F120.00 
G01 X6.4362 Y34.7665 
G01 X6.3950 Y34.9203 
G01 X6.3950 Y35.0797 
G01 X6.4362 Y35.2335 
G01 X6.5159 Y35.3715 
G01 X6.6285 Y35.4841 
G01 X6.7665 Y35.5638 
G01 X6.9203 Y35.6050 
G01 X7.0796 Y35.6050 
G01 X7.2335 Y35.5638 
G01 X7.3715 Y35.4841 
G01 X7.4841 Y35.3715 
G01 X7.5638 Y35.2335 
G01 X7.6050 Y35.0797 
G01 X7.6050 Y34.9203 
G01 X7.5638 Y34.7665 
G01 X7.4841 Y34.6285 
G01 X7.3715 Y34.5159 
G01 X7.2335 Y34.4362 
G01 X7.0797 Y34.3950 
G01 X6.9203 Y34.3950 
G01 X6.7665 Y34.4362 
G01 X6.6285 Y34.5159 
G01 X6.5159 Y34.6285 
G00 Z1.0000 

G00 X6.5159 Y34.6285 
G01 Z-3.0000 F120.00 
G01 X6.4362 Y34.7665 
G01 X6.3950 Y34.9203 
G01 X6.3950 Y35.0797 
G01 X6.4362 Y35.2335 
G01 X6.5159 Y35.3715 
G01 X6.6285 Y35.4841 
G01 X6.7665 Y35.5638 
G01 X6.9203 Y35.6050 
G01 X7.0796 Y35.6050 
G01 X7.2335 Y35.5638 
G01 X7.3715 Y35.4841 
G01 X7.4841 Y35.3715 
G01 X7.5638 Y35.2335 
G01 X7.6050 Y35.0797 
G01 X7.6050 Y34.9203 
G01 X7.5638 Y34.7665 
G01 X7.4841 Y34.6285 
G01 X7.3715 Y34.5159 
G01 X7.2335 Y34.4362 
G01 X7.0797 Y34.3950 
G01 X6.9203 Y34.3950 
G01 X6.7665 Y34.4362 
G01 X6.6285 Y34.5159 
G01 X6.5159 Y34.6285 
G00 Z1.0000 

G00 X6.5159 Y34.6285 
G01 Z-4.2000 F120.00 
G01 X6.4362 Y34.7665 
G01 X6.3950 Y34.9203 
G01 X6.3950 Y35.0797 
G01 X6.4362 Y35.2335 
G01 X6.5159 Y35.3715 
G01 X6.6285 Y35.4841 
G01 X6.7665 Y35.5638 
G01 X6.9203 Y35.6050 
G01 X7.0796 Y35.6050 
G01 X7.2335 Y35.5638 
G01 X7.3715 Y35.4841 
G01 X7.4841 Y35.3715 
G01 X7.5638 Y35.2335 
G01 X7.6050 Y35.0797 
G01 X7.6050 Y34.9203 
G01 X7.5638 Y34.7665 
G01 X7.4841 Y34.6285 
G01 X7.3715 Y34.5159 
G01 X7.2335 Y34.4362 
G01 X7.0797 Y34.3950 
G01 X6.9203 Y34.3950 
G01 X6.7665 Y34.4362 
G01 X6.6285 Y34.5159 
G01 X6.5159 Y34.6285 
G00 Z1.0000 




G00 X82.9534 Y8.5312 
G01 Z-1.0000 F120.00 
G01 X82.9688 Y8.5466 
G01 X82.9891 Y8.5550 
G01 X83.0109 Y8.5550 
G01 X83.0312 Y8.5466 
G01 X83.0466 Y8.5312 
G01 X83.0550 Y8.5109 
G01 X83.0550 Y8.4891 
G01 X83.0466 Y8.4688 
G01 X83.0312 Y8.4534 
G01 X83.0109 Y8.4450 
G01 X82.9891 Y8.4450 
G01 X82.9688 Y8.4534 
G01 X82.9534 Y8.4688 
G01 X82.9450 Y8.4891 
G01 X82.9450 Y8.5109 
G01 X82.9534 Y8.5312 
G00 Z1.0000 

G00 X82.9534 Y8.5312 
G01 Z-2.0000 F120.00 
G01 X82.9688 Y8.5466 
G01 X82.9891 Y8.5550 
G01 X83.0109 Y8.5550 
G01 X83.0312 Y8.5466 
G01 X83.0466 Y8.5312 
G01 X83.0550 Y8.5109 
G01 X83.0550 Y8.4891 
G01 X83.0466 Y8.4688 
G01 X83.0312 Y8.4534 
G01 X83.0109 Y8.4450 
G01 X82.9891 Y8.4450 
G01 X82.9688 Y8.4534 
G01 X82.9534 Y8.4688 
G01 X82.9450 Y8.4891 
G01 X82.9450 Y8.5109 
G01 X82.9534 Y8.5312 
G00 Z1.0000 

G00 X82.9534 Y8.5312 
G01 Z-3.0000 F120.00 
G01 X82.9688 Y8.5466 
G01 X82.9891 Y8.5550 
G01 X83.0109 Y8.5550 
G01 X83.0312 Y8.5466 
G01 X83.0466 Y8.5312 
G01 X83.0550 Y8.5109 
G01 X83.0550 Y8.4891 
G01 X83.0466 Y8.4688 
G01 X83.0312 Y8.4534 
G01 X83.0109 Y8.4450 
G01 X82.9891 Y8.4450 
G01 X82.9688 Y8.4534 
G01 X82.9534 Y8.4688 
G01 X82.9450 Y8.4891 
G01 X82.9450 Y8.5109 
G01 X82.9534 Y8.5312 
G00 Z1.0000 

G00 X82.9534 Y8.5312 
G01 Z-4.2000 F120.00 
G01 X82.9688 Y8.5466 
G01 X82.9891 Y8.5550 
G01 X83.0109 Y8.5550 
G01 X83.0312 Y8.5466 
G01 X83.0466 Y8.5312 
G01 X83.0550 Y8.5109 
G01 X83.0550 Y8.4891 
G01 X83.0466 Y8.4688 
G01 X83.0312 Y8.4534 
G01 X83.0109 Y8.4450 
G01 X82.9891 Y8.4450 
G01 X82.9688 Y8.4534 
G01 X82.9534 Y8.4688 
G01 X82.9450 Y8.4891 
G01 X82.9450 Y8.5109 
G01 X82.9534 Y8.5312 
G00 Z1.0000 




G00 X91.9450 Y61.5109 
G01 Z-1.0000 F120.00 
G01 X91.9534 Y61.5312 
G01 X91.9688 Y61.5466 
G01 X91.9891 Y61.5550 
G01 X92.0109 Y61.5550 
G01 X92.0312 Y61.5466 
G01 X92.0466 Y61.5312 
G01 X92.0550 Y61.5109 
G01 X92.0550 Y61.4891 
G01 X92.0466 Y61.4688 
G01 X92.0312 Y61.4534 
G01 X92.0109 Y61.4450 
G01 X91.9891 Y61.4450 
G01 X91.9688 Y61.4534 
G01 X91.9534 Y61.4688 
G01 X91.9450 Y61.4891 
G01 X91.9450 Y61.5109 
G00 Z1.0000 

G00 X91.9450 Y61.5109 
G01 Z-2.0000 F120.00 
G01 X91.9534 Y61.5312 
G01 X91.9688 Y61.5466 
G01 X91.9891 Y61.5550 
G01 X92.0109 Y61.5550 
G01 X92.0312 Y61.5466 
G01 X92.0466 Y61.5312 
G01 X92.0550 Y61.5109 
G01 X92.0550 Y61.4891 
G01 X92.0466 Y61.4688 
G01 X92.0312 Y61.4534 
G01 X92.0109 Y61.4450 
G01 X91.9891 Y61.4450 
G01 X91.9688 Y61.4534 
G01 X91.9534 Y61.4688 
G01 X91.9450 Y61.4891 
G01 X91.9450 Y61.5109 
G00 Z1.0000 

G00 X91.9450 Y61.5109 
G01 Z-3.0000 F120.00 
G01 X91.9534 Y61.5312 
G01 X91.9688 Y61.5466 
G01 X91.9891 Y61.5550 
G01 X92.0109 Y61.5550 
G01 X92.0312 Y61.5466 
G01 X92.0466 Y61.5312 
G01 X92.0550 Y61.5109 
G01 X92.0550 Y61.4891 
G01 X92.0466 Y61.4688 
G01 X92.0312 Y61.4534 
G01 X92.0109 Y61.4450 
G01 X91.9891 Y61.4450 
G01 X91.9688 Y61.4534 
G01 X91.9534 Y61.4688 
G01 X91.9450 Y61.4891 
G01 X91.9450 Y61.5109 
G00 Z1.0000 

G00 X91.9450 Y61.5109 
G01 Z-4.2000 F120.00 
G01 X91.9534 Y61.5312 
G01 X91.9688 Y61.5466 
G01 X91.9891 Y61.5550 
G01 X92.0109 Y61.5550 
G01 X92.0312 Y61.5466 
G01 X92.0466 Y61.5312 
G01 X92.0550 Y61.5109 
G01 X92.0550 Y61.4891 
G01 X92.0466 Y61.4688 
G01 X92.0312 Y61.4534 
G01 X92.0109 Y61.4450 
G01 X91.9891 Y61.4450 
G01 X91.9688 Y61.4534 
G01 X91.9534 Y61.4688 
G01 X91.9450 Y61.4891 
G01 X91.9450 Y61.5109 
G00 Z1.0000 




G00 X55.9450 Y55.0109 
G01 Z-1.0000 F120.00 
G01 X55.9534 Y55.0312 
G01 X55.9688 Y55.0466 
G01 X55.9891 Y55.0550 
G01 X56.0109 Y55.0550 
G01 X56.0312 Y55.0466 
G01 X56.0466 Y55.0312 
G01 X56.0550 Y55.0109 
G01 X56.0550 Y54.9891 
G01 X56.0466 Y54.9688 
G01 X56.0312 Y54.9534 
G01 X56.0109 Y54.9450 
G01 X55.9891 Y54.9450 
G01 X55.9688 Y54.9534 
G01 X55.9534 Y54.9688 
G01 X55.9450 Y54.9891 
G01 X55.9450 Y55.0109 
G00 Z1.0000 

G00 X55.9450 Y55.0109 
G01 Z-2.0000 F120.00 
G01 X55.9534 Y55.0312 
G01 X55.9688 Y55.0466 
G01 X55.9891 Y55.0550 
G01 X56.0109 Y55.0550 
G01 X56.0312 Y55.0466 
G01 X56.0466 Y55.0312 
G01 X56.0550 Y55.0109 
G01 X56.0550 Y54.9891 
G01 X56.0466 Y54.9688 
G01 X56.0312 Y54.9534 
G01 X56.0109 Y54.9450 
G01 X55.9891 Y54.9450 
G01 X55.9688 Y54.9534 
G01 X55.9534 Y54.9688 
G01 X55.9450 Y54.9891 
G01 X55.9450 Y55.0109 
G00 Z1.0000 

G00 X55.9450 Y55.0109 
G01 Z-3.0000 F120.00 
G01 X55.9534 Y55.0312 
G01 X55.9688 Y55.0466 
G01 X55.9891 Y55.0550 
G01 X56.0109 Y55.0550 
G01 X56.0312 Y55.0466 
G01 X56.0466 Y55.0312 
G01 X56.0550 Y55.0109 
G01 X56.0550 Y54.9891 
G01 X56.0466 Y54.9688 
G01 X56.0312 Y54.9534 
G01 X56.0109 Y54.9450 
G01 X55.9891 Y54.9450 
G01 X55.9688 Y54.9534 
G01 X55.9534 Y54.9688 
G01 X55.9450 Y54.9891 
G01 X55.9450 Y55.0109 
G00 Z1.0000 

G00 X55.9450 Y55.0109 
G01 Z-4.2000 F120.00 
G01 X55.9534 Y55.0312 
G01 X55.9688 Y55.0466 
G01 X55.9891 Y55.0550 
G01 X56.0109 Y55.0550 
G01 X56.0312 Y55.0466 
G01 X56.0466 Y55.0312 
G01 X56.0550 Y55.0109 
G01 X56.0550 Y54.9891 
G01 X56.0466 Y54.9688 
G01 X56.0312 Y54.9534 
G01 X56.0109 Y54.9450 
G01 X55.9891 Y54.9450 
G01 X55.9688 Y54.9534 
G01 X55.9534 Y54.9688 
G01 X55.9450 Y54.9891 
G01 X55.9450 Y55.0109 
G00 Z1.0000 




G00 X72.9450 Y55.0109 
G01 Z-1.0000 F120.00 
G01 X72.9534 Y55.0312 
G01 X72.9688 Y55.0466 
G01 X72.9891 Y55.0550 
G01 X73.0109 Y55.0550 
G01 X73.0312 Y55.0466 
G01 X73.0466 Y55.0312 
G01 X73.0550 Y55.0109 
G01 X73.0550 Y54.9891 
G01 X73.0466 Y54.9688 
G01 X73.0312 Y54.9534 
G01 X73.0109 Y54.9450 
G01 X72.9891 Y54.9450 
G01 X72.9688 Y54.9534 
G01 X72.9534 Y54.9688 
G01 X72.9450 Y54.9891 
G01 X72.9450 Y55.0109 
G00 Z1.0000 

G00 X72.9450 Y55.0109 
G01 Z-2.0000 F120.00 
G01 X72.9534 Y55.0312 
G01 X72.9688 Y55.0466 
G01 X72.9891 Y55.0550 
G01 X73.0109 Y55.0550 
G01 X73.0312 Y55.0466 
G01 X73.0466 Y55.0312 
G01 X73.0550 Y55.0109 
G01 X73.0550 Y54.9891 
G01 X73.0466 Y54.9688 
G01 X73.0312 Y54.9534 
G01 X73.0109 Y54.9450 
G01 X72.9891 Y54.9450 
G01 X72.9688 Y54.9534 
G01 X72.9534 Y54.9688 
G01 X72.9450 Y54.9891 
G01 X72.9450 Y55.0109 
G00 Z1.0000 

G00 X72.9450 Y55.0109 
G01 Z-3.0000 F120.00 
G01 X72.9534 Y55.0312 
G01 X72.9688 Y55.0466 
G01 X72.9891 Y55.0550 
G01 X73.0109 Y55.0550 
G01 X73.0312 Y55.0466 
G01 X73.0466 Y55.0312 
G01 X73.0550 Y55.0109 
G01 X73.0550 Y54.9891 
G01 X73.0466 Y54.9688 
G01 X73.0312 Y54.9534 
G01 X73.0109 Y54.9450 
G01 X72.9891 Y54.9450 
G01 X72.9688 Y54.9534 
G01 X72.9534 Y54.9688 
G01 X72.9450 Y54.9891 
G01 X72.9450 Y55.0109 
G00 Z1.0000 

G00 X72.9450 Y55.0109 
G01 Z-4.2000 F120.00 
G01 X72.9534 Y55.0312 
G01 X72.9688 Y55.0466 
G01 X72.9891 Y55.0550 
G01 X73.0109 Y55.0550 
G01 X73.0312 Y55.0466 
G01 X73.0466 Y55.0312 
G01 X73.0550 Y55.0109 
G01 X73.0550 Y54.9891 
G01 X73.0466 Y54.9688 
G01 X73.0312 Y54.9534 
G01 X73.0109 Y54.9450 
G01 X72.9891 Y54.9450 
G01 X72.9688 Y54.9534 
G01 X72.9534 Y54.9688 
G01 X72.9450 Y54.9891 
G01 X72.9450 Y55.0109 
G00 Z1.0000 




G00 X76.7450 Y45.3109 
G01 Z-1.0000 F120.00 
G01 X76.7534 Y45.3312 
G01 X76.7688 Y45.3466 
G01 X76.7891 Y45.3550 
G01 X76.8109 Y45.3550 
G01 X76.8312 Y45.3466 
G01 X76.8466 Y45.3312 
G01 X76.8550 Y45.3109 
G01 X76.8550 Y45.2891 
G01 X76.8466 Y45.2688 
G01 X76.8312 Y45.2534 
G01 X76.8109 Y45.2450 
G01 X76.7891 Y45.2450 
G01 X76.7688 Y45.2534 
G01 X76.7534 Y45.2688 
G01 X76.7450 Y45.2891 
G01 X76.7450 Y45.3109 
G00 Z1.0000 

G00 X76.7450 Y45.3109 
G01 Z-2.0000 F120.00 
G01 X76.7534 Y45.3312 
G01 X76.7688 Y45.3466 
G01 X76.7891 Y45.3550 
G01 X76.8109 Y45.3550 
G01 X76.8312 Y45.3466 
G01 X76.8466 Y45.3312 
G01 X76.8550 Y45.3109 
G01 X76.8550 Y45.2891 
G01 X76.8466 Y45.2688 
G01 X76.8312 Y45.2534 
G01 X76.8109 Y45.2450 
G01 X76.7891 Y45.2450 
G01 X76.7688 Y45.2534 
G01 X76.7534 Y45.2688 
G01 X76.7450 Y45.2891 
G01 X76.7450 Y45.3109 
G00 Z1.0000 

G00 X76.7450 Y45.3109 
G01 Z-3.0000 F120.00 
G01 X76.7534 Y45.3312 
G01 X76.7688 Y45.3466 
G01 X76.7891 Y45.3550 
G01 X76.8109 Y45.3550 
G01 X76.8312 Y45.3466 
G01 X76.8466 Y45.3312 
G01 X76.8550 Y45.3109 
G01 X76.8550 Y45.2891 
G01 X76.8466 Y45.2688 
G01 X76.8312 Y45.2534 
G01 X76.8109 Y45.2450 
G01 X76.7891 Y45.2450 
G01 X76.7688 Y45.2534 
G01 X76.7534 Y45.2688 
G01 X76.7450 Y45.2891 
G01 X76.7450 Y45.3109 
G00 Z1.0000 

G00 X76.7450 Y45.3109 
G01 Z-4.2000 F120.00 
G01 X76.7534 Y45.3312 
G01 X76.7688 Y45.3466 
G01 X76.7891 Y45.3550 
G01 X76.8109 Y45.3550 
G01 X76.8312 Y45.3466 
G01 X76.8466 Y45.3312 
G01 X76.8550 Y45.3109 
G01 X76.8550 Y45.2891 
G01 X76.8466 Y45.2688 
G01 X76.8312 Y45.2534 
G01 X76.8109 Y45.2450 
G01 X76.7891 Y45.2450 
G01 X76.7688 Y45.2534 
G01 X76.7534 Y45.2688 
G01 X76.7450 Y45.2891 
G01 X76.7450 Y45.3109 
G00 Z1.0000 




G00 X91.5159 Y43.3715 
G01 Z-1.0000 F120.00 
G01 X91.6285 Y43.4841 
G01 X91.7665 Y43.5638 
G01 X91.9203 Y43.6050 
G01 X92.0797 Y43.6050 
G01 X92.2335 Y43.5638 
G01 X92.3715 Y43.4841 
G01 X92.4841 Y43.3715 
G01 X92.5638 Y43.2335 
G01 X92.6050 Y43.0797 
G01 X92.6050 Y42.9203 
G01 X92.5638 Y42.7665 
G01 X92.4841 Y42.6285 
G01 X92.3715 Y42.5159 
G01 X92.2335 Y42.4362 
G01 X92.0797 Y42.3950 
G01 X91.9203 Y42.3950 
G01 X91.7665 Y42.4362 
G01 X91.6285 Y42.5159 
G01 X91.5159 Y42.6285 
G01 X91.4362 Y42.7665 
G01 X91.3950 Y42.9203 
G01 X91.3950 Y43.0797 
G01 X91.4362 Y43.2335 
G01 X91.5159 Y43.3715 
G00 Z1.0000 

G00 X91.5159 Y43.3715 
G01 Z-2.0000 F120.00 
G01 X91.6285 Y43.4841 
G01 X91.7665 Y43.5638 
G01 X91.9203 Y43.6050 
G01 X92.0797 Y43.6050 
G01 X92.2335 Y43.5638 
G01 X92.3715 Y43.4841 
G01 X92.4841 Y43.3715 
G01 X92.5638 Y43.2335 
G01 X92.6050 Y43.0797 
G01 X92.6050 Y42.9203 
G01 X92.5638 Y42.7665 
G01 X92.4841 Y42.6285 
G01 X92.3715 Y42.5159 
G01 X92.2335 Y42.4362 
G01 X92.0797 Y42.3950 
G01 X91.9203 Y42.3950 
G01 X91.7665 Y42.4362 
G01 X91.6285 Y42.5159 
G01 X91.5159 Y42.6285 
G01 X91.4362 Y42.7665 
G01 X91.3950 Y42.9203 
G01 X91.3950 Y43.0797 
G01 X91.4362 Y43.2335 
G01 X91.5159 Y43.3715 
G00 Z1.0000 

G00 X91.5159 Y43.3715 
G01 Z-3.0000 F120.00 
G01 X91.6285 Y43.4841 
G01 X91.7665 Y43.5638 
G01 X91.9203 Y43.6050 
G01 X92.0797 Y43.6050 
G01 X92.2335 Y43.5638 
G01 X92.3715 Y43.4841 
G01 X92.4841 Y43.3715 
G01 X92.5638 Y43.2335 
G01 X92.6050 Y43.0797 
G01 X92.6050 Y42.9203 
G01 X92.5638 Y42.7665 
G01 X92.4841 Y42.6285 
G01 X92.3715 Y42.5159 
G01 X92.2335 Y42.4362 
G01 X92.0797 Y42.3950 
G01 X91.9203 Y42.3950 
G01 X91.7665 Y42.4362 
G01 X91.6285 Y42.5159 
G01 X91.5159 Y42.6285 
G01 X91.4362 Y42.7665 
G01 X91.3950 Y42.9203 
G01 X91.3950 Y43.0797 
G01 X91.4362 Y43.2335 
G01 X91.5159 Y43.3715 
G00 Z1.0000 

G00 X91.5159 Y43.3715 
G01 Z-4.2000 F120.00 
G01 X91.6285 Y43.4841 
G01 X91.7665 Y43.5638 
G01 X91.9203 Y43.6050 
G01 X92.0797 Y43.6050 
G01 X92.2335 Y43.5638 
G01 X92.3715 Y43.4841 
G01 X92.4841 Y43.3715 
G01 X92.5638 Y43.2335 
G01 X92.6050 Y43.0797 
G01 X92.6050 Y42.9203 
G01 X92.5638 Y42.7665 
G01 X92.4841 Y42.6285 
G01 X92.3715 Y42.5159 
G01 X92.2335 Y42.4362 
G01 X92.0797 Y42.3950 
G01 X91.9203 Y42.3950 
G01 X91.7665 Y42.4362 
G01 X91.6285 Y42.5159 
G01 X91.5159 Y42.6285 
G01 X91.4362 Y42.7665 
G01 X91.3950 Y42.9203 
G01 X91.3950 Y43.0797 
G01 X91.4362 Y43.2335 
G01 X91.5159 Y43.3715 
G00 Z1.0000 




G00 X92.8432 Y33.5784 
G01 Z-1.0000 F120.00 
G01 X92.7786 Y33.5137 
G01 X92.7115 Y33.4515 
G01 X92.6815 Y33.4167 
G01 X92.6490 Y33.3842 
G01 X92.5920 Y33.3127 
G01 X92.5324 Y33.2434 
G01 X92.5065 Y33.2054 
G01 X92.4778 Y33.1695 
G01 X92.4292 Y33.0921 
G01 X92.3776 Y33.0165 
G01 X92.3562 Y32.9759 
G01 X92.3317 Y32.9370 
G01 X92.2920 Y32.8546 
G01 X92.2493 Y32.7737 
G01 X92.2325 Y32.7309 
G01 X92.2126 Y32.6895 
G01 X92.1824 Y32.6032 
G01 X92.1489 Y32.5181 
G01 X92.1370 Y32.4737 
G01 X92.1219 Y32.4303 
G01 X92.1015 Y32.3412 
G01 X92.0778 Y32.2529 
G01 X92.0710 Y32.2074 
G01 X92.0607 Y32.1626 
G01 X92.0505 Y32.0717 
G01 X92.0369 Y31.9813 
G01 X92.0351 Y31.9354 
G01 X92.0300 Y31.8897 
G01 X92.0300 Y31.7983 
G01 X92.0266 Y31.7069 
G01 X92.0300 Y31.6611 
G01 X92.0300 Y28.9940 
G01 X92.0254 Y28.9830 
G01 X92.0170 Y28.9746 
G01 X92.0060 Y28.9700 
G01 X91.9940 Y28.9700 
G01 X91.9830 Y28.9746 
G01 X91.9746 Y28.9830 
G01 X91.9700 Y28.9940 
G01 X91.9700 Y31.6611 
G01 X91.9734 Y31.7069 
G01 X91.9700 Y31.7983 
G01 X91.9700 Y31.8897 
G01 X91.9648 Y31.9354 
G01 X91.9631 Y31.9813 
G01 X91.9495 Y32.0717 
G01 X91.9393 Y32.1626 
G01 X91.9290 Y32.2074 
G01 X91.9222 Y32.2529 
G01 X91.8985 Y32.3412 
G01 X91.8781 Y32.4303 
G01 X91.8630 Y32.4737 
G01 X91.8511 Y32.5181 
G01 X91.8176 Y32.6032 
G01 X91.7874 Y32.6895 
G01 X91.7675 Y32.7309 
G01 X91.7507 Y32.7737 
G01 X91.7080 Y32.8546 
G01 X91.6683 Y32.9370 
G01 X91.6438 Y32.9759 
G01 X91.6224 Y33.0165 
G01 X91.5708 Y33.0921 
G01 X91.5222 Y33.1695 
G01 X91.4935 Y33.2054 
G01 X91.4676 Y33.2434 
G01 X91.4080 Y33.3127 
G01 X91.3510 Y33.3842 
G01 X91.3185 Y33.4167 
G01 X91.2885 Y33.4515 
G01 X91.2214 Y33.5137 
G01 X91.1568 Y33.5784 
G01 X91.1322 Y33.5979 
G01 X90.7157 Y34.0145 
G01 X90.5044 Y34.3805 
G01 X90.3950 Y34.7887 
G01 X90.3950 Y35.2113 
G01 X90.5044 Y35.6195 
G01 X90.7157 Y35.9855 
G01 X91.0145 Y36.2843 
G01 X91.3805 Y36.4956 
G01 X91.7887 Y36.6050 
G01 X92.2113 Y36.6050 
G01 X92.6195 Y36.4956 
G01 X92.9855 Y36.2843 
G01 X93.2843 Y35.9855 
G01 X93.4956 Y35.6195 
G01 X93.6050 Y35.2113 
G01 X93.6050 Y34.7887 
G01 X93.4956 Y34.3805 
G01 X93.2843 Y34.0145 
G01 X92.8678 Y33.5979 
G01 X92.8432 Y33.5784 
G00 Z1.0000 

G00 X92.8432 Y33.5784 
G01 Z-2.0000 F120.00 
G01 X92.7786 Y33.5137 
G01 X92.7115 Y33.4515 
G01 X92.6815 Y33.4167 
G01 X92.6490 Y33.3842 
G01 X92.5920 Y33.3127 
G01 X92.5324 Y33.2434 
G01 X92.5065 Y33.2054 
G01 X92.4778 Y33.1695 
G01 X92.4292 Y33.0921 
G01 X92.3776 Y33.0165 
G01 X92.3562 Y32.9759 
G01 X92.3317 Y32.9370 
G01 X92.2920 Y32.8546 
G01 X92.2493 Y32.7737 
G01 X92.2325 Y32.7309 
G01 X92.2126 Y32.6895 
G01 X92.1824 Y32.6032 
G01 X92.1489 Y32.5181 
G01 X92.1370 Y32.4737 
G01 X92.1219 Y32.4303 
G01 X92.1015 Y32.3412 
G01 X92.0778 Y32.2529 
G01 X92.0710 Y32.2074 
G01 X92.0607 Y32.1626 
G01 X92.0505 Y32.0717 
G01 X92.0369 Y31.9813 
G01 X92.0351 Y31.9354 
G01 X92.0300 Y31.8897 
G01 X92.0300 Y31.7983 
G01 X92.0266 Y31.7069 
G01 X92.0300 Y31.6611 
G01 X92.0300 Y28.9940 
G01 X92.0254 Y28.9830 
G01 X92.0170 Y28.9746 
G01 X92.0060 Y28.9700 
G01 X91.9940 Y28.9700 
G01 X91.9830 Y28.9746 
G01 X91.9746 Y28.9830 
G01 X91.9700 Y28.9940 
G01 X91.9700 Y31.6611 
G01 X91.9734 Y31.7069 
G01 X91.9700 Y31.7983 
G01 X91.9700 Y31.8897 
G01 X91.9648 Y31.9354 
G01 X91.9631 Y31.9813 
G01 X91.9495 Y32.0717 
G01 X91.9393 Y32.1626 
G01 X91.9290 Y32.2074 
G01 X91.9222 Y32.2529 
G01 X91.8985 Y32.3412 
G01 X91.8781 Y32.4303 
G01 X91.8630 Y32.4737 
G01 X91.8511 Y32.5181 
G01 X91.8176 Y32.6032 
G01 X91.7874 Y32.6895 
G01 X91.7675 Y32.7309 
G01 X91.7507 Y32.7737 
G01 X91.7080 Y32.8546 
G01 X91.6683 Y32.9370 
G01 X91.6438 Y32.9759 
G01 X91.6224 Y33.0165 
G01 X91.5708 Y33.0921 
G01 X91.5222 Y33.1695 
G01 X91.4935 Y33.2054 
G01 X91.4676 Y33.2434 
G01 X91.4080 Y33.3127 
G01 X91.3510 Y33.3842 
G01 X91.3185 Y33.4167 
G01 X91.2885 Y33.4515 
G01 X91.2214 Y33.5137 
G01 X91.1568 Y33.5784 
G01 X91.1322 Y33.5979 
G01 X90.7157 Y34.0145 
G01 X90.5044 Y34.3805 
G01 X90.3950 Y34.7887 
G01 X90.3950 Y35.2113 
G01 X90.5044 Y35.6195 
G01 X90.7157 Y35.9855 
G01 X91.0145 Y36.2843 
G01 X91.3805 Y36.4956 
G01 X91.7887 Y36.6050 
G01 X92.2113 Y36.6050 
G01 X92.6195 Y36.4956 
G01 X92.9855 Y36.2843 
G01 X93.2843 Y35.9855 
G01 X93.4956 Y35.6195 
G01 X93.6050 Y35.2113 
G01 X93.6050 Y34.7887 
G01 X93.4956 Y34.3805 
G01 X93.2843 Y34.0145 
G01 X92.8678 Y33.5979 
G01 X92.8432 Y33.5784 
G00 Z1.0000 

G00 X92.8432 Y33.5784 
G01 Z-3.0000 F120.00 
G01 X92.7786 Y33.5137 
G01 X92.7115 Y33.4515 
G01 X92.6815 Y33.4167 
G01 X92.6490 Y33.3842 
G01 X92.5920 Y33.3127 
G01 X92.5324 Y33.2434 
G01 X92.5065 Y33.2054 
G01 X92.4778 Y33.1695 
G01 X92.4292 Y33.0921 
G01 X92.3776 Y33.0165 
G01 X92.3562 Y32.9759 
G01 X92.3317 Y32.9370 
G01 X92.2920 Y32.8546 
G01 X92.2493 Y32.7737 
G01 X92.2325 Y32.7309 
G01 X92.2126 Y32.6895 
G01 X92.1824 Y32.6032 
G01 X92.1489 Y32.5181 
G01 X92.1370 Y32.4737 
G01 X92.1219 Y32.4303 
G01 X92.1015 Y32.3412 
G01 X92.0778 Y32.2529 
G01 X92.0710 Y32.2074 
G01 X92.0607 Y32.1626 
G01 X92.0505 Y32.0717 
G01 X92.0369 Y31.9813 
G01 X92.0351 Y31.9354 
G01 X92.0300 Y31.8897 
G01 X92.0300 Y31.7983 
G01 X92.0266 Y31.7069 
G01 X92.0300 Y31.6611 
G01 X92.0300 Y28.9940 
G01 X92.0254 Y28.9830 
G01 X92.0170 Y28.9746 
G01 X92.0060 Y28.9700 
G01 X91.9940 Y28.9700 
G01 X91.9830 Y28.9746 
G01 X91.9746 Y28.9830 
G01 X91.9700 Y28.9940 
G01 X91.9700 Y31.6611 
G01 X91.9734 Y31.7069 
G01 X91.9700 Y31.7983 
G01 X91.9700 Y31.8897 
G01 X91.9648 Y31.9354 
G01 X91.9631 Y31.9813 
G01 X91.9495 Y32.0717 
G01 X91.9393 Y32.1626 
G01 X91.9290 Y32.2074 
G01 X91.9222 Y32.2529 
G01 X91.8985 Y32.3412 
G01 X91.8781 Y32.4303 
G01 X91.8630 Y32.4737 
G01 X91.8511 Y32.5181 
G01 X91.8176 Y32.6032 
G01 X91.7874 Y32.6895 
G01 X91.7675 Y32.7309 
G01 X91.7507 Y32.7737 
G01 X91.7080 Y32.8546 
G01 X91.6683 Y32.9370 
G01 X91.6438 Y32.9759 
G01 X91.6224 Y33.0165 
G01 X91.5708 Y33.0921 
G01 X91.5222 Y33.1695 
G01 X91.4935 Y33.2054 
G01 X91.4676 Y33.2434 
G01 X91.4080 Y33.3127 
G01 X91.3510 Y33.3842 
G01 X91.3185 Y33.4167 
G01 X91.2885 Y33.4515 
G01 X91.2214 Y33.5137 
G01 X91.1568 Y33.5784 
G01 X91.1322 Y33.5979 
G01 X90.7157 Y34.0145 
G01 X90.5044 Y34.3805 
G01 X90.3950 Y34.7887 
G01 X90.3950 Y35.2113 
G01 X90.5044 Y35.6195 
G01 X90.7157 Y35.9855 
G01 X91.0145 Y36.2843 
G01 X91.3805 Y36.4956 
G01 X91.7887 Y36.6050 
G01 X92.2113 Y36.6050 
G01 X92.6195 Y36.4956 
G01 X92.9855 Y36.2843 
G01 X93.2843 Y35.9855 
G01 X93.4956 Y35.6195 
G01 X93.6050 Y35.2113 
G01 X93.6050 Y34.7887 
G01 X93.4956 Y34.3805 
G01 X93.2843 Y34.0145 
G01 X92.8678 Y33.5979 
G01 X92.8432 Y33.5784 
G00 Z1.0000 

G00 X92.8432 Y33.5784 
G01 Z-4.2000 F120.00 
G01 X92.7786 Y33.5137 
G01 X92.7115 Y33.4515 
G01 X92.6815 Y33.4167 
G01 X92.6490 Y33.3842 
G01 X92.5920 Y33.3127 
G01 X92.5324 Y33.2434 
G01 X92.5065 Y33.2054 
G01 X92.4778 Y33.1695 
G01 X92.4292 Y33.0921 
G01 X92.3776 Y33.0165 
G01 X92.3562 Y32.9759 
G01 X92.3317 Y32.9370 
G01 X92.2920 Y32.8546 
G01 X92.2493 Y32.7737 
G01 X92.2325 Y32.7309 
G01 X92.2126 Y32.6895 
G01 X92.1824 Y32.6032 
G01 X92.1489 Y32.5181 
G01 X92.1370 Y32.4737 
G01 X92.1219 Y32.4303 
G01 X92.1015 Y32.3412 
G01 X92.0778 Y32.2529 
G01 X92.0710 Y32.2074 
G01 X92.0607 Y32.1626 
G01 X92.0505 Y32.0717 
G01 X92.0369 Y31.9813 
G01 X92.0351 Y31.9354 
G01 X92.0300 Y31.8897 
G01 X92.0300 Y31.7983 
G01 X92.0266 Y31.7069 
G01 X92.0300 Y31.6611 
G01 X92.0300 Y28.9940 
G01 X92.0254 Y28.9830 
G01 X92.0170 Y28.9746 
G01 X92.0060 Y28.9700 
G01 X91.9940 Y28.9700 
G01 X91.9830 Y28.9746 
G01 X91.9746 Y28.9830 
G01 X91.9700 Y28.9940 
G01 X91.9700 Y31.6611 
G01 X91.9734 Y31.7069 
G01 X91.9700 Y31.7983 
G01 X91.9700 Y31.8897 
G01 X91.9648 Y31.9354 
G01 X91.9631 Y31.9813 
G01 X91.9495 Y32.0717 
G01 X91.9393 Y32.1626 
G01 X91.9290 Y32.2074 
G01 X91.9222 Y32.2529 
G01 X91.8985 Y32.3412 
G01 X91.8781 Y32.4303 
G01 X91.8630 Y32.4737 
G01 X91.8511 Y32.5181 
G01 X91.8176 Y32.6032 
G01 X91.7874 Y32.6895 
G01 X91.7675 Y32.7309 
G01 X91.7507 Y32.7737 
G01 X91.7080 Y32.8546 
G01 X91.6683 Y32.9370 
G01 X91.6438 Y32.9759 
G01 X91.6224 Y33.0165 
G01 X91.5708 Y33.0921 
G01 X91.5222 Y33.1695 
G01 X91.4935 Y33.2054 
G01 X91.4676 Y33.2434 
G01 X91.4080 Y33.3127 
G01 X91.3510 Y33.3842 
G01 X91.3185 Y33.4167 
G01 X91.2885 Y33.4515 
G01 X91.2214 Y33.5137 
G01 X91.1568 Y33.5784 
G01 X91.1322 Y33.5979 
G01 X90.7157 Y34.0145 
G01 X90.5044 Y34.3805 
G01 X90.3950 Y34.7887 
G01 X90.3950 Y35.2113 
G01 X90.5044 Y35.6195 
G01 X90.7157 Y35.9855 
G01 X91.0145 Y36.2843 
G01 X91.3805 Y36.4956 
G01 X91.7887 Y36.6050 
G01 X92.2113 Y36.6050 
G01 X92.6195 Y36.4956 
G01 X92.9855 Y36.2843 
G01 X93.2843 Y35.9855 
G01 X93.4956 Y35.6195 
G01 X93.6050 Y35.2113 
G01 X93.6050 Y34.7887 
G01 X93.4956 Y34.3805 
G01 X93.2843 Y34.0145 
G01 X92.8678 Y33.5979 
G01 X92.8432 Y33.5784 
G00 Z1.0000 




G00 X19.9850 Y12.0509 
G01 Z-1.0000 F120.00 
G01 X19.9934 Y12.0712 
G01 X20.0088 Y12.0866 
G01 X20.0291 Y12.0950 
G01 X20.0509 Y12.0950 
G01 X20.0711 Y12.0866 
G01 X20.0866 Y12.0712 
G01 X20.0950 Y12.0509 
G01 X20.0950 Y12.0291 
G01 X20.0866 Y12.0088 
G01 X20.0712 Y11.9934 
G01 X20.0509 Y11.9850 
G01 X20.0291 Y11.9850 
G01 X20.0088 Y11.9934 
G01 X19.9934 Y12.0088 
G01 X19.9850 Y12.0291 
G01 X19.9850 Y12.0509 
G00 Z1.0000 

G00 X19.9850 Y12.0509 
G01 Z-2.0000 F120.00 
G01 X19.9934 Y12.0712 
G01 X20.0088 Y12.0866 
G01 X20.0291 Y12.0950 
G01 X20.0509 Y12.0950 
G01 X20.0711 Y12.0866 
G01 X20.0866 Y12.0712 
G01 X20.0950 Y12.0509 
G01 X20.0950 Y12.0291 
G01 X20.0866 Y12.0088 
G01 X20.0712 Y11.9934 
G01 X20.0509 Y11.9850 
G01 X20.0291 Y11.9850 
G01 X20.0088 Y11.9934 
G01 X19.9934 Y12.0088 
G01 X19.9850 Y12.0291 
G01 X19.9850 Y12.0509 
G00 Z1.0000 

G00 X19.9850 Y12.0509 
G01 Z-3.0000 F120.00 
G01 X19.9934 Y12.0712 
G01 X20.0088 Y12.0866 
G01 X20.0291 Y12.0950 
G01 X20.0509 Y12.0950 
G01 X20.0711 Y12.0866 
G01 X20.0866 Y12.0712 
G01 X20.0950 Y12.0509 
G01 X20.0950 Y12.0291 
G01 X20.0866 Y12.0088 
G01 X20.0712 Y11.9934 
G01 X20.0509 Y11.9850 
G01 X20.0291 Y11.9850 
G01 X20.0088 Y11.9934 
G01 X19.9934 Y12.0088 
G01 X19.9850 Y12.0291 
G01 X19.9850 Y12.0509 
G00 Z1.0000 

G00 X19.9850 Y12.0509 
G01 Z-4.2000 F120.00 
G01 X19.9934 Y12.0712 
G01 X20.0088 Y12.0866 
G01 X20.0291 Y12.0950 
G01 X20.0509 Y12.0950 
G01 X20.0711 Y12.0866 
G01 X20.0866 Y12.0712 
G01 X20.0950 Y12.0509 
G01 X20.0950 Y12.0291 
G01 X20.0866 Y12.0088 
G01 X20.0712 Y11.9934 
G01 X20.0509 Y11.9850 
G01 X20.0291 Y11.9850 
G01 X20.0088 Y11.9934 
G01 X19.9934 Y12.0088 
G01 X19.9850 Y12.0291 
G01 X19.9850 Y12.0509 
G00 Z1.0000 




G00 X106.9800 Y12.0509 
G01 Z-1.0000 F120.00 
G01 X106.9884 Y12.0712 
G01 X107.0038 Y12.0866 
G01 X107.0241 Y12.0950 
G01 X107.0459 Y12.0950 
G01 X107.0662 Y12.0866 
G01 X107.0816 Y12.0712 
G01 X107.0900 Y12.0509 
G01 X107.0900 Y12.0291 
G01 X107.0816 Y12.0088 
G01 X107.0662 Y11.9934 
G01 X107.0459 Y11.9850 
G01 X107.0241 Y11.9850 
G01 X107.0038 Y11.9934 
G01 X106.9884 Y12.0088 
G01 X106.9800 Y12.0291 
G01 X106.9800 Y12.0509 
G00 Z1.0000 

G00 X106.9800 Y12.0509 
G01 Z-2.0000 F120.00 
G01 X106.9884 Y12.0712 
G01 X107.0038 Y12.0866 
G01 X107.0241 Y12.0950 
G01 X107.0459 Y12.0950 
G01 X107.0662 Y12.0866 
G01 X107.0816 Y12.0712 
G01 X107.0900 Y12.0509 
G01 X107.0900 Y12.0291 
G01 X107.0816 Y12.0088 
G01 X107.0662 Y11.9934 
G01 X107.0459 Y11.9850 
G01 X107.0241 Y11.9850 
G01 X107.0038 Y11.9934 
G01 X106.9884 Y12.0088 
G01 X106.9800 Y12.0291 
G01 X106.9800 Y12.0509 
G00 Z1.0000 

G00 X106.9800 Y12.0509 
G01 Z-3.0000 F120.00 
G01 X106.9884 Y12.0712 
G01 X107.0038 Y12.0866 
G01 X107.0241 Y12.0950 
G01 X107.0459 Y12.0950 
G01 X107.0662 Y12.0866 
G01 X107.0816 Y12.0712 
G01 X107.0900 Y12.0509 
G01 X107.0900 Y12.0291 
G01 X107.0816 Y12.0088 
G01 X107.0662 Y11.9934 
G01 X107.0459 Y11.9850 
G01 X107.0241 Y11.9850 
G01 X107.0038 Y11.9934 
G01 X106.9884 Y12.0088 
G01 X106.9800 Y12.0291 
G01 X106.9800 Y12.0509 
G00 Z1.0000 

G00 X106.9800 Y12.0509 
G01 Z-4.2000 F120.00 
G01 X106.9884 Y12.0712 
G01 X107.0038 Y12.0866 
G01 X107.0241 Y12.0950 
G01 X107.0459 Y12.0950 
G01 X107.0662 Y12.0866 
G01 X107.0816 Y12.0712 
G01 X107.0900 Y12.0509 
G01 X107.0900 Y12.0291 
G01 X107.0816 Y12.0088 
G01 X107.0662 Y11.9934 
G01 X107.0459 Y11.9850 
G01 X107.0241 Y11.9850 
G01 X107.0038 Y11.9934 
G01 X106.9884 Y12.0088 
G01 X106.9800 Y12.0291 
G01 X106.9800 Y12.0509 
G00 Z1.0000 




G00 X106.9800 Y58.4059 
G01 Z-1.0000 F120.00 
G01 X106.9884 Y58.4261 
G01 X107.0038 Y58.4416 
G01 X107.0241 Y58.4500 
G01 X107.0459 Y58.4500 
G01 X107.0662 Y58.4416 
G01 X107.0816 Y58.4262 
G01 X107.0900 Y58.4059 
G01 X107.0900 Y58.3841 
G01 X107.0816 Y58.3638 
G01 X107.0662 Y58.3484 
G01 X107.0459 Y58.3400 
G01 X107.0241 Y58.3400 
G01 X107.0038 Y58.3484 
G01 X106.9884 Y58.3638 
G01 X106.9800 Y58.3841 
G01 X106.9800 Y58.4059 
G00 Z1.0000 

G00 X106.9800 Y58.4059 
G01 Z-2.0000 F120.00 
G01 X106.9884 Y58.4261 
G01 X107.0038 Y58.4416 
G01 X107.0241 Y58.4500 
G01 X107.0459 Y58.4500 
G01 X107.0662 Y58.4416 
G01 X107.0816 Y58.4262 
G01 X107.0900 Y58.4059 
G01 X107.0900 Y58.3841 
G01 X107.0816 Y58.3638 
G01 X107.0662 Y58.3484 
G01 X107.0459 Y58.3400 
G01 X107.0241 Y58.3400 
G01 X107.0038 Y58.3484 
G01 X106.9884 Y58.3638 
G01 X106.9800 Y58.3841 
G01 X106.9800 Y58.4059 
G00 Z1.0000 

G00 X106.9800 Y58.4059 
G01 Z-3.0000 F120.00 
G01 X106.9884 Y58.4261 
G01 X107.0038 Y58.4416 
G01 X107.0241 Y58.4500 
G01 X107.0459 Y58.4500 
G01 X107.0662 Y58.4416 
G01 X107.0816 Y58.4262 
G01 X107.0900 Y58.4059 
G01 X107.0900 Y58.3841 
G01 X107.0816 Y58.3638 
G01 X107.0662 Y58.3484 
G01 X107.0459 Y58.3400 
G01 X107.0241 Y58.3400 
G01 X107.0038 Y58.3484 
G01 X106.9884 Y58.3638 
G01 X106.9800 Y58.3841 
G01 X106.9800 Y58.4059 
G00 Z1.0000 

G00 X106.9800 Y58.4059 
G01 Z-4.2000 F120.00 
G01 X106.9884 Y58.4261 
G01 X107.0038 Y58.4416 
G01 X107.0241 Y58.4500 
G01 X107.0459 Y58.4500 
G01 X107.0662 Y58.4416 
G01 X107.0816 Y58.4262 
G01 X107.0900 Y58.4059 
G01 X107.0900 Y58.3841 
G01 X107.0816 Y58.3638 
G01 X107.0662 Y58.3484 
G01 X107.0459 Y58.3400 
G01 X107.0241 Y58.3400 
G01 X107.0038 Y58.3484 
G01 X106.9884 Y58.3638 
G01 X106.9800 Y58.3841 
G01 X106.9800 Y58.4059 
G00 Z1.0000 




G00 X39.5010 Y46.5050 
G01 Z-1.0000 F120.00 
G01 X39.5028 Y46.5042 
G01 X39.5042 Y46.5028 
G01 X39.5050 Y46.5010 
G01 X39.5050 Y44.9990 
G01 X39.5042 Y44.9972 
G01 X39.5028 Y44.9958 
G01 X39.5010 Y44.9950 
G01 X29.4990 Y44.9950 
G01 X29.4972 Y44.9958 
G01 X29.4958 Y44.9972 
G01 X29.4950 Y44.9990 
G01 X29.4950 Y46.5010 
G01 X29.4958 Y46.5028 
G01 X29.4972 Y46.5042 
G01 X29.4990 Y46.5050 
G01 X39.1500 Y46.5050 
G01 X39.5010 Y46.5050 
G00 Z1.0000 

G00 X39.5010 Y46.5050 
G01 Z-2.0000 F120.00 
G01 X39.5028 Y46.5042 
G01 X39.5042 Y46.5028 
G01 X39.5050 Y46.5010 
G01 X39.5050 Y44.9990 
G01 X39.5042 Y44.9972 
G01 X39.5028 Y44.9958 
G01 X39.5010 Y44.9950 
G01 X29.4990 Y44.9950 
G01 X29.4972 Y44.9958 
G01 X29.4958 Y44.9972 
G01 X29.4950 Y44.9990 
G01 X29.4950 Y46.5010 
G01 X29.4958 Y46.5028 
G01 X29.4972 Y46.5042 
G01 X29.4990 Y46.5050 
G01 X39.1500 Y46.5050 
G01 X39.5010 Y46.5050 
G00 Z1.0000 

G00 X39.5010 Y46.5050 
G01 Z-3.0000 F120.00 
G01 X39.5028 Y46.5042 
G01 X39.5042 Y46.5028 
G01 X39.5050 Y46.5010 
G01 X39.5050 Y44.9990 
G01 X39.5042 Y44.9972 
G01 X39.5028 Y44.9958 
G01 X39.5010 Y44.9950 
G01 X29.4990 Y44.9950 
G01 X29.4972 Y44.9958 
G01 X29.4958 Y44.9972 
G01 X29.4950 Y44.9990 
G01 X29.4950 Y46.5010 
G01 X29.4958 Y46.5028 
G01 X29.4972 Y46.5042 
G01 X29.4990 Y46.5050 
G01 X39.1500 Y46.5050 
G01 X39.5010 Y46.5050 
G00 Z1.0000 

G00 X39.5010 Y46.5050 
G01 Z-4.2000 F120.00 
G01 X39.5028 Y46.5042 
G01 X39.5042 Y46.5028 
G01 X39.5050 Y46.5010 
G01 X39.5050 Y44.9990 
G01 X39.5042 Y44.9972 
G01 X39.5028 Y44.9958 
G01 X39.5010 Y44.9950 
G01 X29.4990 Y44.9950 
G01 X29.4972 Y44.9958 
G01 X29.4958 Y44.9972 
G01 X29.4950 Y44.9990 
G01 X29.4950 Y46.5010 
G01 X29.4958 Y46.5028 
G01 X29.4972 Y46.5042 
G01 X29.4990 Y46.5050 
G01 X39.1500 Y46.5050 
G01 X39.5010 Y46.5050 
G00 Z1.0000 




G00 X48.9450 Y24.5109 
G01 Z-1.0000 F120.00 
G01 X48.9534 Y24.5312 
G01 X48.9688 Y24.5466 
G01 X48.9891 Y24.5550 
G01 X49.0109 Y24.5550 
G01 X49.0312 Y24.5466 
G01 X49.0466 Y24.5312 
G01 X49.0550 Y24.5109 
G01 X49.0550 Y24.4891 
G01 X49.0466 Y24.4688 
G01 X49.0312 Y24.4534 
G01 X49.0109 Y24.4450 
G01 X48.9891 Y24.4450 
G01 X48.9688 Y24.4534 
G01 X48.9534 Y24.4688 
G01 X48.9450 Y24.4891 
G01 X48.9450 Y24.5109 
G00 Z1.0000 

G00 X48.9450 Y24.5109 
G01 Z-2.0000 F120.00 
G01 X48.9534 Y24.5312 
G01 X48.9688 Y24.5466 
G01 X48.9891 Y24.5550 
G01 X49.0109 Y24.5550 
G01 X49.0312 Y24.5466 
G01 X49.0466 Y24.5312 
G01 X49.0550 Y24.5109 
G01 X49.0550 Y24.4891 
G01 X49.0466 Y24.4688 
G01 X49.0312 Y24.4534 
G01 X49.0109 Y24.4450 
G01 X48.9891 Y24.4450 
G01 X48.9688 Y24.4534 
G01 X48.9534 Y24.4688 
G01 X48.9450 Y24.4891 
G01 X48.9450 Y24.5109 
G00 Z1.0000 

G00 X48.9450 Y24.5109 
G01 Z-3.0000 F120.00 
G01 X48.9534 Y24.5312 
G01 X48.9688 Y24.5466 
G01 X48.9891 Y24.5550 
G01 X49.0109 Y24.5550 
G01 X49.0312 Y24.5466 
G01 X49.0466 Y24.5312 
G01 X49.0550 Y24.5109 
G01 X49.0550 Y24.4891 
G01 X49.0466 Y24.4688 
G01 X49.0312 Y24.4534 
G01 X49.0109 Y24.4450 
G01 X48.9891 Y24.4450 
G01 X48.9688 Y24.4534 
G01 X48.9534 Y24.4688 
G01 X48.9450 Y24.4891 
G01 X48.9450 Y24.5109 
G00 Z1.0000 

G00 X48.9450 Y24.5109 
G01 Z-4.2000 F120.00 
G01 X48.9534 Y24.5312 
G01 X48.9688 Y24.5466 
G01 X48.9891 Y24.5550 
G01 X49.0109 Y24.5550 
G01 X49.0312 Y24.5466 
G01 X49.0466 Y24.5312 
G01 X49.0550 Y24.5109 
G01 X49.0550 Y24.4891 
G01 X49.0466 Y24.4688 
G01 X49.0312 Y24.4534 
G01 X49.0109 Y24.4450 
G01 X48.9891 Y24.4450 
G01 X48.9688 Y24.4534 
G01 X48.9534 Y24.4688 
G01 X48.9450 Y24.4891 
G01 X48.9450 Y24.5109 
G00 Z1.0000 




G00 X48.9450 Y45.3109 
G01 Z-1.0000 F120.00 
G01 X48.9534 Y45.3312 
G01 X48.9688 Y45.3466 
G01 X48.9891 Y45.3550 
G01 X49.0109 Y45.3550 
G01 X49.0312 Y45.3466 
G01 X49.0466 Y45.3312 
G01 X49.0550 Y45.3109 
G01 X49.0550 Y45.2891 
G01 X49.0466 Y45.2688 
G01 X49.0312 Y45.2534 
G01 X49.0109 Y45.2450 
G01 X48.9891 Y45.2450 
G01 X48.9688 Y45.2534 
G01 X48.9534 Y45.2688 
G01 X48.9450 Y45.2891 
G01 X48.9450 Y45.3109 
G00 Z1.0000 

G00 X48.9450 Y45.3109 
G01 Z-2.0000 F120.00 
G01 X48.9534 Y45.3312 
G01 X48.9688 Y45.3466 
G01 X48.9891 Y45.3550 
G01 X49.0109 Y45.3550 
G01 X49.0312 Y45.3466 
G01 X49.0466 Y45.3312 
G01 X49.0550 Y45.3109 
G01 X49.0550 Y45.2891 
G01 X49.0466 Y45.2688 
G01 X49.0312 Y45.2534 
G01 X49.0109 Y45.2450 
G01 X48.9891 Y45.2450 
G01 X48.9688 Y45.2534 
G01 X48.9534 Y45.2688 
G01 X48.9450 Y45.2891 
G01 X48.9450 Y45.3109 
G00 Z1.0000 

G00 X48.9450 Y45.3109 
G01 Z-3.0000 F120.00 
G01 X48.9534 Y45.3312 
G01 X48.9688 Y45.3466 
G01 X48.9891 Y45.3550 
G01 X49.0109 Y45.3550 
G01 X49.0312 Y45.3466 
G01 X49.0466 Y45.3312 
G01 X49.0550 Y45.3109 
G01 X49.0550 Y45.2891 
G01 X49.0466 Y45.2688 
G01 X49.0312 Y45.2534 
G01 X49.0109 Y45.2450 
G01 X48.9891 Y45.2450 
G01 X48.9688 Y45.2534 
G01 X48.9534 Y45.2688 
G01 X48.9450 Y45.2891 
G01 X48.9450 Y45.3109 
G00 Z1.0000 

G00 X48.9450 Y45.3109 
G01 Z-4.2000 F120.00 
G01 X48.9534 Y45.3312 
G01 X48.9688 Y45.3466 
G01 X48.9891 Y45.3550 
G01 X49.0109 Y45.3550 
G01 X49.0312 Y45.3466 
G01 X49.0466 Y45.3312 
G01 X49.0550 Y45.3109 
G01 X49.0550 Y45.2891 
G01 X49.0466 Y45.2688 
G01 X49.0312 Y45.2534 
G01 X49.0109 Y45.2450 
G01 X48.9891 Y45.2450 
G01 X48.9688 Y45.2534 
G01 X48.9534 Y45.2688 
G01 X48.9450 Y45.2891 
G01 X48.9450 Y45.3109 
G00 Z1.0000 




G00 X-1.3085 Y43.3378 
G01 Z-1.0000 F120.00 
G01 X-1.3187 Y43.2785 
G01 X-1.3325 Y43.2200 
G01 X-1.3417 Y43.1433 
G01 X-1.9837 Y39.3832 
G01 X-2.0004 Y39.3077 
G01 X-2.0068 Y39.2479 
G01 X-2.0169 Y39.1886 
G01 X-2.0213 Y39.1115 
G01 X-2.4297 Y35.2737 
G01 X-2.4441 Y35.1524 
G01 X-2.4442 Y35.1373 
G01 X-2.4458 Y35.1222 
G01 X-2.4450 Y35.0000 
G01 X-2.4458 Y34.8778 
G01 X-2.4442 Y34.8627 
G01 X-2.4441 Y34.8476 
G01 X-2.4297 Y34.7263 
G01 X-2.0213 Y30.8885 
G01 X-2.0169 Y30.8114 
G01 X-2.0068 Y30.7521 
G01 X-2.0004 Y30.6923 
G01 X-1.9837 Y30.6168 
G01 X-1.3417 Y26.8567 
G01 X-1.3325 Y26.7800 
G01 X-1.3187 Y26.7215 
G01 X-1.3085 Y26.6622 
G01 X-1.2871 Y26.5880 
G01 X-0.4093 Y22.8759 
G01 X-0.3953 Y22.7999 
G01 X-0.3777 Y22.7423 
G01 X-0.3639 Y22.6838 
G01 X-0.3379 Y22.6111 
G01 X0.7722 Y18.9616 
G01 X0.7910 Y18.8867 
G01 X0.8121 Y18.8304 
G01 X0.8296 Y18.7728 
G01 X0.8603 Y18.7019 
G01 X2.1982 Y15.1297 
G01 X2.2217 Y15.0562 
G01 X2.2463 Y15.0013 
G01 X2.2674 Y14.9449 
G01 X2.3025 Y14.8760 
G01 X3.8630 Y11.3954 
G01 X3.8911 Y11.3234 
G01 X3.9191 Y11.2702 
G01 X3.9437 Y11.2153 
G01 X3.9830 Y11.1487 
G01 X5.7598 Y7.7734 
G01 X5.7924 Y7.7033 
G01 X5.8238 Y7.6520 
G01 X5.8518 Y7.5988 
G01 X5.8952 Y7.5349 
G01 X7.8496 Y4.3302 
G01 X7.8567 Y4.3154 
G01 X7.9211 Y4.2130 
G01 X7.9841 Y4.1097 
G01 X7.9941 Y4.0968 
G01 X8.0028 Y4.0829 
G01 X8.0782 Y3.9884 
G01 X8.1524 Y3.8927 
G01 X8.1638 Y3.8810 
G01 X8.1740 Y3.8682 
G01 X8.2596 Y3.7827 
G01 X8.3440 Y3.6960 
G01 X8.3566 Y3.6856 
G01 X8.3682 Y3.6740 
G01 X8.4628 Y3.5986 
G01 X8.5564 Y3.5219 
G01 X8.5701 Y3.5130 
G01 X8.5829 Y3.5028 
G01 X8.6854 Y3.4384 
G01 X8.7869 Y3.3727 
G01 X8.8016 Y3.3654 
G01 X8.8154 Y3.3567 
G01 X8.9245 Y3.3042 
G01 X9.0327 Y3.2503 
G01 X9.0481 Y3.2447 
G01 X9.0629 Y3.2376 
G01 X9.1770 Y3.1976 
G01 X9.2907 Y3.1561 
G01 X9.3066 Y3.1523 
G01 X9.3221 Y3.1469 
G01 X9.4400 Y3.1199 
G01 X9.5576 Y3.0914 
G01 X9.5738 Y3.0894 
G01 X9.5898 Y3.0857 
G01 X9.7101 Y3.0722 
G01 X9.8300 Y3.0571 
G01 X9.8464 Y3.0568 
G01 X9.8627 Y3.0550 
G01 X9.9837 Y3.0550 
G01 X10.1046 Y3.0534 
G01 X10.1209 Y3.0550 
G01 X18.9872 Y3.0550 
G01 X23.8682 Y-1.8260 
G01 X24.0829 Y-1.9972 
G01 X24.3154 Y-2.1433 
G01 X24.5629 Y-2.2624 
G01 X24.8221 Y-2.3531 
G01 X25.0898 Y-2.4143 
G01 X25.3627 Y-2.4450 
G01 X45.1373 Y-2.4450 
G01 X45.4102 Y-2.4143 
G01 X45.6779 Y-2.3531 
G01 X45.9371 Y-2.2624 
G01 X46.1846 Y-2.1433 
G01 X46.4171 Y-1.9972 
G01 X46.6318 Y-1.8260 
G01 X46.8260 Y-1.6318 
G01 X51.5128 Y3.0550 
G01 X75.4872 Y3.0550 
G01 X80.3682 Y-1.8260 
G01 X80.5829 Y-1.9972 
G01 X80.8154 Y-2.1433 
G01 X81.0629 Y-2.2624 
G01 X81.3221 Y-2.3531 
G01 X81.5898 Y-2.4143 
G01 X81.8627 Y-2.4450 
G01 X101.6373 Y-2.4450 
G01 X101.9102 Y-2.4143 
G01 X102.1779 Y-2.3531 
G01 X102.4371 Y-2.2624 
G01 X102.6846 Y-2.1433 
G01 X102.9171 Y-1.9972 
G01 X103.1318 Y-1.8260 
G01 X103.3260 Y-1.6318 
G01 X108.0128 Y3.0550 
G01 X117.1373 Y3.0550 
G01 X117.4102 Y3.0857 
G01 X117.6779 Y3.1469 
G01 X117.9371 Y3.2376 
G01 X118.1846 Y3.3567 
G01 X118.4171 Y3.5028 
G01 X118.6318 Y3.6740 
G01 X118.8260 Y3.8682 
G01 X121.8260 Y6.8682 
G01 X121.9972 Y7.0829 
G01 X122.1433 Y7.3154 
G01 X122.2624 Y7.5629 
G01 X122.3531 Y7.8221 
G01 X122.4143 Y8.0898 
G01 X122.4450 Y8.3627 
G01 X122.4450 Y26.6373 
G01 X122.4143 Y26.9102 
G01 X122.3531 Y27.1779 
G01 X122.2624 Y27.4371 
G01 X122.1433 Y27.6846 
G01 X121.9972 Y27.9171 
G01 X121.8260 Y28.1318 
G01 X121.6318 Y28.3260 
G01 X119.4450 Y30.5128 
G01 X119.4450 Y39.4872 
G01 X121.8260 Y41.8682 
G01 X121.9972 Y42.0829 
G01 X122.1433 Y42.3154 
G01 X122.2624 Y42.5629 
G01 X122.3531 Y42.8221 
G01 X122.4143 Y43.0898 
G01 X122.4450 Y43.3627 
G01 X122.4450 Y61.6373 
G01 X122.4143 Y61.9102 
G01 X122.3531 Y62.1779 
G01 X122.2624 Y62.4371 
G01 X122.1433 Y62.6846 
G01 X121.9972 Y62.9171 
G01 X121.8260 Y63.1318 
G01 X121.6318 Y63.3260 
G01 X118.6318 Y66.3260 
G01 X118.4171 Y66.4972 
G01 X118.1846 Y66.6433 
G01 X117.9371 Y66.7624 
G01 X117.6779 Y66.8531 
G01 X117.4102 Y66.9143 
G01 X117.1373 Y66.9450 
G01 X108.0128 Y66.9450 
G01 X103.1318 Y71.8260 
G01 X102.9171 Y71.9972 
G01 X102.6846 Y72.1433 
G01 X102.4371 Y72.2624 
G01 X102.1779 Y72.3531 
G01 X101.9102 Y72.4143 
G01 X101.6373 Y72.4450 
G01 X82.3627 Y72.4450 
G01 X82.0898 Y72.4143 
G01 X81.8221 Y72.3531 
G01 X81.5629 Y72.2624 
G01 X81.3154 Y72.1433 
G01 X81.0829 Y71.9972 
G01 X80.8682 Y71.8260 
G01 X80.6740 Y71.6318 
G01 X75.9872 Y66.9450 
G01 X51.5128 Y66.9450 
G01 X46.6318 Y71.8260 
G01 X46.4171 Y71.9972 
G01 X46.1846 Y72.1433 
G01 X45.9371 Y72.2624 
G01 X45.6779 Y72.3531 
G01 X45.4102 Y72.4143 
G01 X45.1373 Y72.4450 
G01 X25.3627 Y72.4450 
G01 X25.0898 Y72.4143 
G01 X24.8221 Y72.3531 
G01 X24.5629 Y72.2624 
G01 X24.3154 Y72.1433 
G01 X24.0829 Y71.9972 
G01 X23.8682 Y71.8260 
G01 X23.6740 Y71.6318 
G01 X23.6740 Y71.6318 
G01 X18.9872 Y66.9450 
G01 X10.1209 Y66.9450 
G01 X10.1046 Y66.9466 
G01 X9.9837 Y66.9450 
G01 X9.8627 Y66.9450 
G01 X9.8464 Y66.9432 
G01 X9.8300 Y66.9429 
G01 X9.7101 Y66.9278 
G01 X9.5898 Y66.9143 
G01 X9.5738 Y66.9106 
G01 X9.5576 Y66.9086 
G01 X9.4400 Y66.8801 
G01 X9.3221 Y66.8531 
G01 X9.3066 Y66.8477 
G01 X9.2907 Y66.8439 
G01 X9.1771 Y66.8024 
G01 X9.0629 Y66.7624 
G01 X9.0481 Y66.7553 
G01 X9.0327 Y66.7497 
G01 X8.9245 Y66.6958 
G01 X8.8154 Y66.6433 
G01 X8.8016 Y66.6346 
G01 X8.7869 Y66.6273 
G01 X8.6854 Y66.5616 
G01 X8.5829 Y66.4972 
G01 X8.5701 Y66.4870 
G01 X8.5564 Y66.4781 
G01 X8.4628 Y66.4014 
G01 X8.3682 Y66.3260 
G01 X8.3566 Y66.3144 
G01 X8.3440 Y66.3040 
G01 X8.2596 Y66.2173 
G01 X8.1740 Y66.1318 
G01 X8.1638 Y66.1190 
G01 X8.1524 Y66.1073 
G01 X8.0782 Y66.0116 
G01 X8.0028 Y65.9171 
G01 X7.9941 Y65.9032 
G01 X7.9841 Y65.8903 
G01 X7.9211 Y65.7870 
G01 X7.8567 Y65.6846 
G01 X7.8496 Y65.6698 
G01 X5.8952 Y62.4651 
G01 X5.8518 Y62.4012 
G01 X5.8238 Y62.3480 
G01 X5.7924 Y62.2967 
G01 X5.7598 Y62.2266 
G01 X3.9830 Y58.8512 
G01 X3.9437 Y58.7847 
G01 X3.9191 Y58.7298 
G01 X3.8911 Y58.6766 
G01 X3.8630 Y58.6046 
G01 X2.3025 Y55.1240 
G01 X2.2674 Y55.0551 
G01 X2.2463 Y54.9987 
G01 X2.2217 Y54.9438 
G01 X2.1982 Y54.8703 
G01 X0.8603 Y51.2981 
G01 X0.8296 Y51.2272 
G01 X0.8121 Y51.1696 
G01 X0.7910 Y51.1133 
G01 X0.7722 Y51.0384 
G01 X-0.3378 Y47.3889 
G01 X-0.3639 Y47.3162 
G01 X-0.3777 Y47.2577 
G01 X-0.3953 Y47.2001 
G01 X-0.4093 Y47.1241 
G01 X-1.2871 Y43.4120 
G01 X-1.3085 Y43.3378 
G00 Z1.0000 

G00 X-1.3085 Y43.3378 
G01 Z-2.0000 F120.00 
G01 X-1.3187 Y43.2785 
G01 X-1.3325 Y43.2200 
G01 X-1.3417 Y43.1433 
G01 X-1.9837 Y39.3832 
G01 X-2.0004 Y39.3077 
G01 X-2.0068 Y39.2479 
G01 X-2.0169 Y39.1886 
G01 X-2.0213 Y39.1115 
G01 X-2.4297 Y35.2737 
G01 X-2.4441 Y35.1524 
G01 X-2.4442 Y35.1373 
G01 X-2.4458 Y35.1222 
G01 X-2.4450 Y35.0000 
G01 X-2.4458 Y34.8778 
G01 X-2.4442 Y34.8627 
G01 X-2.4441 Y34.8476 
G01 X-2.4297 Y34.7263 
G01 X-2.0213 Y30.8885 
G01 X-2.0169 Y30.8114 
G01 X-2.0068 Y30.7521 
G01 X-2.0004 Y30.6923 
G01 X-1.9837 Y30.6168 
G01 X-1.3417 Y26.8567 
G01 X-1.3325 Y26.7800 
G01 X-1.3187 Y26.7215 
G01 X-1.3085 Y26.6622 
G01 X-1.2871 Y26.5880 
G01 X-0.4093 Y22.8759 
G01 X-0.3953 Y22.7999 
G01 X-0.3777 Y22.7423 
G01 X-0.3639 Y22.6838 
G01 X-0.3379 Y22.6111 
G01 X0.7722 Y18.9616 
G01 X0.7910 Y18.8867 
G01 X0.8121 Y18.8304 
G01 X0.8296 Y18.7728 
G01 X0.8603 Y18.7019 
G01 X2.1982 Y15.1297 
G01 X2.2217 Y15.0562 
G01 X2.2463 Y15.0013 
G01 X2.2674 Y14.9449 
G01 X2.3025 Y14.8760 
G01 X3.8630 Y11.3954 
G01 X3.8911 Y11.3234 
G01 X3.9191 Y11.2702 
G01 X3.9437 Y11.2153 
G01 X3.9830 Y11.1487 
G01 X5.7598 Y7.7734 
G01 X5.7924 Y7.7033 
G01 X5.8238 Y7.6520 
G01 X5.8518 Y7.5988 
G01 X5.8952 Y7.5349 
G01 X7.8496 Y4.3302 
G01 X7.8567 Y4.3154 
G01 X7.9211 Y4.2130 
G01 X7.9841 Y4.1097 
G01 X7.9941 Y4.0968 
G01 X8.0028 Y4.0829 
G01 X8.0782 Y3.9884 
G01 X8.1524 Y3.8927 
G01 X8.1638 Y3.8810 
G01 X8.1740 Y3.8682 
G01 X8.2596 Y3.7827 
G01 X8.3440 Y3.6960 
G01 X8.3566 Y3.6856 
G01 X8.3682 Y3.6740 
G01 X8.4628 Y3.5986 
G01 X8.5564 Y3.5219 
G01 X8.5701 Y3.5130 
