( This gcode generated by /home/petera/artie/data/cad/eagle/ulp/pcb-gcode.ulp )
( Copyright 2005 by John Johnson. See readme.txt for licensing terms. )

( This file generated from the board /home/petera/artie/data/cad/eagle/projects/realway/eyebot/eyebot_chassi2.brd )
( This file generated 12/19/13 10:03 AM )

( Settings from pcb-machine.h )
( tool size = 2.7500 )
( z high = 1.0000	z up = 1.0000	z down = -0.1000 )
( drill depth = -4.0000 )
( spindle on time = 3.0000 )
( milling depth = -3.0000 )
( tool change at X-40.0000, Y0.0000, Z30.0000 )
( feed rate = 200.0000	feed rate z = 100.0000 )

( Settings from pcb-defaults.h )
( Default isolate = 1.0000 )
( isolate max = 1.0000 )
( isolate step = 1.0000 )
( Generated: top outlines, top drill, top fill,  )
( Unit of measure: mm )

( Z routes -1.3mm, 2.7mm, 4.5mm )
( Feed 200mm/min )



G21

G90
G00 Z1.0000 
G00 X0 Y0
M03
G04 P3.000000
G00 Z1.0000 
G00 X-8.0423 Y9.9150 
G01 Z-1.3000 F200.00 
G01 X-8.2012 Y9.9576 
G01 X-8.3438 Y10.0399 
G01 X-8.4601 Y10.1562 
G01 X-8.5424 Y10.2988 
G01 X-8.5850 Y10.4577 
G01 X-8.5850 Y10.6223 
G01 X-8.5424 Y10.7812 
G01 X-8.4601 Y10.9238 
G01 X-8.3438 Y11.0401 
G01 X-8.2012 Y11.1224 
G01 X-8.0423 Y11.1650 
G01 X-7.8777 Y11.1650 
G01 X-7.7188 Y11.1224 
G01 X-7.5762 Y11.0401 
G01 X-7.4599 Y10.9238 
G01 X-7.3776 Y10.7812 
G01 X-7.3350 Y10.6223 
G01 X-7.3350 Y10.4577 
G01 X-7.3776 Y10.2988 
G01 X-7.4599 Y10.1562 
G01 X-7.5762 Y10.0399 
G01 X-7.7188 Y9.9576 
G01 X-7.8777 Y9.9150 
G01 X-8.0423 Y9.9150 
G00 Z1.0000 
G00 X-8.3438 Y40.0399 
G01 Z-1.3000 F200.00 
G01 X-8.4601 Y40.1562 
G01 X-8.5424 Y40.2988 
G01 X-8.5850 Y40.4577 
G01 X-8.5850 Y40.6223 
G01 X-8.5424 Y40.7812 
G01 X-8.4601 Y40.9238 
G01 X-8.3438 Y41.0401 
G01 X-8.2012 Y41.1224 
G01 X-8.0423 Y41.1650 
G01 X-7.8777 Y41.1650 
G01 X-7.7188 Y41.1224 
G01 X-7.5762 Y41.0401 
G01 X-7.4599 Y40.9238 
G01 X-7.3776 Y40.7812 
G01 X-7.3350 Y40.6223 
G01 X-7.3350 Y40.4577 
G01 X-7.3776 Y40.2988 
G01 X-7.4599 Y40.1562 
G01 X-7.5762 Y40.0399 
G01 X-7.7188 Y39.9576 
G01 X-7.8777 Y39.9150 
G01 X-8.0423 Y39.9150 
G01 X-8.2012 Y39.9576 
G01 X-8.3438 Y40.0399 
G00 Z1.0000 
G00 X22.0050 Y37.0250 
G01 Z-1.3000 F200.00 
G01 X22.0142 Y37.0212 
G01 X22.0212 Y37.0142 
G01 X22.0250 Y37.0050 
G01 X22.0250 Y35.4950 
G01 X22.0212 Y35.4858 
G01 X22.0142 Y35.4788 
G01 X22.0050 Y35.4750 
G01 X11.9950 Y35.4750 
G01 X11.9858 Y35.4788 
G01 X11.9788 Y35.4858 
G01 X11.9750 Y35.4950 
G01 X11.9750 Y37.0050 
G01 X11.9788 Y37.0142 
G01 X11.9858 Y37.0212 
G01 X11.9950 Y37.0250 
G01 X21.6488 Y37.0250 
G01 X22.0050 Y37.0250 
G00 Z1.0000 
G00 X17.1162 Y24.9999 
G01 Z-1.3000 F200.00 
G01 X16.9999 Y25.1162 
G01 X16.9176 Y25.2588 
G01 X16.8750 Y25.4177 
G01 X16.8750 Y25.5823 
G01 X16.9176 Y25.7412 
G01 X16.9999 Y25.8838 
G01 X17.1162 Y26.0001 
G01 X17.2588 Y26.0824 
G01 X17.4177 Y26.1250 
G01 X17.5823 Y26.1250 
G01 X17.7412 Y26.0824 
G01 X17.8838 Y26.0001 
G01 X18.0001 Y25.8838 
G01 X18.0824 Y25.7412 
G01 X18.1250 Y25.5823 
G01 X18.1250 Y25.4177 
G01 X18.0824 Y25.2588 
G01 X18.0001 Y25.1162 
G01 X17.8838 Y24.9999 
G01 X17.7412 Y24.9176 
G01 X17.5823 Y24.8750 
G01 X17.4177 Y24.8750 
G01 X17.2588 Y24.9176 
G01 X17.1162 Y24.9999 
G00 Z1.0000 
G00 X22.0050 Y15.5250 
G01 Z-1.3000 F200.00 
G01 X22.0142 Y15.5212 
G01 X22.0212 Y15.5142 
G01 X22.0250 Y15.5050 
G01 X22.0250 Y13.9950 
G01 X22.0212 Y13.9858 
G01 X22.0142 Y13.9788 
G01 X22.0050 Y13.9750 
G01 X11.9950 Y13.9750 
G01 X11.9858 Y13.9788 
G01 X11.9788 Y13.9858 
G01 X11.9750 Y13.9950 
G01 X11.9750 Y15.5050 
G01 X11.9788 Y15.5142 
G01 X11.9858 Y15.5212 
G01 X11.9950 Y15.5250 
G01 X21.6488 Y15.5250 
G01 X22.0050 Y15.5250 
G00 Z1.0000 
G00 X59.2177 Y14.3750 
G01 Z-1.3000 F200.00 
G01 X59.0588 Y14.4176 
G01 X58.9162 Y14.4999 
G01 X58.7999 Y14.6162 
G01 X58.7176 Y14.7588 
G01 X58.6750 Y14.9177 
G01 X58.6750 Y15.0823 
G01 X58.7176 Y15.2412 
G01 X58.7999 Y15.3838 
G01 X58.9162 Y15.5001 
G01 X59.0588 Y15.5824 
G01 X59.2177 Y15.6250 
G01 X59.3823 Y15.6250 
G01 X59.5412 Y15.5824 
G01 X59.6838 Y15.5001 
G01 X59.8001 Y15.3838 
G01 X59.8824 Y15.2412 
G01 X59.9250 Y15.0823 
G01 X59.9250 Y14.9177 
G01 X59.8824 Y14.7588 
G01 X59.8001 Y14.6162 
G01 X59.6838 Y14.4999 
G01 X59.5412 Y14.4176 
G01 X59.3823 Y14.3750 
G01 X59.2177 Y14.3750 
G00 Z1.0000 
G00 X59.2177 Y35.1750 
G01 Z-1.3000 F200.00 
G01 X59.0588 Y35.2176 
G01 X58.9162 Y35.2999 
G01 X58.7999 Y35.4162 
G01 X58.7176 Y35.5588 
G01 X58.6750 Y35.7177 
G01 X58.6750 Y35.8823 
G01 X58.7176 Y36.0412 
G01 X58.7999 Y36.1838 
G01 X58.9162 Y36.3001 
G01 X59.0588 Y36.3824 
G01 X59.2177 Y36.4250 
G01 X59.3823 Y36.4250 
G01 X59.5412 Y36.3824 
G01 X59.6838 Y36.3001 
G01 X59.8001 Y36.1838 
G01 X59.8824 Y36.0412 
G01 X59.9250 Y35.8823 
G01 X59.9250 Y35.7177 
G01 X59.8824 Y35.5588 
G01 X59.8001 Y35.4162 
G01 X59.6838 Y35.2999 
G01 X59.5412 Y35.2176 
G01 X59.3823 Y35.1750 
G01 X59.2177 Y35.1750 
G00 Z1.0000 
G00 X79.0050 Y15.5250 
G01 Z-1.3000 F200.00 
G01 X79.0142 Y15.5212 
G01 X79.0212 Y15.5142 
G01 X79.0250 Y15.5050 
G01 X79.0250 Y13.9950 
G01 X79.0212 Y13.9858 
G01 X79.0142 Y13.9788 
G01 X79.0050 Y13.9750 
G01 X68.9950 Y13.9750 
G01 X68.9858 Y13.9788 
G01 X68.9788 Y13.9858 
G01 X68.9750 Y13.9950 
G01 X68.9750 Y15.5050 
G01 X68.9788 Y15.5142 
G01 X68.9858 Y15.5212 
G01 X68.9950 Y15.5250 
G01 X78.6488 Y15.5250 
G01 X79.0050 Y15.5250 
G00 Z1.0000 
G00 X55.1162 Y4.9999 
G01 Z-1.3000 F200.00 
G01 X54.9999 Y5.1162 
G01 X54.9176 Y5.2588 
G01 X54.8750 Y5.4177 
G01 X54.8750 Y5.5823 
G01 X54.9176 Y5.7412 
G01 X54.9999 Y5.8838 
G01 X55.1162 Y6.0001 
G01 X55.2588 Y6.0824 
G01 X55.4177 Y6.1250 
G01 X55.5823 Y6.1250 
G01 X55.7412 Y6.0824 
G01 X55.8838 Y6.0001 
G01 X56.0001 Y5.8838 
G01 X56.0824 Y5.7412 
G01 X56.1250 Y5.5823 
G01 X56.1250 Y5.4177 
G01 X56.0824 Y5.2588 
G01 X56.0001 Y5.1162 
G01 X55.8838 Y4.9999 
G01 X55.7412 Y4.9176 
G01 X55.5823 Y4.8750 
G01 X55.4177 Y4.8750 
G01 X55.2588 Y4.9176 
G01 X55.1162 Y4.9999 
G00 Z1.0000 
G00 X74.1162 Y24.9999 
G01 Z-1.3000 F200.00 
G01 X73.9999 Y25.1162 
G01 X73.9176 Y25.2588 
G01 X73.8750 Y25.4177 
G01 X73.8750 Y25.5823 
G01 X73.9176 Y25.7412 
G01 X73.9999 Y25.8838 
G01 X74.1162 Y26.0001 
G01 X74.2588 Y26.0824 
G01 X74.4177 Y26.1250 
G01 X74.5823 Y26.1250 
G01 X74.7412 Y26.0824 
G01 X74.8838 Y26.0001 
G01 X75.0001 Y25.8838 
G01 X75.0824 Y25.7412 
G01 X75.1250 Y25.5823 
G01 X75.1250 Y25.4177 
G01 X75.0824 Y25.2588 
G01 X75.0001 Y25.1162 
G01 X74.8838 Y24.9999 
G01 X74.7412 Y24.9176 
G01 X74.5823 Y24.8750 
G01 X74.4177 Y24.8750 
G01 X74.2588 Y24.9176 
G01 X74.1162 Y24.9999 
G00 Z1.0000 
G00 X68.9788 Y37.0142 
G01 Z-1.3000 F200.00 
G01 X68.9858 Y37.0212 
G01 X68.9950 Y37.0250 
G01 X79.0050 Y37.0250 
G01 X79.0142 Y37.0212 
G01 X79.0212 Y37.0142 
G01 X79.0250 Y37.0050 
G01 X79.0250 Y35.4950 
G01 X79.0212 Y35.4858 
G01 X79.0142 Y35.4788 
G01 X79.0050 Y35.4750 
G01 X68.9950 Y35.4750 
G01 X68.9858 Y35.4788 
G01 X68.9788 Y35.4858 
G01 X68.9750 Y35.4950 
G01 X68.9750 Y37.0050 
G01 X68.9788 Y37.0142 
G00 Z1.0000 
G00 X49.5006 Y27.4188 
G01 Z-1.3000 F200.00 
G01 X49.9120 Y26.7062 
G01 X50.1250 Y25.9114 
G01 X50.1250 Y25.0886 
G01 X49.9120 Y24.2938 
G01 X49.5006 Y23.5812 
G01 X48.9188 Y22.9994 
G01 X48.4161 Y22.7091 
G01 X48.3751 Y22.6894 
G01 X48.2982 Y22.6411 
G01 X48.2196 Y22.5957 
G01 X48.1830 Y22.5687 
G01 X48.1445 Y22.5445 
G01 X48.0735 Y22.4879 
G01 X48.0004 Y22.4339 
G01 X47.9671 Y22.4030 
G01 X47.9316 Y22.3747 
G01 X47.8673 Y22.3105 
G01 X47.8008 Y22.2487 
G01 X47.7711 Y22.2142 
G01 X47.7390 Y22.1821 
G01 X47.6823 Y22.1111 
G01 X47.6231 Y22.0422 
G01 X47.5975 Y22.0047 
G01 X47.5691 Y21.9691 
G01 X47.5208 Y21.8922 
G01 X47.4697 Y21.8172 
G01 X47.4484 Y21.7770 
G01 X47.4242 Y21.7385 
G01 X47.3848 Y21.6567 
G01 X47.3424 Y21.5764 
G01 X47.3258 Y21.5341 
G01 X47.3061 Y21.4931 
G01 X47.2761 Y21.4074 
G01 X47.2429 Y21.3228 
G01 X47.2311 Y21.2789 
G01 X47.2161 Y21.2360 
G01 X47.1959 Y21.1475 
G01 X47.1724 Y21.0598 
G01 X47.1656 Y21.0148 
G01 X47.1555 Y20.9705 
G01 X47.1453 Y20.8803 
G01 X47.1318 Y20.7904 
G01 X47.1301 Y20.7450 
G01 X47.1250 Y20.6998 
G01 X47.1250 Y20.6090 
G01 X47.1216 Y20.5182 
G01 X47.1250 Y20.4729 
G01 X47.1250 Y18.4751 
G01 X47.1060 Y18.4292 
G01 X47.0708 Y18.3940 
G01 X47.0249 Y18.3750 
G01 X46.9751 Y18.3750 
G01 X46.9292 Y18.3940 
G01 X46.8940 Y18.4292 
G01 X46.8750 Y18.4751 
G01 X46.8750 Y20.4729 
G01 X46.8784 Y20.5182 
G01 X46.8750 Y20.6090 
G01 X46.8750 Y20.6998 
G01 X46.8699 Y20.7450 
G01 X46.8682 Y20.7904 
G01 X46.8547 Y20.8803 
G01 X46.8445 Y20.9705 
G01 X46.8344 Y21.0148 
G01 X46.8276 Y21.0598 
G01 X46.8041 Y21.1475 
G01 X46.7839 Y21.2360 
G01 X46.7689 Y21.2789 
G01 X46.7571 Y21.3228 
G01 X46.7239 Y21.4074 
G01 X46.6939 Y21.4931 
G01 X46.6742 Y21.5341 
G01 X46.6576 Y21.5764 
G01 X46.6152 Y21.6567 
G01 X46.5758 Y21.7385 
G01 X46.5516 Y21.7770 
G01 X46.5303 Y21.8172 
G01 X46.4792 Y21.8922 
G01 X46.4308 Y21.9691 
G01 X46.4025 Y22.0047 
G01 X46.3769 Y22.0422 
G01 X46.3177 Y22.1111 
G01 X46.2610 Y22.1821 
G01 X46.2289 Y22.2142 
G01 X46.1992 Y22.2487 
G01 X46.1327 Y22.3105 
G01 X46.0684 Y22.3747 
G01 X46.0329 Y22.4030 
G01 X45.9996 Y22.4339 
G01 X45.9265 Y22.4879 
G01 X45.8555 Y22.5445 
G01 X45.8170 Y22.5687 
G01 X45.7804 Y22.5957 
G01 X45.7018 Y22.6411 
G01 X45.6249 Y22.6894 
G01 X45.5839 Y22.7091 
G01 X45.0812 Y22.9994 
G01 X44.4994 Y23.5812 
G01 X44.0880 Y24.2938 
G01 X43.8750 Y25.0886 
G01 X43.8750 Y25.9114 
G01 X44.0880 Y26.7062 
G01 X44.4994 Y27.4188 
G01 X45.0812 Y28.0006 
G01 X45.7938 Y28.4120 
G01 X45.9965 Y28.4663 
G01 X45.9965 Y28.4663 
G01 X46.0960 Y28.4930 
G01 X46.2596 Y28.5368 
G01 X46.5131 Y28.6363 
G01 X46.5131 Y28.6364 
G01 X46.6648 Y28.7165 
G01 X46.7539 Y28.7636 
G01 X46.7539 Y28.7636 
G01 X46.7539 Y28.7636 
G01 X46.8845 Y28.8526 
G01 X46.9790 Y28.9170 
G01 X46.9790 Y28.9171 
G01 X46.9790 Y28.9171 
G01 X47.0000 Y28.9352 
G01 X47.0210 Y28.9171 
G01 X47.0210 Y28.9171 
G01 X47.0210 Y28.9170 
G01 X47.1067 Y28.8587 
G01 X47.2461 Y28.7636 
G01 X47.2461 Y28.7636 
G01 X47.2461 Y28.7636 
G01 X47.3291 Y28.7197 
G01 X47.4869 Y28.6364 
G01 X47.4869 Y28.6363 
G01 X47.7404 Y28.5368 
G01 X47.8984 Y28.4945 
G01 X48.0035 Y28.4663 
G01 X48.0035 Y28.4663 
G01 X48.2062 Y28.4120 
G01 X48.9188 Y28.0006 
G01 X49.5006 Y27.4188 
G00 Z1.0000 
G00 X46.9196 Y32.8105 
G01 Z-1.3000 F200.00 
G01 X46.8308 Y32.8760 
G01 X46.8308 Y32.8760 
G01 X46.8308 Y32.8760 
G01 X46.7998 Y32.8939 
G01 X46.6162 Y32.9999 
G01 X46.4999 Y33.1162 
G01 X46.4176 Y33.2588 
G01 X46.3750 Y33.4177 
G01 X46.3750 Y33.5823 
G01 X46.4176 Y33.7412 
G01 X46.4999 Y33.8838 
G01 X46.6162 Y34.0001 
G01 X46.7588 Y34.0824 
G01 X46.9177 Y34.1250 
G01 X47.0823 Y34.1250 
G01 X47.2412 Y34.0824 
G01 X47.3838 Y34.0001 
G01 X47.5001 Y33.8838 
G01 X47.5824 Y33.7412 
G01 X47.6250 Y33.5823 
G01 X47.6250 Y33.4177 
G01 X47.5824 Y33.2588 
G01 X47.5001 Y33.1162 
G01 X47.3838 Y32.9999 
G01 X47.2081 Y32.8985 
G01 X47.1692 Y32.8760 
G01 X47.1692 Y32.8760 
G01 X47.1692 Y32.8760 
G01 X47.0839 Y32.8130 
G01 X47.0000 Y32.7511 
G01 X46.9196 Y32.8105 
G00 Z1.0000 
G00 X82.9750 Y-3.9950 
G01 Z-1.3000 F200.00 
G01 X82.9788 Y-3.9858 
G01 X82.9858 Y-3.9788 
G01 X82.9950 Y-3.9750 
G01 X83.0050 Y-3.9750 
G01 X83.0142 Y-3.9788 
G01 X83.0212 Y-3.9858 
G01 X83.0250 Y-3.9950 
G01 X83.0250 Y-4.0050 
G01 X83.0212 Y-4.0142 
G01 X83.0142 Y-4.0212 
G01 X83.0050 Y-4.0250 
G01 X82.9950 Y-4.0250 
G01 X82.9858 Y-4.0212 
G01 X82.9788 Y-4.0142 
G01 X82.9750 Y-4.0050 
G01 X82.9750 Y-3.9950 
G00 Z1.0000 
G00 X38.1162 Y4.9999 
G01 Z-1.3000 F200.00 
G01 X37.9999 Y5.1162 
G01 X37.9176 Y5.2588 
G01 X37.8750 Y5.4177 
G01 X37.8750 Y5.5823 
G01 X37.9176 Y5.7412 
G01 X37.9999 Y5.8838 
G01 X38.1162 Y6.0001 
G01 X38.2588 Y6.0824 
G01 X38.4177 Y6.1250 
G01 X38.5823 Y6.1250 
G01 X38.7412 Y6.0824 
G01 X38.8838 Y6.0001 
G01 X39.0001 Y5.8838 
G01 X39.0824 Y5.7412 
G01 X39.1250 Y5.5823 
G01 X39.1250 Y5.4177 
G01 X39.0824 Y5.2588 
G01 X39.0001 Y5.1162 
G01 X38.8838 Y4.9999 
G01 X38.7412 Y4.9176 
G01 X38.5823 Y4.8750 
G01 X38.4177 Y4.8750 
G01 X38.2588 Y4.9176 
G01 X38.1162 Y4.9999 
G00 Z1.0000 
G00 X46.9177 Y4.8750 
G01 Z-1.3000 F200.00 
G01 X46.7588 Y4.9176 
G01 X46.6162 Y4.9999 
G01 X46.4999 Y5.1162 
G01 X46.4176 Y5.2588 
G01 X46.3750 Y5.4177 
G01 X46.3750 Y5.5823 
G01 X46.4176 Y5.7412 
G01 X46.4999 Y5.8838 
G01 X46.6162 Y6.0001 
G01 X46.7588 Y6.0824 
G01 X46.9177 Y6.1250 
G01 X47.0823 Y6.1250 
G01 X47.2412 Y6.0824 
G01 X47.3838 Y6.0001 
G01 X47.5001 Y5.8838 
G01 X47.5824 Y5.7412 
G01 X47.6250 Y5.5823 
G01 X47.6250 Y5.4177 
G01 X47.5824 Y5.2588 
G01 X47.5001 Y5.1162 
G01 X47.3838 Y4.9999 
G01 X47.2412 Y4.9176 
G01 X47.0823 Y4.8750 
G01 X46.9177 Y4.8750 
G00 Z1.0000 
G00 X31.4177 Y35.1750 
G01 Z-1.3000 F200.00 
G01 X31.2588 Y35.2176 
G01 X31.1162 Y35.2999 
G01 X30.9999 Y35.4162 
G01 X30.9176 Y35.5588 
G01 X30.8750 Y35.7177 
G01 X30.8750 Y35.8823 
G01 X30.9176 Y36.0412 
G01 X30.9999 Y36.1838 
G01 X31.1162 Y36.3001 
G01 X31.2588 Y36.3824 
G01 X31.4177 Y36.4250 
G01 X31.5823 Y36.4250 
G01 X31.7412 Y36.3824 
G01 X31.8838 Y36.3001 
G01 X32.0001 Y36.1838 
G01 X32.0824 Y36.0412 
G01 X32.1250 Y35.8823 
G01 X32.1250 Y35.7177 
G01 X32.0824 Y35.5588 
G01 X32.0001 Y35.4162 
G01 X31.8838 Y35.2999 
G01 X31.7412 Y35.2176 
G01 X31.5823 Y35.1750 
G01 X31.4177 Y35.1750 
G00 Z1.0000 
G00 X31.4177 Y14.3750 
G01 Z-1.3000 F200.00 
G01 X31.2588 Y14.4176 
G01 X31.1162 Y14.4999 
G01 X30.9999 Y14.6162 
G01 X30.9176 Y14.7588 
G01 X30.8750 Y14.9177 
G01 X30.8750 Y15.0823 
G01 X30.9176 Y15.2412 
G01 X30.9999 Y15.3838 
G01 X31.1162 Y15.5001 
G01 X31.2588 Y15.5824 
G01 X31.4177 Y15.6250 
G01 X31.5823 Y15.6250 
G01 X31.7412 Y15.5824 
G01 X31.8838 Y15.5001 
G01 X32.0001 Y15.3838 
G01 X32.0824 Y15.2412 
G01 X32.1250 Y15.0823 
G01 X32.1250 Y14.9177 
G01 X32.0824 Y14.7588 
G01 X32.0001 Y14.6162 
G01 X31.8838 Y14.4999 
G01 X31.7412 Y14.4176 
G01 X31.5823 Y14.3750 
G01 X31.4177 Y14.3750 
G00 Z1.0000 
G00 X65.4750 Y55.0050 
G01 Z-1.3000 F200.00 
G01 X65.4788 Y55.0142 
G01 X65.4858 Y55.0212 
G01 X65.4950 Y55.0250 
G01 X65.5050 Y55.0250 
G01 X65.5142 Y55.0212 
G01 X65.5212 Y55.0142 
G01 X65.5250 Y55.0050 
G01 X65.5250 Y54.9950 
G01 X65.5212 Y54.9858 
G01 X65.5142 Y54.9788 
G01 X65.5050 Y54.9750 
G01 X65.4950 Y54.9750 
G01 X65.4858 Y54.9788 
G01 X65.4788 Y54.9858 
G01 X65.4750 Y54.9950 
G01 X65.4750 Y55.0050 
G00 Z1.0000 
G00 X8.9750 Y-3.9950 
G01 Z-1.3000 F200.00 
G01 X8.9788 Y-3.9858 
G01 X8.9858 Y-3.9788 
G01 X8.9950 Y-3.9750 
G01 X9.0050 Y-3.9750 
G01 X9.0142 Y-3.9788 
G01 X9.0212 Y-3.9858 
G01 X9.0250 Y-3.9950 
G01 X9.0250 Y-4.0050 
G01 X9.0212 Y-4.0142 
G01 X9.0142 Y-4.0212 
G01 X9.0050 Y-4.0250 
G01 X8.9950 Y-4.0250 
G01 X8.9858 Y-4.0212 
G01 X8.9788 Y-4.0142 
G01 X8.9750 Y-4.0050 
G01 X8.9750 Y-3.9950 
G00 Z1.0000 
G00 X8.9750 Y55.0050 
G01 Z-1.3000 F200.00 
G01 X8.9788 Y55.0142 
G01 X8.9858 Y55.0212 
G01 X8.9950 Y55.0250 
G01 X9.0050 Y55.0250 
G01 X9.0142 Y55.0212 
G01 X9.0212 Y55.0142 
G01 X9.0250 Y55.0050 
G01 X9.0250 Y54.9950 
G01 X9.0212 Y54.9858 
G01 X9.0142 Y54.9788 
G01 X9.0050 Y54.9750 
G01 X8.9950 Y54.9750 
G01 X8.9858 Y54.9788 
G01 X8.9788 Y54.9858 
G01 X8.9750 Y54.9950 
G01 X8.9750 Y55.0050 
G00 Z1.0000 
G00 X2.1562 Y48.3949 
G01 Z-1.3000 F200.00 
G01 X2.0399 Y48.5112 
G01 X1.9576 Y48.6538 
G01 X1.9150 Y48.8127 
G01 X1.9150 Y48.9773 
G01 X1.9576 Y49.1362 
G01 X2.0399 Y49.2788 
G01 X2.1562 Y49.3951 
G01 X2.2988 Y49.4774 
G01 X2.4577 Y49.5200 
G01 X2.6223 Y49.5200 
G01 X2.7812 Y49.4774 
G01 X2.9238 Y49.3951 
G01 X3.0401 Y49.2788 
G01 X3.1224 Y49.1362 
G01 X3.1650 Y48.9773 
G01 X3.1650 Y48.8127 
G01 X3.1224 Y48.6538 
G01 X3.0401 Y48.5112 
G01 X2.9238 Y48.3949 
G01 X2.7812 Y48.3126 
G01 X2.6223 Y48.2700 
G01 X2.4577 Y48.2700 
G01 X2.2988 Y48.3126 
G01 X2.1562 Y48.3949 
G00 Z1.0000 
G00 X89.1512 Y48.3949 
G01 Z-1.3000 F200.00 
G01 X89.0349 Y48.5112 
G01 X88.9526 Y48.6538 
G01 X88.9100 Y48.8127 
G01 X88.9100 Y48.9773 
G01 X88.9526 Y49.1362 
G01 X89.0349 Y49.2788 
G01 X89.1512 Y49.3951 
G01 X89.2938 Y49.4774 
G01 X89.4527 Y49.5200 
G01 X89.6173 Y49.5200 
G01 X89.7762 Y49.4774 
G01 X89.9188 Y49.3951 
G01 X90.0351 Y49.2788 
G01 X90.1174 Y49.1362 
G01 X90.1600 Y48.9773 
G01 X90.1600 Y48.8127 
G01 X90.1174 Y48.6538 
G01 X90.0351 Y48.5112 
G01 X89.9188 Y48.3949 
G01 X89.7762 Y48.3126 
G01 X89.6173 Y48.2700 
G01 X89.4527 Y48.2700 
G01 X89.2938 Y48.3126 
G01 X89.1512 Y48.3949 
G00 Z1.0000 
G00 X26.4750 Y55.0050 
G01 Z-1.3000 F200.00 
G01 X26.4788 Y55.0142 
G01 X26.4858 Y55.0212 
G01 X26.4950 Y55.0250 
G01 X26.5050 Y55.0250 
G01 X26.5142 Y55.0212 
G01 X26.5212 Y55.0142 
G01 X26.5250 Y55.0050 
G01 X26.5250 Y54.9950 
G01 X26.5212 Y54.9858 
G01 X26.5142 Y54.9788 
G01 X26.5050 Y54.9750 
G01 X26.4950 Y54.9750 
G01 X26.4858 Y54.9788 
G01 X26.4788 Y54.9858 
G01 X26.4750 Y54.9950 
G01 X26.4750 Y55.0050 
G00 Z1.0000 
G00 X26.4750 Y-3.9950 
G01 Z-1.3000 F200.00 
G01 X26.4788 Y-3.9858 
G01 X26.4858 Y-3.9788 
G01 X26.4950 Y-3.9750 
G01 X26.5050 Y-3.9750 
G01 X26.5142 Y-3.9788 
G01 X26.5212 Y-3.9858 
G01 X26.5250 Y-3.9950 
G01 X26.5250 Y-4.0050 
G01 X26.5212 Y-4.0142 
G01 X26.5142 Y-4.0212 
G01 X26.5050 Y-4.0250 
G01 X26.4950 Y-4.0250 
G01 X26.4858 Y-4.0212 
G01 X26.4788 Y-4.0142 
G01 X26.4750 Y-4.0050 
G01 X26.4750 Y-3.9950 
G00 Z1.0000 
G00 X82.9750 Y55.0050 
G01 Z-1.3000 F200.00 
G01 X82.9788 Y55.0142 
G01 X82.9858 Y55.0212 
G01 X82.9950 Y55.0250 
G01 X83.0050 Y55.0250 
G01 X83.0142 Y55.0212 
G01 X83.0212 Y55.0142 
G01 X83.0250 Y55.0050 
G01 X83.0250 Y54.9950 
G01 X83.0212 Y54.9858 
G01 X83.0142 Y54.9788 
G01 X83.0050 Y54.9750 
G01 X82.9950 Y54.9750 
G01 X82.9858 Y54.9788 
G01 X82.9788 Y54.9858 
G01 X82.9750 Y54.9950 
G01 X82.9750 Y55.0050 
G00 Z1.0000 
G00 X65.4750 Y-3.9950 
G01 Z-1.3000 F200.00 
G01 X65.4788 Y-3.9858 
G01 X65.4858 Y-3.9788 
G01 X65.4950 Y-3.9750 
G01 X65.5050 Y-3.9750 
G01 X65.5142 Y-3.9788 
G01 X65.5212 Y-3.9858 
G01 X65.5250 Y-3.9950 
G01 X65.5250 Y-4.0050 
G01 X65.5212 Y-4.0142 
G01 X65.5142 Y-4.0212 
G01 X65.5050 Y-4.0250 
G01 X65.4950 Y-4.0250 
G01 X65.4858 Y-4.0212 
G01 X65.4788 Y-4.0142 
G01 X65.4750 Y-4.0050 
G01 X65.4750 Y-3.9950 
G00 Z1.0000 
G00 X89.1512 Y2.0399 
G01 Z-1.3000 F200.00 
G01 X89.0349 Y2.1562 
G01 X88.9526 Y2.2988 
G01 X88.9100 Y2.4577 
G01 X88.9100 Y2.6223 
G01 X88.9526 Y2.7812 
G01 X89.0349 Y2.9238 
G01 X89.1512 Y3.0401 
G01 X89.2938 Y3.1224 
G01 X89.4527 Y3.1650 
G01 X89.6173 Y3.1650 
G01 X89.7762 Y3.1224 
G01 X89.9188 Y3.0401 
G01 X90.0351 Y2.9238 
G01 X90.1174 Y2.7812 
G01 X90.1600 Y2.6223 
G01 X90.1600 Y2.4577 
G01 X90.1174 Y2.2988 
G01 X90.0351 Y2.1562 
G01 X89.9188 Y2.0399 
G01 X89.7762 Y1.9576 
G01 X89.6173 Y1.9150 
G01 X89.4527 Y1.9150 
G01 X89.2938 Y1.9576 
G01 X89.1512 Y2.0399 
G00 Z1.0000 
G00 X1.9150 Y2.4577 
G01 Z-1.3000 F200.00 
G01 X1.9150 Y2.6223 
G01 X1.9576 Y2.7812 
G01 X2.0399 Y2.9238 
G01 X2.1562 Y3.0401 
G01 X2.2988 Y3.1224 
G01 X2.4577 Y3.1650 
G01 X2.6223 Y3.1650 
G01 X2.7812 Y3.1224 
G01 X2.9238 Y3.0401 
G01 X3.0401 Y2.9238 
G01 X3.1224 Y2.7812 
G01 X3.1650 Y2.6223 
G01 X3.1650 Y2.4577 
G01 X3.1224 Y2.2988 
G01 X3.0401 Y2.1562 
G01 X2.9238 Y2.0399 
G01 X2.7812 Y1.9576 
G01 X2.6223 Y1.9150 
G01 X2.4577 Y1.9150 
G01 X2.2988 Y1.9576 
G01 X2.1562 Y2.0399 
G01 X2.0399 Y2.1562 
G01 X1.9576 Y2.2988 
G01 X1.9150 Y2.4577 
G00 Z1.0000 
G00 X-4.4188 Y28.0006 
G01 Z-1.3000 F200.00 
G01 X-3.7062 Y28.4120 
G01 X-2.9114 Y28.6250 
G01 X-2.0886 Y28.6250 
G01 X-1.2938 Y28.4120 
G01 X-0.5812 Y28.0006 
G01 X0.0006 Y27.4188 
G01 X0.2909 Y26.9161 
G01 X0.3106 Y26.8751 
G01 X0.3589 Y26.7982 
G01 X0.4043 Y26.7196 
G01 X0.4313 Y26.6830 
G01 X0.4555 Y26.6445 
G01 X0.5121 Y26.5735 
G01 X0.5661 Y26.5004 
G01 X0.5970 Y26.4671 
G01 X0.6253 Y26.4316 
G01 X0.6895 Y26.3673 
G01 X0.7513 Y26.3007 
G01 X0.7858 Y26.2711 
G01 X0.8179 Y26.2390 
G01 X0.8889 Y26.1823 
G01 X0.9578 Y26.1231 
G01 X0.9953 Y26.0975 
G01 X1.0309 Y26.0691 
G01 X1.1078 Y26.0208 
G01 X1.1828 Y25.9697 
G01 X1.2230 Y25.9484 
G01 X1.2615 Y25.9242 
G01 X1.3433 Y25.8848 
G01 X1.4236 Y25.8424 
G01 X1.4659 Y25.8258 
G01 X1.5069 Y25.8061 
G01 X1.5926 Y25.7761 
G01 X1.6772 Y25.7429 
G01 X1.7210 Y25.7311 
G01 X1.7640 Y25.7161 
G01 X1.8525 Y25.6959 
G01 X1.9403 Y25.6724 
G01 X1.9852 Y25.6656 
G01 X2.0295 Y25.6555 
G01 X2.1197 Y25.6453 
G01 X2.2096 Y25.6318 
G01 X2.2550 Y25.6301 
G01 X2.3002 Y25.6250 
G01 X2.3910 Y25.6250 
G01 X2.4818 Y25.6216 
G01 X2.5271 Y25.6250 
G01 X4.5249 Y25.6250 
G01 X4.5708 Y25.6060 
G01 X4.6060 Y25.5708 
G01 X4.6250 Y25.5249 
G01 X4.6250 Y25.4751 
G01 X4.6060 Y25.4292 
G01 X4.5708 Y25.3940 
G01 X4.5249 Y25.3750 
G01 X2.5271 Y25.3750 
G01 X2.4818 Y25.3784 
G01 X2.3910 Y25.3750 
G01 X2.3002 Y25.3750 
G01 X2.2550 Y25.3699 
G01 X2.2096 Y25.3682 
G01 X2.1197 Y25.3547 
G01 X2.0295 Y25.3445 
G01 X1.9852 Y25.3344 
G01 X1.9403 Y25.3276 
G01 X1.8525 Y25.3041 
G01 X1.7640 Y25.2839 
G01 X1.7210 Y25.2689 
G01 X1.6772 Y25.2571 
G01 X1.5926 Y25.2239 
G01 X1.5069 Y25.1939 
G01 X1.4659 Y25.1742 
G01 X1.4236 Y25.1576 
G01 X1.3433 Y25.1152 
G01 X1.2615 Y25.0758 
G01 X1.2230 Y25.0516 
G01 X1.1828 Y25.0303 
G01 X1.1078 Y24.9792 
G01 X1.0309 Y24.9308 
G01 X0.9953 Y24.9025 
G01 X0.9578 Y24.8769 
G01 X0.8889 Y24.8177 
G01 X0.8179 Y24.7610 
G01 X0.7858 Y24.7289 
G01 X0.7513 Y24.6992 
G01 X0.6895 Y24.6327 
G01 X0.6253 Y24.5684 
G01 X0.5970 Y24.5329 
G01 X0.5661 Y24.4996 
G01 X0.5121 Y24.4265 
G01 X0.4555 Y24.3555 
G01 X0.4313 Y24.3170 
G01 X0.4043 Y24.2804 
G01 X0.3589 Y24.2018 
G01 X0.3106 Y24.1249 
G01 X0.2909 Y24.0839 
G01 X0.0006 Y23.5812 
G01 X-0.5812 Y22.9994 
G01 X-1.2938 Y22.5880 
G01 X-2.0886 Y22.3750 
G01 X-2.9114 Y22.3750 
G01 X-3.7062 Y22.5880 
G01 X-4.4188 Y22.9994 
G01 X-5.0006 Y23.5812 
G01 X-5.4120 Y24.2938 
G01 X-5.4663 Y24.4965 
G01 X-5.4663 Y24.4965 
G01 X-5.4930 Y24.5960 
G01 X-5.5368 Y24.7596 
G01 X-5.6363 Y25.0131 
G01 X-5.6364 Y25.0131 
G01 X-5.7165 Y25.1648 
G01 X-5.7636 Y25.2539 
G01 X-5.7636 Y25.2539 
G01 X-5.7636 Y25.2539 
G01 X-5.8526 Y25.3845 
G01 X-5.9170 Y25.4790 
G01 X-5.9171 Y25.4790 
G01 X-5.9171 Y25.4790 
G01 X-5.9352 Y25.5000 
G01 X-5.9171 Y25.5210 
G01 X-5.9171 Y25.5210 
G01 X-5.9170 Y25.5210 
G01 X-5.8587 Y25.6067 
G01 X-5.7636 Y25.7461 
G01 X-5.7636 Y25.7461 
G01 X-5.7636 Y25.7461 
G01 X-5.7197 Y25.8291 
G01 X-5.6364 Y25.9869 
G01 X-5.6363 Y25.9869 
G01 X-5.5368 Y26.2404 
G01 X-5.4945 Y26.3984 
G01 X-5.4663 Y26.5035 
G01 X-5.4663 Y26.5035 
G01 X-5.4120 Y26.7062 
G01 X-5.0006 Y27.4188 
G01 X-4.4188 Y28.0006 
G00 Z1.0000 
G00 X-10.1162 Y24.9999 
G01 Z-1.3000 F200.00 
G01 X-10.2588 Y24.9176 
G01 X-10.4177 Y24.8750 
G01 X-10.5823 Y24.8750 
G01 X-10.7412 Y24.9176 
G01 X-10.8838 Y24.9999 
G01 X-11.0001 Y25.1162 
G01 X-11.0824 Y25.2588 
G01 X-11.1250 Y25.4177 
G01 X-11.1250 Y25.5823 
G01 X-11.0824 Y25.7412 
G01 X-11.0001 Y25.8838 
G01 X-10.8838 Y26.0001 
G01 X-10.7412 Y26.0824 
G01 X-10.5823 Y26.1250 
G01 X-10.4177 Y26.1250 
G01 X-10.2588 Y26.0824 
G01 X-10.1162 Y26.0001 
G01 X-9.9999 Y25.8838 
G01 X-9.8985 Y25.7081 
G01 X-9.8760 Y25.6692 
G01 X-9.8760 Y25.6692 
G01 X-9.8760 Y25.6692 
G01 X-9.8130 Y25.5839 
G01 X-9.7511 Y25.5000 
G01 X-9.8105 Y25.4196 
G01 X-9.8760 Y25.3308 
G01 X-9.8760 Y25.3308 
G01 X-9.8760 Y25.3308 
G01 X-9.8939 Y25.2998 
G01 X-9.9999 Y25.1162 
G01 X-10.1162 Y24.9999 
G00 Z1.0000 
G00 X46.6162 Y44.9999 
G01 Z-1.3000 F200.00 
G01 X46.4999 Y45.1162 
G01 X46.4176 Y45.2588 
G01 X46.3750 Y45.4177 
G01 X46.3750 Y45.5823 
G01 X46.4176 Y45.7412 
G01 X46.4999 Y45.8838 
G01 X46.6162 Y46.0001 
G01 X46.7588 Y46.0824 
G01 X46.9177 Y46.1250 
G01 X47.0823 Y46.1250 
G01 X47.2412 Y46.0824 
G01 X47.3838 Y46.0001 
G01 X47.5001 Y45.8838 
G01 X47.5824 Y45.7412 
G01 X47.6250 Y45.5823 
G01 X47.6250 Y45.4177 
G01 X47.5824 Y45.2588 
G01 X47.5001 Y45.1162 
G01 X47.3838 Y44.9999 
G01 X47.2412 Y44.9176 
G01 X47.0823 Y44.8750 
G01 X46.9177 Y44.8750 
G01 X46.7588 Y44.9176 
G01 X46.6162 Y44.9999 
G00 Z1.0000 
G00 X38.1162 Y44.9999 
G01 Z-1.3000 F200.00 
G01 X37.9999 Y45.1162 
G01 X37.9176 Y45.2588 
G01 X37.8750 Y45.4177 
G01 X37.8750 Y45.5823 
G01 X37.9176 Y45.7412 
G01 X37.9999 Y45.8838 
G01 X38.1162 Y46.0001 
G01 X38.2588 Y46.0824 
G01 X38.4177 Y46.1250 
G01 X38.5823 Y46.1250 
G01 X38.7412 Y46.0824 
G01 X38.8838 Y46.0001 
G01 X39.0001 Y45.8838 
G01 X39.0824 Y45.7412 
G01 X39.1250 Y45.5823 
G01 X39.1250 Y45.4177 
G01 X39.0824 Y45.2588 
G01 X39.0001 Y45.1162 
G01 X38.8838 Y44.9999 
G01 X38.7412 Y44.9176 
G01 X38.5823 Y44.8750 
G01 X38.4177 Y44.8750 
G01 X38.2588 Y44.9176 
G01 X38.1162 Y44.9999 
G00 Z1.0000 
G00 X55.4177 Y44.8750 
G01 Z-1.3000 F200.00 
G01 X55.2588 Y44.9176 
G01 X55.1162 Y44.9999 
G01 X54.9999 Y45.1162 
G01 X54.9176 Y45.2588 
G01 X54.8750 Y45.4177 
G01 X54.8750 Y45.5823 
G01 X54.9176 Y45.7412 
G01 X54.9999 Y45.8838 
G01 X55.1162 Y46.0001 
G01 X55.2588 Y46.0824 
G01 X55.4177 Y46.1250 
G01 X55.5823 Y46.1250 
G01 X55.7412 Y46.0824 
G01 X55.8838 Y46.0001 
G01 X56.0001 Y45.8838 
G01 X56.0824 Y45.7412 
G01 X56.1250 Y45.5823 
G01 X56.1250 Y45.4177 
G01 X56.0824 Y45.2588 
G01 X56.0001 Y45.1162 
G01 X55.8838 Y44.9999 
G01 X55.7412 Y44.9176 
G01 X55.5823 Y44.8750 
G01 X55.4177 Y44.8750 
G00 Z1.0000 
G00 X93.4527 Y35.2700 
G01 Z-1.3000 F200.00 
G01 X93.2938 Y35.3126 
G01 X93.1512 Y35.3949 
G01 X93.0349 Y35.5112 
G01 X92.9526 Y35.6538 
G01 X92.9100 Y35.8127 
G01 X92.9100 Y35.9773 
G01 X92.9526 Y36.1362 
G01 X93.0349 Y36.2788 
G01 X93.1512 Y36.3951 
G01 X93.2938 Y36.4774 
G01 X93.4527 Y36.5200 
G01 X93.6173 Y36.5200 
G01 X93.7762 Y36.4774 
G01 X93.9188 Y36.3951 
G01 X94.0351 Y36.2788 
G01 X94.1174 Y36.1362 
G01 X94.1600 Y35.9773 
G01 X94.1600 Y35.8127 
G01 X94.1174 Y35.6538 
G01 X94.0351 Y35.5112 
G01 X93.9188 Y35.3949 
G01 X93.7762 Y35.3126 
G01 X93.6173 Y35.2700 
G01 X93.4527 Y35.2700 
G00 Z1.0000 
G00 X97.9858 Y43.0212 
G01 Z-1.3000 F200.00 
G01 X97.9950 Y43.0250 
G01 X98.0050 Y43.0250 
G01 X98.0142 Y43.0212 
G01 X98.0212 Y43.0142 
G01 X98.0250 Y43.0050 
G01 X98.0250 Y42.9950 
G01 X98.0212 Y42.9858 
G01 X98.0142 Y42.9788 
G01 X98.0050 Y42.9750 
G01 X97.9950 Y42.9750 
G01 X97.9858 Y42.9788 
G01 X97.9788 Y42.9858 
G01 X97.9750 Y42.9950 
G01 X97.9750 Y43.0050 
G01 X97.9788 Y43.0142 
G01 X97.9858 Y43.0212 
G00 Z1.0000 
G00 X98.0212 Y8.0142 
G01 Z-1.3000 F200.00 
G01 X98.0250 Y8.0050 
G01 X98.0250 Y7.9950 
G01 X98.0212 Y7.9858 
G01 X98.0142 Y7.9788 
G01 X98.0050 Y7.9750 
G01 X97.9950 Y7.9750 
G01 X97.9858 Y7.9788 
G01 X97.9788 Y7.9858 
G01 X97.9750 Y7.9950 
G01 X97.9750 Y8.0050 
G01 X97.9788 Y8.0142 
G01 X97.9858 Y8.0212 
G01 X97.9950 Y8.0250 
G01 X98.0050 Y8.0250 
G01 X98.0142 Y8.0212 
G01 X98.0212 Y8.0142 
G00 Z1.0000 
G00 X74.4750 Y55.0050 
G01 Z-1.3000 F200.00 
G01 X74.4788 Y55.0142 
G01 X74.4858 Y55.0212 
G01 X74.4950 Y55.0250 
G01 X74.5050 Y55.0250 
G01 X74.5142 Y55.0212 
G01 X74.5212 Y55.0142 
G01 X74.5250 Y55.0050 
G01 X74.5250 Y54.9950 
G01 X74.5212 Y54.9858 
G01 X74.5142 Y54.9788 
G01 X74.5050 Y54.9750 
G01 X74.4950 Y54.9750 
G01 X74.4858 Y54.9788 
G01 X74.4788 Y54.9858 
G01 X74.4750 Y54.9950 
G01 X74.4750 Y55.0050 
G00 Z1.0000 
G00 X17.4750 Y55.0050 
G01 Z-1.3000 F200.00 
G01 X17.4788 Y55.0142 
G01 X17.4858 Y55.0212 
G01 X17.4950 Y55.0250 
G01 X17.5050 Y55.0250 
G01 X17.5142 Y55.0212 
G01 X17.5212 Y55.0142 
G01 X17.5250 Y55.0050 
G01 X17.5250 Y54.9950 
G01 X17.5212 Y54.9858 
G01 X17.5142 Y54.9788 
G01 X17.5050 Y54.9750 
G01 X17.4950 Y54.9750 
G01 X17.4858 Y54.9788 
G01 X17.4788 Y54.9858 
G01 X17.4750 Y54.9950 
G01 X17.4750 Y55.0050 
G00 Z1.0000 
G00 X17.4950 Y-3.9750 
G01 Z-1.3000 F200.00 
G01 X17.5050 Y-3.9750 
G01 X17.5142 Y-3.9788 
G01 X17.5212 Y-3.9858 
G01 X17.5250 Y-3.9950 
G01 X17.5250 Y-4.0050 
G01 X17.5212 Y-4.0142 
G01 X17.5142 Y-4.0212 
G01 X17.5050 Y-4.0250 
G01 X17.4950 Y-4.0250 
G01 X17.4858 Y-4.0212 
G01 X17.4788 Y-4.0142 
G01 X17.4750 Y-4.0050 
G01 X17.4750 Y-3.9950 
G01 X17.4788 Y-3.9858 
G01 X17.4858 Y-3.9788 
G01 X17.4950 Y-3.9750 
G00 Z1.0000 
G00 X74.4950 Y-3.9750 
G01 Z-1.3000 F200.00 
G01 X74.5050 Y-3.9750 
G01 X74.5142 Y-3.9788 
G01 X74.5212 Y-3.9858 
G01 X74.5250 Y-3.9950 
G01 X74.5250 Y-4.0050 
G01 X74.5212 Y-4.0142 
G01 X74.5142 Y-4.0212 
G01 X74.5050 Y-4.0250 
G01 X74.4950 Y-4.0250 
G01 X74.4858 Y-4.0212 
G01 X74.4788 Y-4.0142 
G01 X74.4750 Y-4.0050 
G01 X74.4750 Y-3.9950 
G01 X74.4788 Y-3.9858 
G01 X74.4858 Y-3.9788 
G01 X74.4950 Y-3.9750 
G00 Z1.0000 
G00 X93.4177 Y14.8750 
G01 Z-1.3000 F200.00 
G01 X93.2588 Y14.9176 
G01 X93.1162 Y14.9999 
G01 X92.9999 Y15.1162 
G01 X92.9176 Y15.2588 
G01 X92.8750 Y15.4177 
G01 X92.8750 Y15.5823 
G01 X92.9176 Y15.7412 
G01 X92.9999 Y15.8838 
G01 X93.1162 Y16.0001 
G01 X93.2588 Y16.0824 
G01 X93.4177 Y16.1250 
G01 X93.5823 Y16.1250 
G01 X93.7412 Y16.0824 
G01 X93.8838 Y16.0001 
G01 X94.0001 Y15.8838 
G01 X94.0824 Y15.7412 
G01 X94.1250 Y15.5823 
G01 X94.1250 Y15.4177 
G01 X94.0824 Y15.2588 
G01 X94.0001 Y15.1162 
G01 X93.8838 Y14.9999 
G01 X93.7412 Y14.9176 
G01 X93.5823 Y14.8750 
G01 X93.4177 Y14.8750 
G00 Z1.0000 
G00 X-18.7890 Y33.8333 
G01 Z-1.3000 F200.00 
G01 X-18.7990 Y33.7745 
G01 X-18.8128 Y33.7165 
G01 X-18.8219 Y33.6404 
G01 X-19.4641 Y29.8793 
G01 X-19.4807 Y29.8045 
G01 X-19.4870 Y29.7452 
G01 X-19.4970 Y29.6864 
G01 X-19.5014 Y29.6099 
G01 X-19.9098 Y25.7715 
G01 X-19.9241 Y25.6512 
G01 X-19.9242 Y25.6362 
G01 X-19.9258 Y25.6212 
G01 X-19.9250 Y25.5000 
G01 X-19.9258 Y25.3788 
G01 X-19.9242 Y25.3638 
G01 X-19.9241 Y25.3488 
G01 X-19.9098 Y25.2285 
G01 X-19.5014 Y21.3901 
G01 X-19.4970 Y21.3136 
G01 X-19.4870 Y21.2548 
G01 X-19.4807 Y21.1955 
G01 X-19.4641 Y21.1207 
G01 X-18.8219 Y17.3596 
G01 X-18.8128 Y17.2835 
G01 X-18.7990 Y17.2255 
G01 X-18.7890 Y17.1667 
G01 X-18.7677 Y17.0931 
G01 X-17.8898 Y13.3800 
G01 X-17.8758 Y13.3046 
G01 X-17.8584 Y13.2475 
G01 X-17.8447 Y13.1895 
G01 X-17.8188 Y13.1174 
G01 X-16.7085 Y9.4670 
G01 X-16.6898 Y9.3927 
G01 X-16.6689 Y9.3368 
G01 X-16.6515 Y9.2797 
G01 X-16.6212 Y9.2094 
G01 X-15.2829 Y5.6363 
G01 X-15.2596 Y5.5633 
G01 X-15.2352 Y5.5089 
G01 X-15.2142 Y5.4530 
G01 X-15.1795 Y5.3846 
G01 X-13.6186 Y1.9031 
G01 X-13.5907 Y1.8317 
G01 X-13.5629 Y1.7789 
G01 X-13.5385 Y1.7245 
G01 X-13.4995 Y1.6585 
G01 X-11.7222 Y-1.7177 
G01 X-11.6899 Y-1.7872 
G01 X-11.6588 Y-1.8381 
G01 X-11.6311 Y-1.8909 
G01 X-11.5880 Y-1.9543 
G01 X-9.6328 Y-5.1602 
G01 X-9.6258 Y-5.1749 
G01 X-9.5619 Y-5.2766 
G01 X-9.4994 Y-5.3789 
G01 X-9.4895 Y-5.3917 
G01 X-9.4809 Y-5.4055 
G01 X-9.4060 Y-5.4994 
G01 X-9.3325 Y-5.5941 
G01 X-9.3212 Y-5.6057 
G01 X-9.3110 Y-5.6184 
G01 X-9.2262 Y-5.7032 
G01 X-9.1425 Y-5.7893 
G01 X-9.1299 Y-5.7996 
G01 X-9.1184 Y-5.8110 
G01 X-9.0246 Y-5.8859 
G01 X-8.9318 Y-5.9619 
G01 X-8.9182 Y-5.9707 
G01 X-8.9055 Y-5.9809 
G01 X-8.8038 Y-6.0447 
G01 X-8.7031 Y-6.1099 
G01 X-8.6886 Y-6.1171 
G01 X-8.6749 Y-6.1258 
G01 X-8.5667 Y-6.1778 
G01 X-8.4594 Y-6.2313 
G01 X-8.4441 Y-6.2369 
G01 X-8.4295 Y-6.2439 
G01 X-8.3162 Y-6.2836 
G01 X-8.2035 Y-6.3247 
G01 X-8.1877 Y-6.3285 
G01 X-8.1724 Y-6.3339 
G01 X-8.0555 Y-6.3606 
G01 X-7.9388 Y-6.3889 
G01 X-7.9226 Y-6.3909 
G01 X-7.9068 Y-6.3945 
G01 X-7.7877 Y-6.4079 
G01 X-7.6686 Y-6.4230 
G01 X-7.6523 Y-6.4232 
G01 X-7.6362 Y-6.4250 
G01 X-7.5162 Y-6.4250 
G01 X-7.3962 Y-6.4266 
G01 X-7.3800 Y-6.4250 
G01 X1.4955 Y-6.4250 
G01 X6.3816 Y-11.3110 
G01 X6.5945 Y-11.4809 
G01 X6.8251 Y-11.6258 
G01 X7.0705 Y-11.7439 
G01 X7.3276 Y-11.8339 
G01 X7.5932 Y-11.8945 
G01 X7.8638 Y-11.9250 
G01 X27.6362 Y-11.9250 
G01 X27.9068 Y-11.8945 
G01 X28.1724 Y-11.8339 
G01 X28.4295 Y-11.7439 
G01 X28.6749 Y-11.6258 
G01 X28.9055 Y-11.4809 
G01 X29.1184 Y-11.3110 
G01 X29.3110 Y-11.1184 
G01 X34.0045 Y-6.4250 
G01 X57.9955 Y-6.4250 
G01 X62.8816 Y-11.3110 
G01 X63.0945 Y-11.4809 
G01 X63.3251 Y-11.6258 
G01 X63.5705 Y-11.7439 
G01 X63.8276 Y-11.8339 
G01 X64.0932 Y-11.8945 
G01 X64.3638 Y-11.9250 
G01 X84.1362 Y-11.9250 
G01 X84.4068 Y-11.8945 
G01 X84.6724 Y-11.8339 
G01 X84.9295 Y-11.7439 
G01 X85.1749 Y-11.6258 
G01 X85.4055 Y-11.4809 
G01 X85.6184 Y-11.3110 
G01 X85.8110 Y-11.1184 
G01 X90.5045 Y-6.4250 
G01 X99.6362 Y-6.4250 
G01 X99.9068 Y-6.3945 
G01 X100.1724 Y-6.3339 
G01 X100.4295 Y-6.2439 
G01 X100.6749 Y-6.1258 
G01 X100.9055 Y-5.9809 
G01 X101.1184 Y-5.8110 
G01 X101.3110 Y-5.6184 
G01 X104.3110 Y-2.6184 
G01 X104.4809 Y-2.4055 
G01 X104.6258 Y-2.1749 
G01 X104.7439 Y-1.9295 
G01 X104.8339 Y-1.6724 
G01 X104.8945 Y-1.4068 
G01 X104.9250 Y-1.1362 
G01 X104.9250 Y17.1362 
G01 X104.8945 Y17.4068 
G01 X104.8339 Y17.6724 
G01 X104.7439 Y17.9295 
G01 X104.6258 Y18.1749 
G01 X104.4809 Y18.4055 
G01 X104.3110 Y18.6184 
G01 X104.1184 Y18.8110 
G01 X101.9250 Y21.0045 
G01 X101.9250 Y29.9955 
G01 X104.3110 Y32.3816 
G01 X104.4809 Y32.5945 
G01 X104.6258 Y32.8251 
G01 X104.7439 Y33.0705 
G01 X104.8339 Y33.3276 
G01 X104.8945 Y33.5932 
G01 X104.9250 Y33.8638 
G01 X104.9250 Y52.1362 
G01 X104.8945 Y52.4068 
G01 X104.8339 Y52.6724 
G01 X104.7439 Y52.9295 
G01 X104.6258 Y53.1749 
G01 X104.4809 Y53.4055 
G01 X104.3110 Y53.6184 
G01 X104.1184 Y53.8110 
G01 X101.1184 Y56.8110 
G01 X100.9055 Y56.9809 
G01 X100.6749 Y57.1258 
G01 X100.4295 Y57.2439 
G01 X100.1724 Y57.3339 
G01 X99.9068 Y57.3945 
G01 X99.6362 Y57.4250 
G01 X90.5045 Y57.4250 
G01 X85.6184 Y62.3110 
G01 X85.4055 Y62.4809 
G01 X85.1749 Y62.6258 
G01 X84.9295 Y62.7439 
G01 X84.6724 Y62.8339 
G01 X84.4068 Y62.8945 
G01 X84.1362 Y62.9250 
G01 X64.8638 Y62.9250 
G01 X64.5932 Y62.8945 
G01 X64.3276 Y62.8339 
G01 X64.0705 Y62.7439 
G01 X63.8251 Y62.6258 
G01 X63.5945 Y62.4809 
G01 X63.3816 Y62.3110 
G01 X63.1890 Y62.1184 
G01 X58.4955 Y57.4250 
G01 X34.0045 Y57.4250 
G01 X29.1184 Y62.3110 
G01 X28.9055 Y62.4809 
G01 X28.6749 Y62.6258 
G01 X28.4295 Y62.7439 
G01 X28.1724 Y62.8339 
G01 X27.9068 Y62.8945 
G01 X27.6362 Y62.9250 
G01 X7.8638 Y62.9250 
G01 X7.5932 Y62.8945 
G01 X7.3276 Y62.8339 
G01 X7.0705 Y62.7439 
G01 X6.8251 Y62.6258 
G01 X6.5945 Y62.4809 
G01 X6.3816 Y62.3110 
G01 X6.1890 Y62.1184 
G01 X6.1890 Y62.1184 
G01 X1.4955 Y57.4250 
G01 X-7.3800 Y57.4250 
G01 X-7.3962 Y57.4266 
G01 X-7.5162 Y57.4250 
G01 X-7.6362 Y57.4250 
G01 X-7.6523 Y57.4232 
G01 X-7.6686 Y57.4230 
G01 X-7.7877 Y57.4079 
G01 X-7.9068 Y57.3945 
G01 X-7.9226 Y57.3909 
G01 X-7.9388 Y57.3889 
G01 X-8.0555 Y57.3606 
G01 X-8.1724 Y57.3339 
G01 X-8.1877 Y57.3285 
G01 X-8.2035 Y57.3247 
G01 X-8.3162 Y57.2836 
G01 X-8.4295 Y57.2439 
G01 X-8.4441 Y57.2369 
G01 X-8.4594 Y57.2313 
G01 X-8.5667 Y57.1778 
G01 X-8.6749 Y57.1258 
G01 X-8.6886 Y57.1171 
G01 X-8.7031 Y57.1099 
G01 X-8.8038 Y57.0447 
G01 X-8.9055 Y56.9809 
G01 X-8.9182 Y56.9707 
G01 X-8.9318 Y56.9619 
G01 X-9.0246 Y56.8859 
G01 X-9.1184 Y56.8110 
G01 X-9.1299 Y56.7996 
G01 X-9.1425 Y56.7893 
G01 X-9.2262 Y56.7032 
G01 X-9.3110 Y56.6184 
G01 X-9.3212 Y56.6057 
G01 X-9.3325 Y56.5941 
G01 X-9.4060 Y56.4994 
G01 X-9.4809 Y56.4055 
G01 X-9.4895 Y56.3917 
G01 X-9.4994 Y56.3789 
G01 X-9.5618 Y56.2766 
G01 X-9.6258 Y56.1749 
G01 X-9.6328 Y56.1602 
G01 X-11.5880 Y52.9543 
G01 X-11.6311 Y52.8909 
G01 X-11.6588 Y52.8381 
G01 X-11.6899 Y52.7872 
G01 X-11.7222 Y52.7177 
G01 X-13.4995 Y49.3415 
G01 X-13.5385 Y49.2755 
G01 X-13.5629 Y49.2211 
G01 X-13.5907 Y49.1683 
G01 X-13.6186 Y49.0969 
G01 X-15.1795 Y45.6154 
G01 X-15.2142 Y45.5470 
G01 X-15.2352 Y45.4911 
G01 X-15.2596 Y45.4367 
G01 X-15.2829 Y45.3637 
G01 X-16.6212 Y41.7906 
G01 X-16.6515 Y41.7203 
G01 X-16.6689 Y41.6632 
G01 X-16.6898 Y41.6073 
G01 X-16.7085 Y41.5330 
G01 X-17.8188 Y37.8827 
G01 X-17.8447 Y37.8105 
G01 X-17.8584 Y37.7525 
G01 X-17.8758 Y37.6954 
G01 X-17.8897 Y37.6200 
G01 X-18.7677 Y33.9069 
G01 X-18.7890 Y33.8333 
(File Footer)
G00 Z1.0000 

(---------------------------------------)

G00 X-8.0423 Y9.9150 
G01 Z-2.7000 F200.00 
G01 X-8.2012 Y9.9576 
G01 X-8.3438 Y10.0399 
G01 X-8.4601 Y10.1562 
G01 X-8.5424 Y10.2988 
G01 X-8.5850 Y10.4577 
G01 X-8.5850 Y10.6223 
G01 X-8.5424 Y10.7812 
G01 X-8.4601 Y10.9238 
G01 X-8.3438 Y11.0401 
G01 X-8.2012 Y11.1224 
G01 X-8.0423 Y11.1650 
G01 X-7.8777 Y11.1650 
G01 X-7.7188 Y11.1224 
G01 X-7.5762 Y11.0401 
G01 X-7.4599 Y10.9238 
G01 X-7.3776 Y10.7812 
G01 X-7.3350 Y10.6223 
G01 X-7.3350 Y10.4577 
G01 X-7.3776 Y10.2988 
G01 X-7.4599 Y10.1562 
G01 X-7.5762 Y10.0399 
G01 X-7.7188 Y9.9576 
G01 X-7.8777 Y9.9150 
G01 X-8.0423 Y9.9150 
G00 Z1.0000 
G00 X-8.3438 Y40.0399 
G01 Z-2.7000 F200.00 
G01 X-8.4601 Y40.1562 
G01 X-8.5424 Y40.2988 
G01 X-8.5850 Y40.4577 
G01 X-8.5850 Y40.6223 
G01 X-8.5424 Y40.7812 
G01 X-8.4601 Y40.9238 
G01 X-8.3438 Y41.0401 
G01 X-8.2012 Y41.1224 
G01 X-8.0423 Y41.1650 
G01 X-7.8777 Y41.1650 
G01 X-7.7188 Y41.1224 
G01 X-7.5762 Y41.0401 
G01 X-7.4599 Y40.9238 
G01 X-7.3776 Y40.7812 
G01 X-7.3350 Y40.6223 
G01 X-7.3350 Y40.4577 
G01 X-7.3776 Y40.2988 
G01 X-7.4599 Y40.1562 
G01 X-7.5762 Y40.0399 
G01 X-7.7188 Y39.9576 
G01 X-7.8777 Y39.9150 
G01 X-8.0423 Y39.9150 
G01 X-8.2012 Y39.9576 
G01 X-8.3438 Y40.0399 
G00 Z1.0000 
G00 X22.0050 Y37.0250 
G01 Z-2.7000 F200.00 
G01 X22.0142 Y37.0212 
G01 X22.0212 Y37.0142 
G01 X22.0250 Y37.0050 
G01 X22.0250 Y35.4950 
G01 X22.0212 Y35.4858 
G01 X22.0142 Y35.4788 
G01 X22.0050 Y35.4750 
G01 X11.9950 Y35.4750 
G01 X11.9858 Y35.4788 
G01 X11.9788 Y35.4858 
G01 X11.9750 Y35.4950 
G01 X11.9750 Y37.0050 
G01 X11.9788 Y37.0142 
G01 X11.9858 Y37.0212 
G01 X11.9950 Y37.0250 
G01 X21.6488 Y37.0250 
G01 X22.0050 Y37.0250 
G00 Z1.0000 
G00 X17.1162 Y24.9999 
G01 Z-2.7000 F200.00 
G01 X16.9999 Y25.1162 
G01 X16.9176 Y25.2588 
G01 X16.8750 Y25.4177 
G01 X16.8750 Y25.5823 
G01 X16.9176 Y25.7412 
G01 X16.9999 Y25.8838 
G01 X17.1162 Y26.0001 
G01 X17.2588 Y26.0824 
G01 X17.4177 Y26.1250 
G01 X17.5823 Y26.1250 
G01 X17.7412 Y26.0824 
G01 X17.8838 Y26.0001 
G01 X18.0001 Y25.8838 
G01 X18.0824 Y25.7412 
G01 X18.1250 Y25.5823 
G01 X18.1250 Y25.4177 
G01 X18.0824 Y25.2588 
G01 X18.0001 Y25.1162 
G01 X17.8838 Y24.9999 
G01 X17.7412 Y24.9176 
G01 X17.5823 Y24.8750 
G01 X17.4177 Y24.8750 
G01 X17.2588 Y24.9176 
G01 X17.1162 Y24.9999 
G00 Z1.0000 
G00 X22.0050 Y15.5250 
G01 Z-2.7000 F200.00 
G01 X22.0142 Y15.5212 
G01 X22.0212 Y15.5142 
G01 X22.0250 Y15.5050 
G01 X22.0250 Y13.9950 
G01 X22.0212 Y13.9858 
G01 X22.0142 Y13.9788 
G01 X22.0050 Y13.9750 
G01 X11.9950 Y13.9750 
G01 X11.9858 Y13.9788 
G01 X11.9788 Y13.9858 
G01 X11.9750 Y13.9950 
G01 X11.9750 Y15.5050 
G01 X11.9788 Y15.5142 
G01 X11.9858 Y15.5212 
G01 X11.9950 Y15.5250 
G01 X21.6488 Y15.5250 
G01 X22.0050 Y15.5250 
G00 Z1.0000 
G00 X59.2177 Y14.3750 
G01 Z-2.7000 F200.00 
G01 X59.0588 Y14.4176 
G01 X58.9162 Y14.4999 
G01 X58.7999 Y14.6162 
G01 X58.7176 Y14.7588 
G01 X58.6750 Y14.9177 
G01 X58.6750 Y15.0823 
G01 X58.7176 Y15.2412 
G01 X58.7999 Y15.3838 
G01 X58.9162 Y15.5001 
G01 X59.0588 Y15.5824 
G01 X59.2177 Y15.6250 
G01 X59.3823 Y15.6250 
G01 X59.5412 Y15.5824 
G01 X59.6838 Y15.5001 
G01 X59.8001 Y15.3838 
G01 X59.8824 Y15.2412 
G01 X59.9250 Y15.0823 
G01 X59.9250 Y14.9177 
G01 X59.8824 Y14.7588 
G01 X59.8001 Y14.6162 
G01 X59.6838 Y14.4999 
G01 X59.5412 Y14.4176 
G01 X59.3823 Y14.3750 
G01 X59.2177 Y14.3750 
G00 Z1.0000 
G00 X59.2177 Y35.1750 
G01 Z-2.7000 F200.00 
G01 X59.0588 Y35.2176 
G01 X58.9162 Y35.2999 
G01 X58.7999 Y35.4162 
G01 X58.7176 Y35.5588 
G01 X58.6750 Y35.7177 
G01 X58.6750 Y35.8823 
G01 X58.7176 Y36.0412 
G01 X58.7999 Y36.1838 
G01 X58.9162 Y36.3001 
G01 X59.0588 Y36.3824 
G01 X59.2177 Y36.4250 
G01 X59.3823 Y36.4250 
G01 X59.5412 Y36.3824 
G01 X59.6838 Y36.3001 
G01 X59.8001 Y36.1838 
G01 X59.8824 Y36.0412 
G01 X59.9250 Y35.8823 
G01 X59.9250 Y35.7177 
G01 X59.8824 Y35.5588 
G01 X59.8001 Y35.4162 
G01 X59.6838 Y35.2999 
G01 X59.5412 Y35.2176 
G01 X59.3823 Y35.1750 
G01 X59.2177 Y35.1750 
G00 Z1.0000 
G00 X79.0050 Y15.5250 
G01 Z-2.7000 F200.00 
G01 X79.0142 Y15.5212 
G01 X79.0212 Y15.5142 
G01 X79.0250 Y15.5050 
G01 X79.0250 Y13.9950 
G01 X79.0212 Y13.9858 
G01 X79.0142 Y13.9788 
G01 X79.0050 Y13.9750 
G01 X68.9950 Y13.9750 
G01 X68.9858 Y13.9788 
G01 X68.9788 Y13.9858 
G01 X68.9750 Y13.9950 
G01 X68.9750 Y15.5050 
G01 X68.9788 Y15.5142 
G01 X68.9858 Y15.5212 
G01 X68.9950 Y15.5250 
G01 X78.6488 Y15.5250 
G01 X79.0050 Y15.5250 
G00 Z1.0000 
G00 X55.1162 Y4.9999 
G01 Z-2.7000 F200.00 
G01 X54.9999 Y5.1162 
G01 X54.9176 Y5.2588 
G01 X54.8750 Y5.4177 
G01 X54.8750 Y5.5823 
G01 X54.9176 Y5.7412 
G01 X54.9999 Y5.8838 
G01 X55.1162 Y6.0001 
G01 X55.2588 Y6.0824 
G01 X55.4177 Y6.1250 
G01 X55.5823 Y6.1250 
G01 X55.7412 Y6.0824 
G01 X55.8838 Y6.0001 
G01 X56.0001 Y5.8838 
G01 X56.0824 Y5.7412 
G01 X56.1250 Y5.5823 
G01 X56.1250 Y5.4177 
G01 X56.0824 Y5.2588 
G01 X56.0001 Y5.1162 
G01 X55.8838 Y4.9999 
G01 X55.7412 Y4.9176 
G01 X55.5823 Y4.8750 
G01 X55.4177 Y4.8750 
G01 X55.2588 Y4.9176 
G01 X55.1162 Y4.9999 
G00 Z1.0000 
G00 X74.1162 Y24.9999 
G01 Z-2.7000 F200.00 
G01 X73.9999 Y25.1162 
G01 X73.9176 Y25.2588 
G01 X73.8750 Y25.4177 
G01 X73.8750 Y25.5823 
G01 X73.9176 Y25.7412 
G01 X73.9999 Y25.8838 
G01 X74.1162 Y26.0001 
G01 X74.2588 Y26.0824 
G01 X74.4177 Y26.1250 
G01 X74.5823 Y26.1250 
G01 X74.7412 Y26.0824 
G01 X74.8838 Y26.0001 
G01 X75.0001 Y25.8838 
G01 X75.0824 Y25.7412 
G01 X75.1250 Y25.5823 
G01 X75.1250 Y25.4177 
G01 X75.0824 Y25.2588 
G01 X75.0001 Y25.1162 
G01 X74.8838 Y24.9999 
G01 X74.7412 Y24.9176 
G01 X74.5823 Y24.8750 
G01 X74.4177 Y24.8750 
G01 X74.2588 Y24.9176 
G01 X74.1162 Y24.9999 
G00 Z1.0000 
G00 X68.9788 Y37.0142 
G01 Z-2.7000 F200.00 
G01 X68.9858 Y37.0212 
G01 X68.9950 Y37.0250 
G01 X79.0050 Y37.0250 
G01 X79.0142 Y37.0212 
G01 X79.0212 Y37.0142 
G01 X79.0250 Y37.0050 
G01 X79.0250 Y35.4950 
G01 X79.0212 Y35.4858 
G01 X79.0142 Y35.4788 
G01 X79.0050 Y35.4750 
G01 X68.9950 Y35.4750 
G01 X68.9858 Y35.4788 
G01 X68.9788 Y35.4858 
G01 X68.9750 Y35.4950 
G01 X68.9750 Y37.0050 
G01 X68.9788 Y37.0142 
G00 Z1.0000 
G00 X49.5006 Y27.4188 
G01 Z-2.7000 F200.00 
G01 X49.9120 Y26.7062 
G01 X50.1250 Y25.9114 
G01 X50.1250 Y25.0886 
G01 X49.9120 Y24.2938 
G01 X49.5006 Y23.5812 
G01 X48.9188 Y22.9994 
G01 X48.4161 Y22.7091 
G01 X48.3751 Y22.6894 
G01 X48.2982 Y22.6411 
G01 X48.2196 Y22.5957 
G01 X48.1830 Y22.5687 
G01 X48.1445 Y22.5445 
G01 X48.0735 Y22.4879 
G01 X48.0004 Y22.4339 
G01 X47.9671 Y22.4030 
G01 X47.9316 Y22.3747 
G01 X47.8673 Y22.3105 
G01 X47.8008 Y22.2487 
G01 X47.7711 Y22.2142 
G01 X47.7390 Y22.1821 
G01 X47.6823 Y22.1111 
G01 X47.6231 Y22.0422 
G01 X47.5975 Y22.0047 
G01 X47.5691 Y21.9691 
G01 X47.5208 Y21.8922 
G01 X47.4697 Y21.8172 
G01 X47.4484 Y21.7770 
G01 X47.4242 Y21.7385 
G01 X47.3848 Y21.6567 
G01 X47.3424 Y21.5764 
G01 X47.3258 Y21.5341 
G01 X47.3061 Y21.4931 
G01 X47.2761 Y21.4074 
G01 X47.2429 Y21.3228 
G01 X47.2311 Y21.2789 
G01 X47.2161 Y21.2360 
G01 X47.1959 Y21.1475 
G01 X47.1724 Y21.0598 
G01 X47.1656 Y21.0148 
G01 X47.1555 Y20.9705 
G01 X47.1453 Y20.8803 
G01 X47.1318 Y20.7904 
G01 X47.1301 Y20.7450 
G01 X47.1250 Y20.6998 
G01 X47.1250 Y20.6090 
G01 X47.1216 Y20.5182 
G01 X47.1250 Y20.4729 
G01 X47.1250 Y18.4751 
G01 X47.1060 Y18.4292 
G01 X47.0708 Y18.3940 
G01 X47.0249 Y18.3750 
G01 X46.9751 Y18.3750 
G01 X46.9292 Y18.3940 
G01 X46.8940 Y18.4292 
G01 X46.8750 Y18.4751 
G01 X46.8750 Y20.4729 
G01 X46.8784 Y20.5182 
G01 X46.8750 Y20.6090 
G01 X46.8750 Y20.6998 
G01 X46.8699 Y20.7450 
G01 X46.8682 Y20.7904 
G01 X46.8547 Y20.8803 
G01 X46.8445 Y20.9705 
G01 X46.8344 Y21.0148 
G01 X46.8276 Y21.0598 
G01 X46.8041 Y21.1475 
G01 X46.7839 Y21.2360 
G01 X46.7689 Y21.2789 
G01 X46.7571 Y21.3228 
G01 X46.7239 Y21.4074 
G01 X46.6939 Y21.4931 
G01 X46.6742 Y21.5341 
G01 X46.6576 Y21.5764 
G01 X46.6152 Y21.6567 
G01 X46.5758 Y21.7385 
G01 X46.5516 Y21.7770 
G01 X46.5303 Y21.8172 
G01 X46.4792 Y21.8922 
G01 X46.4308 Y21.9691 
G01 X46.4025 Y22.0047 
G01 X46.3769 Y22.0422 
G01 X46.3177 Y22.1111 
G01 X46.2610 Y22.1821 
G01 X46.2289 Y22.2142 
G01 X46.1992 Y22.2487 
G01 X46.1327 Y22.3105 
G01 X46.0684 Y22.3747 
G01 X46.0329 Y22.4030 
G01 X45.9996 Y22.4339 
G01 X45.9265 Y22.4879 
G01 X45.8555 Y22.5445 
G01 X45.8170 Y22.5687 
G01 X45.7804 Y22.5957 
G01 X45.7018 Y22.6411 
G01 X45.6249 Y22.6894 
G01 X45.5839 Y22.7091 
G01 X45.0812 Y22.9994 
G01 X44.4994 Y23.5812 
G01 X44.0880 Y24.2938 
G01 X43.8750 Y25.0886 
G01 X43.8750 Y25.9114 
G01 X44.0880 Y26.7062 
G01 X44.4994 Y27.4188 
G01 X45.0812 Y28.0006 
G01 X45.7938 Y28.4120 
G01 X45.9965 Y28.4663 
G01 X45.9965 Y28.4663 
G01 X46.0960 Y28.4930 
G01 X46.2596 Y28.5368 
G01 X46.5131 Y28.6363 
G01 X46.5131 Y28.6364 
G01 X46.6648 Y28.7165 
G01 X46.7539 Y28.7636 
G01 X46.7539 Y28.7636 
G01 X46.7539 Y28.7636 
G01 X46.8845 Y28.8526 
G01 X46.9790 Y28.9170 
G01 X46.9790 Y28.9171 
G01 X46.9790 Y28.9171 
G01 X47.0000 Y28.9352 
G01 X47.0210 Y28.9171 
G01 X47.0210 Y28.9171 
G01 X47.0210 Y28.9170 
G01 X47.1067 Y28.8587 
G01 X47.2461 Y28.7636 
G01 X47.2461 Y28.7636 
G01 X47.2461 Y28.7636 
G01 X47.3291 Y28.7197 
G01 X47.4869 Y28.6364 
G01 X47.4869 Y28.6363 
G01 X47.7404 Y28.5368 
G01 X47.8984 Y28.4945 
G01 X48.0035 Y28.4663 
G01 X48.0035 Y28.4663 
G01 X48.2062 Y28.4120 
G01 X48.9188 Y28.0006 
G01 X49.5006 Y27.4188 
G00 Z1.0000 
G00 X46.9196 Y32.8105 
G01 Z-2.7000 F200.00 
G01 X46.8308 Y32.8760 
G01 X46.8308 Y32.8760 
G01 X46.8308 Y32.8760 
G01 X46.7998 Y32.8939 
G01 X46.6162 Y32.9999 
G01 X46.4999 Y33.1162 
G01 X46.4176 Y33.2588 
G01 X46.3750 Y33.4177 
G01 X46.3750 Y33.5823 
G01 X46.4176 Y33.7412 
G01 X46.4999 Y33.8838 
G01 X46.6162 Y34.0001 
G01 X46.7588 Y34.0824 
G01 X46.9177 Y34.1250 
G01 X47.0823 Y34.1250 
G01 X47.2412 Y34.0824 
G01 X47.3838 Y34.0001 
G01 X47.5001 Y33.8838 
G01 X47.5824 Y33.7412 
G01 X47.6250 Y33.5823 
G01 X47.6250 Y33.4177 
G01 X47.5824 Y33.2588 
G01 X47.5001 Y33.1162 
G01 X47.3838 Y32.9999 
G01 X47.2081 Y32.8985 
G01 X47.1692 Y32.8760 
G01 X47.1692 Y32.8760 
G01 X47.1692 Y32.8760 
G01 X47.0839 Y32.8130 
G01 X47.0000 Y32.7511 
G01 X46.9196 Y32.8105 
G00 Z1.0000 
G00 X82.9750 Y-3.9950 
G01 Z-2.7000 F200.00 
G01 X82.9788 Y-3.9858 
G01 X82.9858 Y-3.9788 
G01 X82.9950 Y-3.9750 
G01 X83.0050 Y-3.9750 
G01 X83.0142 Y-3.9788 
G01 X83.0212 Y-3.9858 
G01 X83.0250 Y-3.9950 
G01 X83.0250 Y-4.0050 
G01 X83.0212 Y-4.0142 
G01 X83.0142 Y-4.0212 
G01 X83.0050 Y-4.0250 
G01 X82.9950 Y-4.0250 
G01 X82.9858 Y-4.0212 
G01 X82.9788 Y-4.0142 
G01 X82.9750 Y-4.0050 
G01 X82.9750 Y-3.9950 
G00 Z1.0000 
G00 X38.1162 Y4.9999 
G01 Z-2.7000 F200.00 
G01 X37.9999 Y5.1162 
G01 X37.9176 Y5.2588 
G01 X37.8750 Y5.4177 
G01 X37.8750 Y5.5823 
G01 X37.9176 Y5.7412 
G01 X37.9999 Y5.8838 
G01 X38.1162 Y6.0001 
G01 X38.2588 Y6.0824 
G01 X38.4177 Y6.1250 
G01 X38.5823 Y6.1250 
G01 X38.7412 Y6.0824 
G01 X38.8838 Y6.0001 
G01 X39.0001 Y5.8838 
G01 X39.0824 Y5.7412 
G01 X39.1250 Y5.5823 
G01 X39.1250 Y5.4177 
G01 X39.0824 Y5.2588 
G01 X39.0001 Y5.1162 
G01 X38.8838 Y4.9999 
G01 X38.7412 Y4.9176 
G01 X38.5823 Y4.8750 
G01 X38.4177 Y4.8750 
G01 X38.2588 Y4.9176 
G01 X38.1162 Y4.9999 
G00 Z1.0000 
G00 X46.9177 Y4.8750 
G01 Z-2.7000 F200.00 
G01 X46.7588 Y4.9176 
G01 X46.6162 Y4.9999 
G01 X46.4999 Y5.1162 
G01 X46.4176 Y5.2588 
G01 X46.3750 Y5.4177 
G01 X46.3750 Y5.5823 
G01 X46.4176 Y5.7412 
G01 X46.4999 Y5.8838 
G01 X46.6162 Y6.0001 
G01 X46.7588 Y6.0824 
G01 X46.9177 Y6.1250 
G01 X47.0823 Y6.1250 
G01 X47.2412 Y6.0824 
G01 X47.3838 Y6.0001 
G01 X47.5001 Y5.8838 
G01 X47.5824 Y5.7412 
G01 X47.6250 Y5.5823 
G01 X47.6250 Y5.4177 
G01 X47.5824 Y5.2588 
G01 X47.5001 Y5.1162 
G01 X47.3838 Y4.9999 
G01 X47.2412 Y4.9176 
G01 X47.0823 Y4.8750 
G01 X46.9177 Y4.8750 
G00 Z1.0000 
G00 X31.4177 Y35.1750 
G01 Z-2.7000 F200.00 
G01 X31.2588 Y35.2176 
G01 X31.1162 Y35.2999 
G01 X30.9999 Y35.4162 
G01 X30.9176 Y35.5588 
G01 X30.8750 Y35.7177 
G01 X30.8750 Y35.8823 
G01 X30.9176 Y36.0412 
G01 X30.9999 Y36.1838 
G01 X31.1162 Y36.3001 
G01 X31.2588 Y36.3824 
G01 X31.4177 Y36.4250 
G01 X31.5823 Y36.4250 
G01 X31.7412 Y36.3824 
G01 X31.8838 Y36.3001 
G01 X32.0001 Y36.1838 
G01 X32.0824 Y36.0412 
G01 X32.1250 Y35.8823 
G01 X32.1250 Y35.7177 
G01 X32.0824 Y35.5588 
G01 X32.0001 Y35.4162 
G01 X31.8838 Y35.2999 
G01 X31.7412 Y35.2176 
G01 X31.5823 Y35.1750 
G01 X31.4177 Y35.1750 
G00 Z1.0000 
G00 X31.4177 Y14.3750 
G01 Z-2.7000 F200.00 
G01 X31.2588 Y14.4176 
G01 X31.1162 Y14.4999 
G01 X30.9999 Y14.6162 
G01 X30.9176 Y14.7588 
G01 X30.8750 Y14.9177 
G01 X30.8750 Y15.0823 
G01 X30.9176 Y15.2412 
G01 X30.9999 Y15.3838 
G01 X31.1162 Y15.5001 
G01 X31.2588 Y15.5824 
G01 X31.4177 Y15.6250 
G01 X31.5823 Y15.6250 
G01 X31.7412 Y15.5824 
G01 X31.8838 Y15.5001 
G01 X32.0001 Y15.3838 
G01 X32.0824 Y15.2412 
G01 X32.1250 Y15.0823 
G01 X32.1250 Y14.9177 
G01 X32.0824 Y14.7588 
G01 X32.0001 Y14.6162 
G01 X31.8838 Y14.4999 
G01 X31.7412 Y14.4176 
G01 X31.5823 Y14.3750 
G01 X31.4177 Y14.3750 
G00 Z1.0000 
G00 X65.4750 Y55.0050 
G01 Z-2.7000 F200.00 
G01 X65.4788 Y55.0142 
G01 X65.4858 Y55.0212 
G01 X65.4950 Y55.0250 
G01 X65.5050 Y55.0250 
G01 X65.5142 Y55.0212 
G01 X65.5212 Y55.0142 
G01 X65.5250 Y55.0050 
G01 X65.5250 Y54.9950 
G01 X65.5212 Y54.9858 
G01 X65.5142 Y54.9788 
G01 X65.5050 Y54.9750 
G01 X65.4950 Y54.9750 
G01 X65.4858 Y54.9788 
G01 X65.4788 Y54.9858 
G01 X65.4750 Y54.9950 
G01 X65.4750 Y55.0050 
G00 Z1.0000 
G00 X8.9750 Y-3.9950 
G01 Z-2.7000 F200.00 
G01 X8.9788 Y-3.9858 
G01 X8.9858 Y-3.9788 
G01 X8.9950 Y-3.9750 
G01 X9.0050 Y-3.9750 
G01 X9.0142 Y-3.9788 
G01 X9.0212 Y-3.9858 
G01 X9.0250 Y-3.9950 
G01 X9.0250 Y-4.0050 
G01 X9.0212 Y-4.0142 
G01 X9.0142 Y-4.0212 
G01 X9.0050 Y-4.0250 
G01 X8.9950 Y-4.0250 
G01 X8.9858 Y-4.0212 
G01 X8.9788 Y-4.0142 
G01 X8.9750 Y-4.0050 
G01 X8.9750 Y-3.9950 
G00 Z1.0000 
G00 X8.9750 Y55.0050 
G01 Z-2.7000 F200.00 
G01 X8.9788 Y55.0142 
G01 X8.9858 Y55.0212 
G01 X8.9950 Y55.0250 
G01 X9.0050 Y55.0250 
G01 X9.0142 Y55.0212 
G01 X9.0212 Y55.0142 
G01 X9.0250 Y55.0050 
G01 X9.0250 Y54.9950 
G01 X9.0212 Y54.9858 
G01 X9.0142 Y54.9788 
G01 X9.0050 Y54.9750 
G01 X8.9950 Y54.9750 
G01 X8.9858 Y54.9788 
G01 X8.9788 Y54.9858 
G01 X8.9750 Y54.9950 
G01 X8.9750 Y55.0050 
G00 Z1.0000 
G00 X2.1562 Y48.3949 
G01 Z-2.7000 F200.00 
G01 X2.0399 Y48.5112 
G01 X1.9576 Y48.6538 
G01 X1.9150 Y48.8127 
G01 X1.9150 Y48.9773 
G01 X1.9576 Y49.1362 
G01 X2.0399 Y49.2788 
G01 X2.1562 Y49.3951 
G01 X2.2988 Y49.4774 
G01 X2.4577 Y49.5200 
G01 X2.6223 Y49.5200 
G01 X2.7812 Y49.4774 
G01 X2.9238 Y49.3951 
G01 X3.0401 Y49.2788 
G01 X3.1224 Y49.1362 
G01 X3.1650 Y48.9773 
G01 X3.1650 Y48.8127 
G01 X3.1224 Y48.6538 
G01 X3.0401 Y48.5112 
G01 X2.9238 Y48.3949 
G01 X2.7812 Y48.3126 
G01 X2.6223 Y48.2700 
G01 X2.4577 Y48.2700 
G01 X2.2988 Y48.3126 
G01 X2.1562 Y48.3949 
G00 Z1.0000 
G00 X89.1512 Y48.3949 
G01 Z-2.7000 F200.00 
G01 X89.0349 Y48.5112 
G01 X88.9526 Y48.6538 
G01 X88.9100 Y48.8127 
G01 X88.9100 Y48.9773 
G01 X88.9526 Y49.1362 
G01 X89.0349 Y49.2788 
G01 X89.1512 Y49.3951 
G01 X89.2938 Y49.4774 
G01 X89.4527 Y49.5200 
G01 X89.6173 Y49.5200 
G01 X89.7762 Y49.4774 
G01 X89.9188 Y49.3951 
G01 X90.0351 Y49.2788 
G01 X90.1174 Y49.1362 
G01 X90.1600 Y48.9773 
G01 X90.1600 Y48.8127 
G01 X90.1174 Y48.6538 
G01 X90.0351 Y48.5112 
G01 X89.9188 Y48.3949 
G01 X89.7762 Y48.3126 
G01 X89.6173 Y48.2700 
G01 X89.4527 Y48.2700 
G01 X89.2938 Y48.3126 
G01 X89.1512 Y48.3949 
G00 Z1.0000 
G00 X26.4750 Y55.0050 
G01 Z-2.7000 F200.00 
G01 X26.4788 Y55.0142 
G01 X26.4858 Y55.0212 
G01 X26.4950 Y55.0250 
G01 X26.5050 Y55.0250 
G01 X26.5142 Y55.0212 
G01 X26.5212 Y55.0142 
G01 X26.5250 Y55.0050 
G01 X26.5250 Y54.9950 
G01 X26.5212 Y54.9858 
G01 X26.5142 Y54.9788 
G01 X26.5050 Y54.9750 
G01 X26.4950 Y54.9750 
G01 X26.4858 Y54.9788 
G01 X26.4788 Y54.9858 
G01 X26.4750 Y54.9950 
G01 X26.4750 Y55.0050 
G00 Z1.0000 
G00 X26.4750 Y-3.9950 
G01 Z-2.7000 F200.00 
G01 X26.4788 Y-3.9858 
G01 X26.4858 Y-3.9788 
G01 X26.4950 Y-3.9750 
G01 X26.5050 Y-3.9750 
G01 X26.5142 Y-3.9788 
G01 X26.5212 Y-3.9858 
G01 X26.5250 Y-3.9950 
G01 X26.5250 Y-4.0050 
G01 X26.5212 Y-4.0142 
G01 X26.5142 Y-4.0212 
G01 X26.5050 Y-4.0250 
G01 X26.4950 Y-4.0250 
G01 X26.4858 Y-4.0212 
G01 X26.4788 Y-4.0142 
G01 X26.4750 Y-4.0050 
G01 X26.4750 Y-3.9950 
G00 Z1.0000 
G00 X82.9750 Y55.0050 
G01 Z-2.7000 F200.00 
G01 X82.9788 Y55.0142 
G01 X82.9858 Y55.0212 
G01 X82.9950 Y55.0250 
G01 X83.0050 Y55.0250 
G01 X83.0142 Y55.0212 
G01 X83.0212 Y55.0142 
G01 X83.0250 Y55.0050 
G01 X83.0250 Y54.9950 
G01 X83.0212 Y54.9858 
G01 X83.0142 Y54.9788 
G01 X83.0050 Y54.9750 
G01 X82.9950 Y54.9750 
G01 X82.9858 Y54.9788 
G01 X82.9788 Y54.9858 
G01 X82.9750 Y54.9950 
G01 X82.9750 Y55.0050 
G00 Z1.0000 
G00 X65.4750 Y-3.9950 
G01 Z-2.7000 F200.00 
G01 X65.4788 Y-3.9858 
G01 X65.4858 Y-3.9788 
G01 X65.4950 Y-3.9750 
G01 X65.5050 Y-3.9750 
G01 X65.5142 Y-3.9788 
G01 X65.5212 Y-3.9858 
G01 X65.5250 Y-3.9950 
G01 X65.5250 Y-4.0050 
G01 X65.5212 Y-4.0142 
G01 X65.5142 Y-4.0212 
G01 X65.5050 Y-4.0250 
G01 X65.4950 Y-4.0250 
G01 X65.4858 Y-4.0212 
G01 X65.4788 Y-4.0142 
G01 X65.4750 Y-4.0050 
G01 X65.4750 Y-3.9950 
G00 Z1.0000 
G00 X89.1512 Y2.0399 
G01 Z-2.7000 F200.00 
G01 X89.0349 Y2.1562 
G01 X88.9526 Y2.2988 
G01 X88.9100 Y2.4577 
G01 X88.9100 Y2.6223 
G01 X88.9526 Y2.7812 
G01 X89.0349 Y2.9238 
G01 X89.1512 Y3.0401 
G01 X89.2938 Y3.1224 
G01 X89.4527 Y3.1650 
G01 X89.6173 Y3.1650 
G01 X89.7762 Y3.1224 
G01 X89.9188 Y3.0401 
G01 X90.0351 Y2.9238 
G01 X90.1174 Y2.7812 
G01 X90.1600 Y2.6223 
G01 X90.1600 Y2.4577 
G01 X90.1174 Y2.2988 
G01 X90.0351 Y2.1562 
G01 X89.9188 Y2.0399 
G01 X89.7762 Y1.9576 
G01 X89.6173 Y1.9150 
G01 X89.4527 Y1.9150 
G01 X89.2938 Y1.9576 
G01 X89.1512 Y2.0399 
G00 Z1.0000 
G00 X1.9150 Y2.4577 
G01 Z-2.7000 F200.00 
G01 X1.9150 Y2.6223 
G01 X1.9576 Y2.7812 
G01 X2.0399 Y2.9238 
G01 X2.1562 Y3.0401 
G01 X2.2988 Y3.1224 
G01 X2.4577 Y3.1650 
G01 X2.6223 Y3.1650 
G01 X2.7812 Y3.1224 
G01 X2.9238 Y3.0401 
G01 X3.0401 Y2.9238 
G01 X3.1224 Y2.7812 
G01 X3.1650 Y2.6223 
G01 X3.1650 Y2.4577 
G01 X3.1224 Y2.2988 
G01 X3.0401 Y2.1562 
G01 X2.9238 Y2.0399 
G01 X2.7812 Y1.9576 
G01 X2.6223 Y1.9150 
G01 X2.4577 Y1.9150 
G01 X2.2988 Y1.9576 
G01 X2.1562 Y2.0399 
G01 X2.0399 Y2.1562 
G01 X1.9576 Y2.2988 
G01 X1.9150 Y2.4577 
G00 Z1.0000 
G00 X-4.4188 Y28.0006 
G01 Z-2.7000 F200.00 
G01 X-3.7062 Y28.4120 
G01 X-2.9114 Y28.6250 
G01 X-2.0886 Y28.6250 
G01 X-1.2938 Y28.4120 
G01 X-0.5812 Y28.0006 
G01 X0.0006 Y27.4188 
G01 X0.2909 Y26.9161 
G01 X0.3106 Y26.8751 
G01 X0.3589 Y26.7982 
G01 X0.4043 Y26.7196 
G01 X0.4313 Y26.6830 
G01 X0.4555 Y26.6445 
G01 X0.5121 Y26.5735 
G01 X0.5661 Y26.5004 
G01 X0.5970 Y26.4671 
G01 X0.6253 Y26.4316 
G01 X0.6895 Y26.3673 
G01 X0.7513 Y26.3007 
G01 X0.7858 Y26.2711 
G01 X0.8179 Y26.2390 
G01 X0.8889 Y26.1823 
G01 X0.9578 Y26.1231 
G01 X0.9953 Y26.0975 
G01 X1.0309 Y26.0691 
G01 X1.1078 Y26.0208 
G01 X1.1828 Y25.9697 
G01 X1.2230 Y25.9484 
G01 X1.2615 Y25.9242 
G01 X1.3433 Y25.8848 
G01 X1.4236 Y25.8424 
G01 X1.4659 Y25.8258 
G01 X1.5069 Y25.8061 
G01 X1.5926 Y25.7761 
G01 X1.6772 Y25.7429 
G01 X1.7210 Y25.7311 
G01 X1.7640 Y25.7161 
G01 X1.8525 Y25.6959 
G01 X1.9403 Y25.6724 
G01 X1.9852 Y25.6656 
G01 X2.0295 Y25.6555 
G01 X2.1197 Y25.6453 
G01 X2.2096 Y25.6318 
G01 X2.2550 Y25.6301 
G01 X2.3002 Y25.6250 
G01 X2.3910 Y25.6250 
G01 X2.4818 Y25.6216 
G01 X2.5271 Y25.6250 
G01 X4.5249 Y25.6250 
G01 X4.5708 Y25.6060 
G01 X4.6060 Y25.5708 
G01 X4.6250 Y25.5249 
G01 X4.6250 Y25.4751 
G01 X4.6060 Y25.4292 
G01 X4.5708 Y25.3940 
G01 X4.5249 Y25.3750 
G01 X2.5271 Y25.3750 
G01 X2.4818 Y25.3784 
G01 X2.3910 Y25.3750 
G01 X2.3002 Y25.3750 
G01 X2.2550 Y25.3699 
G01 X2.2096 Y25.3682 
G01 X2.1197 Y25.3547 
G01 X2.0295 Y25.3445 
G01 X1.9852 Y25.3344 
G01 X1.9403 Y25.3276 
G01 X1.8525 Y25.3041 
G01 X1.7640 Y25.2839 
G01 X1.7210 Y25.2689 
G01 X1.6772 Y25.2571 
G01 X1.5926 Y25.2239 
G01 X1.5069 Y25.1939 
G01 X1.4659 Y25.1742 
G01 X1.4236 Y25.1576 
G01 X1.3433 Y25.1152 
G01 X1.2615 Y25.0758 
G01 X1.2230 Y25.0516 
G01 X1.1828 Y25.0303 
G01 X1.1078 Y24.9792 
G01 X1.0309 Y24.9308 
G01 X0.9953 Y24.9025 
G01 X0.9578 Y24.8769 
G01 X0.8889 Y24.8177 
G01 X0.8179 Y24.7610 
G01 X0.7858 Y24.7289 
G01 X0.7513 Y24.6992 
G01 X0.6895 Y24.6327 
G01 X0.6253 Y24.5684 
G01 X0.5970 Y24.5329 
G01 X0.5661 Y24.4996 
G01 X0.5121 Y24.4265 
G01 X0.4555 Y24.3555 
G01 X0.4313 Y24.3170 
G01 X0.4043 Y24.2804 
G01 X0.3589 Y24.2018 
G01 X0.3106 Y24.1249 
G01 X0.2909 Y24.0839 
G01 X0.0006 Y23.5812 
G01 X-0.5812 Y22.9994 
G01 X-1.2938 Y22.5880 
G01 X-2.0886 Y22.3750 
G01 X-2.9114 Y22.3750 
G01 X-3.7062 Y22.5880 
G01 X-4.4188 Y22.9994 
G01 X-5.0006 Y23.5812 
G01 X-5.4120 Y24.2938 
G01 X-5.4663 Y24.4965 
G01 X-5.4663 Y24.4965 
G01 X-5.4930 Y24.5960 
G01 X-5.5368 Y24.7596 
G01 X-5.6363 Y25.0131 
G01 X-5.6364 Y25.0131 
G01 X-5.7165 Y25.1648 
G01 X-5.7636 Y25.2539 
G01 X-5.7636 Y25.2539 
G01 X-5.7636 Y25.2539 
G01 X-5.8526 Y25.3845 
G01 X-5.9170 Y25.4790 
G01 X-5.9171 Y25.4790 
G01 X-5.9171 Y25.4790 
G01 X-5.9352 Y25.5000 
G01 X-5.9171 Y25.5210 
G01 X-5.9171 Y25.5210 
G01 X-5.9170 Y25.5210 
G01 X-5.8587 Y25.6067 
G01 X-5.7636 Y25.7461 
G01 X-5.7636 Y25.7461 
G01 X-5.7636 Y25.7461 
G01 X-5.7197 Y25.8291 
G01 X-5.6364 Y25.9869 
G01 X-5.6363 Y25.9869 
G01 X-5.5368 Y26.2404 
G01 X-5.4945 Y26.3984 
G01 X-5.4663 Y26.5035 
G01 X-5.4663 Y26.5035 
G01 X-5.4120 Y26.7062 
G01 X-5.0006 Y27.4188 
G01 X-4.4188 Y28.0006 
G00 Z1.0000 
G00 X-10.1162 Y24.9999 
G01 Z-2.7000 F200.00 
G01 X-10.2588 Y24.9176 
G01 X-10.4177 Y24.8750 
G01 X-10.5823 Y24.8750 
G01 X-10.7412 Y24.9176 
G01 X-10.8838 Y24.9999 
G01 X-11.0001 Y25.1162 
G01 X-11.0824 Y25.2588 
G01 X-11.1250 Y25.4177 
G01 X-11.1250 Y25.5823 
G01 X-11.0824 Y25.7412 
G01 X-11.0001 Y25.8838 
G01 X-10.8838 Y26.0001 
G01 X-10.7412 Y26.0824 
G01 X-10.5823 Y26.1250 
G01 X-10.4177 Y26.1250 
G01 X-10.2588 Y26.0824 
G01 X-10.1162 Y26.0001 
G01 X-9.9999 Y25.8838 
G01 X-9.8985 Y25.7081 
G01 X-9.8760 Y25.6692 
G01 X-9.8760 Y25.6692 
G01 X-9.8760 Y25.6692 
G01 X-9.8130 Y25.5839 
G01 X-9.7511 Y25.5000 
G01 X-9.8105 Y25.4196 
G01 X-9.8760 Y25.3308 
G01 X-9.8760 Y25.3308 
G01 X-9.8760 Y25.3308 
G01 X-9.8939 Y25.2998 
G01 X-9.9999 Y25.1162 
G01 X-10.1162 Y24.9999 
G00 Z1.0000 
G00 X46.6162 Y44.9999 
G01 Z-2.7000 F200.00 
G01 X46.4999 Y45.1162 
G01 X46.4176 Y45.2588 
G01 X46.3750 Y45.4177 
G01 X46.3750 Y45.5823 
G01 X46.4176 Y45.7412 
G01 X46.4999 Y45.8838 
G01 X46.6162 Y46.0001 
G01 X46.7588 Y46.0824 
G01 X46.9177 Y46.1250 
G01 X47.0823 Y46.1250 
G01 X47.2412 Y46.0824 
G01 X47.3838 Y46.0001 
G01 X47.5001 Y45.8838 
G01 X47.5824 Y45.7412 
G01 X47.6250 Y45.5823 
G01 X47.6250 Y45.4177 
G01 X47.5824 Y45.2588 
G01 X47.5001 Y45.1162 
G01 X47.3838 Y44.9999 
G01 X47.2412 Y44.9176 
G01 X47.0823 Y44.8750 
G01 X46.9177 Y44.8750 
G01 X46.7588 Y44.9176 
G01 X46.6162 Y44.9999 
G00 Z1.0000 
G00 X38.1162 Y44.9999 
G01 Z-2.7000 F200.00 
G01 X37.9999 Y45.1162 
G01 X37.9176 Y45.2588 
G01 X37.8750 Y45.4177 
G01 X37.8750 Y45.5823 
G01 X37.9176 Y45.7412 
G01 X37.9999 Y45.8838 
G01 X38.1162 Y46.0001 
G01 X38.2588 Y46.0824 
G01 X38.4177 Y46.1250 
G01 X38.5823 Y46.1250 
G01 X38.7412 Y46.0824 
G01 X38.8838 Y46.0001 
G01 X39.0001 Y45.8838 
G01 X39.0824 Y45.7412 
G01 X39.1250 Y45.5823 
G01 X39.1250 Y45.4177 
G01 X39.0824 Y45.2588 
G01 X39.0001 Y45.1162 
G01 X38.8838 Y44.9999 
G01 X38.7412 Y44.9176 
G01 X38.5823 Y44.8750 
G01 X38.4177 Y44.8750 
G01 X38.2588 Y44.9176 
G01 X38.1162 Y44.9999 
G00 Z1.0000 
G00 X55.4177 Y44.8750 
G01 Z-2.7000 F200.00 
G01 X55.2588 Y44.9176 
G01 X55.1162 Y44.9999 
G01 X54.9999 Y45.1162 
G01 X54.9176 Y45.2588 
G01 X54.8750 Y45.4177 
G01 X54.8750 Y45.5823 
G01 X54.9176 Y45.7412 
G01 X54.9999 Y45.8838 
G01 X55.1162 Y46.0001 
G01 X55.2588 Y46.0824 
G01 X55.4177 Y46.1250 
G01 X55.5823 Y46.1250 
G01 X55.7412 Y46.0824 
G01 X55.8838 Y46.0001 
G01 X56.0001 Y45.8838 
G01 X56.0824 Y45.7412 
G01 X56.1250 Y45.5823 
G01 X56.1250 Y45.4177 
G01 X56.0824 Y45.2588 
G01 X56.0001 Y45.1162 
G01 X55.8838 Y44.9999 
G01 X55.7412 Y44.9176 
G01 X55.5823 Y44.8750 
G01 X55.4177 Y44.8750 
G00 Z1.0000 
G00 X93.4527 Y35.2700 
G01 Z-2.7000 F200.00 
G01 X93.2938 Y35.3126 
G01 X93.1512 Y35.3949 
G01 X93.0349 Y35.5112 
G01 X92.9526 Y35.6538 
G01 X92.9100 Y35.8127 
G01 X92.9100 Y35.9773 
G01 X92.9526 Y36.1362 
G01 X93.0349 Y36.2788 
G01 X93.1512 Y36.3951 
G01 X93.2938 Y36.4774 
G01 X93.4527 Y36.5200 
G01 X93.6173 Y36.5200 
G01 X93.7762 Y36.4774 
G01 X93.9188 Y36.3951 
G01 X94.0351 Y36.2788 
G01 X94.1174 Y36.1362 
G01 X94.1600 Y35.9773 
G01 X94.1600 Y35.8127 
G01 X94.1174 Y35.6538 
G01 X94.0351 Y35.5112 
G01 X93.9188 Y35.3949 
G01 X93.7762 Y35.3126 
G01 X93.6173 Y35.2700 
G01 X93.4527 Y35.2700 
G00 Z1.0000 
G00 X97.9858 Y43.0212 
G01 Z-2.7000 F200.00 
G01 X97.9950 Y43.0250 
G01 X98.0050 Y43.0250 
G01 X98.0142 Y43.0212 
G01 X98.0212 Y43.0142 
G01 X98.0250 Y43.0050 
G01 X98.0250 Y42.9950 
G01 X98.0212 Y42.9858 
G01 X98.0142 Y42.9788 
G01 X98.0050 Y42.9750 
G01 X97.9950 Y42.9750 
G01 X97.9858 Y42.9788 
G01 X97.9788 Y42.9858 
G01 X97.9750 Y42.9950 
G01 X97.9750 Y43.0050 
G01 X97.9788 Y43.0142 
G01 X97.9858 Y43.0212 
G00 Z1.0000 
G00 X98.0212 Y8.0142 
G01 Z-2.7000 F200.00 
G01 X98.0250 Y8.0050 
G01 X98.0250 Y7.9950 
G01 X98.0212 Y7.9858 
G01 X98.0142 Y7.9788 
G01 X98.0050 Y7.9750 
G01 X97.9950 Y7.9750 
G01 X97.9858 Y7.9788 
G01 X97.9788 Y7.9858 
G01 X97.9750 Y7.9950 
G01 X97.9750 Y8.0050 
G01 X97.9788 Y8.0142 
G01 X97.9858 Y8.0212 
G01 X97.9950 Y8.0250 
G01 X98.0050 Y8.0250 
G01 X98.0142 Y8.0212 
G01 X98.0212 Y8.0142 
G00 Z1.0000 
G00 X74.4750 Y55.0050 
G01 Z-2.7000 F200.00 
G01 X74.4788 Y55.0142 
G01 X74.4858 Y55.0212 
G01 X74.4950 Y55.0250 
G01 X74.5050 Y55.0250 
G01 X74.5142 Y55.0212 
G01 X74.5212 Y55.0142 
G01 X74.5250 Y55.0050 
G01 X74.5250 Y54.9950 
G01 X74.5212 Y54.9858 
G01 X74.5142 Y54.9788 
G01 X74.5050 Y54.9750 
G01 X74.4950 Y54.9750 
G01 X74.4858 Y54.9788 
G01 X74.4788 Y54.9858 
G01 X74.4750 Y54.9950 
G01 X74.4750 Y55.0050 
G00 Z1.0000 
G00 X17.4750 Y55.0050 
G01 Z-2.7000 F200.00 
G01 X17.4788 Y55.0142 
G01 X17.4858 Y55.0212 
G01 X17.4950 Y55.0250 
G01 X17.5050 Y55.0250 
G01 X17.5142 Y55.0212 
G01 X17.5212 Y55.0142 
G01 X17.5250 Y55.0050 
G01 X17.5250 Y54.9950 
G01 X17.5212 Y54.9858 
G01 X17.5142 Y54.9788 
G01 X17.5050 Y54.9750 
G01 X17.4950 Y54.9750 
G01 X17.4858 Y54.9788 
G01 X17.4788 Y54.9858 
G01 X17.4750 Y54.9950 
G01 X17.4750 Y55.0050 
G00 Z1.0000 
G00 X17.4950 Y-3.9750 
G01 Z-2.7000 F200.00 
G01 X17.5050 Y-3.9750 
G01 X17.5142 Y-3.9788 
G01 X17.5212 Y-3.9858 
G01 X17.5250 Y-3.9950 
G01 X17.5250 Y-4.0050 
G01 X17.5212 Y-4.0142 
G01 X17.5142 Y-4.0212 
G01 X17.5050 Y-4.0250 
G01 X17.4950 Y-4.0250 
G01 X17.4858 Y-4.0212 
G01 X17.4788 Y-4.0142 
G01 X17.4750 Y-4.0050 
G01 X17.4750 Y-3.9950 
G01 X17.4788 Y-3.9858 
G01 X17.4858 Y-3.9788 
G01 X17.4950 Y-3.9750 
G00 Z1.0000 
G00 X74.4950 Y-3.9750 
G01 Z-2.7000 F200.00 
G01 X74.5050 Y-3.9750 
G01 X74.5142 Y-3.9788 
G01 X74.5212 Y-3.9858 
G01 X74.5250 Y-3.9950 
G01 X74.5250 Y-4.0050 
G01 X74.5212 Y-4.0142 
G01 X74.5142 Y-4.0212 
G01 X74.5050 Y-4.0250 
G01 X74.4950 Y-4.0250 
G01 X74.4858 Y-4.0212 
G01 X74.4788 Y-4.0142 
G01 X74.4750 Y-4.0050 
G01 X74.4750 Y-3.9950 
G01 X74.4788 Y-3.9858 
G01 X74.4858 Y-3.9788 
G01 X74.4950 Y-3.9750 
G00 Z1.0000 
G00 X93.4177 Y14.8750 
G01 Z-2.7000 F200.00 
G01 X93.2588 Y14.9176 
G01 X93.1162 Y14.9999 
G01 X92.9999 Y15.1162 
G01 X92.9176 Y15.2588 
G01 X92.8750 Y15.4177 
G01 X92.8750 Y15.5823 
G01 X92.9176 Y15.7412 
G01 X92.9999 Y15.8838 
G01 X93.1162 Y16.0001 
G01 X93.2588 Y16.0824 
G01 X93.4177 Y16.1250 
G01 X93.5823 Y16.1250 
G01 X93.7412 Y16.0824 
G01 X93.8838 Y16.0001 
G01 X94.0001 Y15.8838 
G01 X94.0824 Y15.7412 
G01 X94.1250 Y15.5823 
G01 X94.1250 Y15.4177 
G01 X94.0824 Y15.2588 
G01 X94.0001 Y15.1162 
G01 X93.8838 Y14.9999 
G01 X93.7412 Y14.9176 
G01 X93.5823 Y14.8750 
G01 X93.4177 Y14.8750 
G00 Z1.0000 
G00 X-18.7890 Y33.8333 
G01 Z-2.7000 F200.00 
G01 X-18.7990 Y33.7745 
G01 X-18.8128 Y33.7165 
G01 X-18.8219 Y33.6404 
G01 X-19.4641 Y29.8793 
G01 X-19.4807 Y29.8045 
G01 X-19.4870 Y29.7452 
G01 X-19.4970 Y29.6864 
G01 X-19.5014 Y29.6099 
G01 X-19.9098 Y25.7715 
G01 X-19.9241 Y25.6512 
G01 X-19.9242 Y25.6362 
G01 X-19.9258 Y25.6212 
G01 X-19.9250 Y25.5000 
G01 X-19.9258 Y25.3788 
G01 X-19.9242 Y25.3638 
G01 X-19.9241 Y25.3488 
G01 X-19.9098 Y25.2285 
G01 X-19.5014 Y21.3901 
G01 X-19.4970 Y21.3136 
G01 X-19.4870 Y21.2548 
G01 X-19.4807 Y21.1955 
G01 X-19.4641 Y21.1207 
G01 X-18.8219 Y17.3596 
G01 X-18.8128 Y17.2835 
G01 X-18.7990 Y17.2255 
G01 X-18.7890 Y17.1667 
G01 X-18.7677 Y17.0931 
G01 X-17.8898 Y13.3800 
G01 X-17.8758 Y13.3046 
G01 X-17.8584 Y13.2475 
G01 X-17.8447 Y13.1895 
G01 X-17.8188 Y13.1174 
G01 X-16.7085 Y9.4670 
G01 X-16.6898 Y9.3927 
G01 X-16.6689 Y9.3368 
G01 X-16.6515 Y9.2797 
G01 X-16.6212 Y9.2094 
G01 X-15.2829 Y5.6363 
G01 X-15.2596 Y5.5633 
G01 X-15.2352 Y5.5089 
G01 X-15.2142 Y5.4530 
G01 X-15.1795 Y5.3846 
G01 X-13.6186 Y1.9031 
G01 X-13.5907 Y1.8317 
G01 X-13.5629 Y1.7789 
G01 X-13.5385 Y1.7245 
G01 X-13.4995 Y1.6585 
G01 X-11.7222 Y-1.7177 
G01 X-11.6899 Y-1.7872 
G01 X-11.6588 Y-1.8381 
G01 X-11.6311 Y-1.8909 
G01 X-11.5880 Y-1.9543 
G01 X-9.6328 Y-5.1602 
G01 X-9.6258 Y-5.1749 
G01 X-9.5619 Y-5.2766 
G01 X-9.4994 Y-5.3789 
G01 X-9.4895 Y-5.3917 
G01 X-9.4809 Y-5.4055 
G01 X-9.4060 Y-5.4994 
G01 X-9.3325 Y-5.5941 
G01 X-9.3212 Y-5.6057 
G01 X-9.3110 Y-5.6184 
G01 X-9.2262 Y-5.7032 
G01 X-9.1425 Y-5.7893 
G01 X-9.1299 Y-5.7996 
G01 X-9.1184 Y-5.8110 
G01 X-9.0246 Y-5.8859 
G01 X-8.9318 Y-5.9619 
G01 X-8.9182 Y-5.9707 
G01 X-8.9055 Y-5.9809 
G01 X-8.8038 Y-6.0447 
G01 X-8.7031 Y-6.1099 
G01 X-8.6886 Y-6.1171 
G01 X-8.6749 Y-6.1258 
G01 X-8.5667 Y-6.1778 
G01 X-8.4594 Y-6.2313 
G01 X-8.4441 Y-6.2369 
G01 X-8.4295 Y-6.2439 
G01 X-8.3162 Y-6.2836 
G01 X-8.2035 Y-6.3247 
G01 X-8.1877 Y-6.3285 
G01 X-8.1724 Y-6.3339 
G01 X-8.0555 Y-6.3606 
G01 X-7.9388 Y-6.3889 
G01 X-7.9226 Y-6.3909 
G01 X-7.9068 Y-6.3945 
G01 X-7.7877 Y-6.4079 
G01 X-7.6686 Y-6.4230 
G01 X-7.6523 Y-6.4232 
G01 X-7.6362 Y-6.4250 
G01 X-7.5162 Y-6.4250 
G01 X-7.3962 Y-6.4266 
G01 X-7.3800 Y-6.4250 
G01 X1.4955 Y-6.4250 
G01 X6.3816 Y-11.3110 
G01 X6.5945 Y-11.4809 
G01 X6.8251 Y-11.6258 
G01 X7.0705 Y-11.7439 
G01 X7.3276 Y-11.8339 
G01 X7.5932 Y-11.8945 
G01 X7.8638 Y-11.9250 
G01 X27.6362 Y-11.9250 
G01 X27.9068 Y-11.8945 
G01 X28.1724 Y-11.8339 
G01 X28.4295 Y-11.7439 
G01 X28.6749 Y-11.6258 
G01 X28.9055 Y-11.4809 
G01 X29.1184 Y-11.3110 
G01 X29.3110 Y-11.1184 
G01 X34.0045 Y-6.4250 
G01 X57.9955 Y-6.4250 
G01 X62.8816 Y-11.3110 
G01 X63.0945 Y-11.4809 
G01 X63.3251 Y-11.6258 
G01 X63.5705 Y-11.7439 
G01 X63.8276 Y-11.8339 
G01 X64.0932 Y-11.8945 
G01 X64.3638 Y-11.9250 
G01 X84.1362 Y-11.9250 
G01 X84.4068 Y-11.8945 
G01 X84.6724 Y-11.8339 
G01 X84.9295 Y-11.7439 
G01 X85.1749 Y-11.6258 
G01 X85.4055 Y-11.4809 
G01 X85.6184 Y-11.3110 
G01 X85.8110 Y-11.1184 
G01 X90.5045 Y-6.4250 
G01 X99.6362 Y-6.4250 
G01 X99.9068 Y-6.3945 
G01 X100.1724 Y-6.3339 
G01 X100.4295 Y-6.2439 
G01 X100.6749 Y-6.1258 
G01 X100.9055 Y-5.9809 
G01 X101.1184 Y-5.8110 
G01 X101.3110 Y-5.6184 
G01 X104.3110 Y-2.6184 
G01 X104.4809 Y-2.4055 
G01 X104.6258 Y-2.1749 
G01 X104.7439 Y-1.9295 
G01 X104.8339 Y-1.6724 
G01 X104.8945 Y-1.4068 
G01 X104.9250 Y-1.1362 
G01 X104.9250 Y17.1362 
G01 X104.8945 Y17.4068 
G01 X104.8339 Y17.6724 
G01 X104.7439 Y17.9295 
G01 X104.6258 Y18.1749 
G01 X104.4809 Y18.4055 
G01 X104.3110 Y18.6184 
G01 X104.1184 Y18.8110 
G01 X101.9250 Y21.0045 
G01 X101.9250 Y29.9955 
G01 X104.3110 Y32.3816 
G01 X104.4809 Y32.5945 
G01 X104.6258 Y32.8251 
G01 X104.7439 Y33.0705 
G01 X104.8339 Y33.3276 
G01 X104.8945 Y33.5932 
G01 X104.9250 Y33.8638 
G01 X104.9250 Y52.1362 
G01 X104.8945 Y52.4068 
G01 X104.8339 Y52.6724 
G01 X104.7439 Y52.9295 
G01 X104.6258 Y53.1749 
G01 X104.4809 Y53.4055 
G01 X104.3110 Y53.6184 
G01 X104.1184 Y53.8110 
G01 X101.1184 Y56.8110 
G01 X100.9055 Y56.9809 
G01 X100.6749 Y57.1258 
G01 X100.4295 Y57.2439 
G01 X100.1724 Y57.3339 
G01 X99.9068 Y57.3945 
G01 X99.6362 Y57.4250 
G01 X90.5045 Y57.4250 
G01 X85.6184 Y62.3110 
G01 X85.4055 Y62.4809 
G01 X85.1749 Y62.6258 
G01 X84.9295 Y62.7439 
G01 X84.6724 Y62.8339 
G01 X84.4068 Y62.8945 
G01 X84.1362 Y62.9250 
G01 X64.8638 Y62.9250 
G01 X64.5932 Y62.8945 
G01 X64.3276 Y62.8339 
G01 X64.0705 Y62.7439 
G01 X63.8251 Y62.6258 
G01 X63.5945 Y62.4809 
G01 X63.3816 Y62.3110 
G01 X63.1890 Y62.1184 
G01 X58.4955 Y57.4250 
G01 X34.0045 Y57.4250 
G01 X29.1184 Y62.3110 
G01 X28.9055 Y62.4809 
G01 X28.6749 Y62.6258 
G01 X28.4295 Y62.7439 
G01 X28.1724 Y62.8339 
G01 X27.9068 Y62.8945 
G01 X27.6362 Y62.9250 
G01 X7.8638 Y62.9250 
G01 X7.5932 Y62.8945 
G01 X7.3276 Y62.8339 
G01 X7.0705 Y62.7439 
G01 X6.8251 Y62.6258 
G01 X6.5945 Y62.4809 
G01 X6.3816 Y62.3110 
G01 X6.1890 Y62.1184 
G01 X6.1890 Y62.1184 
G01 X1.4955 Y57.4250 
G01 X-7.3800 Y57.4250 
G01 X-7.3962 Y57.4266 
G01 X-7.5162 Y57.4250 
G01 X-7.6362 Y57.4250 
G01 X-7.6523 Y57.4232 
G01 X-7.6686 Y57.4230 
G01 X-7.7877 Y57.4079 
G01 X-7.9068 Y57.3945 
G01 X-7.9226 Y57.3909 
G01 X-7.9388 Y57.3889 
G01 X-8.0555 Y57.3606 
G01 X-8.1724 Y57.3339 
G01 X-8.1877 Y57.3285 
G01 X-8.2035 Y57.3247 
G01 X-8.3162 Y57.2836 
G01 X-8.4295 Y57.2439 
G01 X-8.4441 Y57.2369 
G01 X-8.4594 Y57.2313 
G01 X-8.5667 Y57.1778 
G01 X-8.6749 Y57.1258 
G01 X-8.6886 Y57.1171 
G01 X-8.7031 Y57.1099 
G01 X-8.8038 Y57.0447 
G01 X-8.9055 Y56.9809 
G01 X-8.9182 Y56.9707 
G01 X-8.9318 Y56.9619 
G01 X-9.0246 Y56.8859 
G01 X-9.1184 Y56.8110 
G01 X-9.1299 Y56.7996 
G01 X-9.1425 Y56.7893 
G01 X-9.2262 Y56.7032 
G01 X-9.3110 Y56.6184 
G01 X-9.3212 Y56.6057 
G01 X-9.3325 Y56.5941 
G01 X-9.4060 Y56.4994 
G01 X-9.4809 Y56.4055 
G01 X-9.4895 Y56.3917 
G01 X-9.4994 Y56.3789 
G01 X-9.5618 Y56.2766 
G01 X-9.6258 Y56.1749 
G01 X-9.6328 Y56.1602 
G01 X-11.5880 Y52.9543 
G01 X-11.6311 Y52.8909 
G01 X-11.6588 Y52.8381 
G01 X-11.6899 Y52.7872 
G01 X-11.7222 Y52.7177 
G01 X-13.4995 Y49.3415 
G01 X-13.5385 Y49.2755 
G01 X-13.5629 Y49.2211 
G01 X-13.5907 Y49.1683 
G01 X-13.6186 Y49.0969 
G01 X-15.1795 Y45.6154 
G01 X-15.2142 Y45.5470 
G01 X-15.2352 Y45.4911 
G01 X-15.2596 Y45.4367 
G01 X-15.2829 Y45.3637 
G01 X-16.6212 Y41.7906 
G01 X-16.6515 Y41.7203 
G01 X-16.6689 Y41.6632 
G01 X-16.6898 Y41.6073 
G01 X-16.7085 Y41.5330 
G01 X-17.8188 Y37.8827 
G01 X-17.8447 Y37.8105 
G01 X-17.8584 Y37.7525 
G01 X-17.8758 Y37.6954 
G01 X-17.8897 Y37.6200 
G01 X-18.7677 Y33.9069 
G01 X-18.7890 Y33.8333 

G00 Z1.0000 

(---------------------------------------)

G00 X-8.0423 Y9.9150 
G01 Z-4.5000 F200.00 
G01 X-8.2012 Y9.9576 
G01 X-8.3438 Y10.0399 
G01 X-8.4601 Y10.1562 
G01 X-8.5424 Y10.2988 
G01 X-8.5850 Y10.4577 
G01 X-8.5850 Y10.6223 
G01 X-8.5424 Y10.7812 
G01 X-8.4601 Y10.9238 
G01 X-8.3438 Y11.0401 
G01 X-8.2012 Y11.1224 
G01 X-8.0423 Y11.1650 
G01 X-7.8777 Y11.1650 
G01 X-7.7188 Y11.1224 
G01 X-7.5762 Y11.0401 
G01 X-7.4599 Y10.9238 
G01 X-7.3776 Y10.7812 
G01 X-7.3350 Y10.6223 
G01 X-7.3350 Y10.4577 
G01 X-7.3776 Y10.2988 
G01 X-7.4599 Y10.1562 
G01 X-7.5762 Y10.0399 
G01 X-7.7188 Y9.9576 
G01 X-7.8777 Y9.9150 
G01 X-8.0423 Y9.9150 
G00 Z1.0000 
G00 X-8.3438 Y40.0399 
G01 Z-4.5000 F200.00 
G01 X-8.4601 Y40.1562 
G01 X-8.5424 Y40.2988 
G01 X-8.5850 Y40.4577 
G01 X-8.5850 Y40.6223 
G01 X-8.5424 Y40.7812 
G01 X-8.4601 Y40.9238 
G01 X-8.3438 Y41.0401 
G01 X-8.2012 Y41.1224 
G01 X-8.0423 Y41.1650 
G01 X-7.8777 Y41.1650 
G01 X-7.7188 Y41.1224 
G01 X-7.5762 Y41.0401 
G01 X-7.4599 Y40.9238 
G01 X-7.3776 Y40.7812 
G01 X-7.3350 Y40.6223 
G01 X-7.3350 Y40.4577 
G01 X-7.3776 Y40.2988 
G01 X-7.4599 Y40.1562 
G01 X-7.5762 Y40.0399 
G01 X-7.7188 Y39.9576 
G01 X-7.8777 Y39.9150 
G01 X-8.0423 Y39.9150 
G01 X-8.2012 Y39.9576 
G01 X-8.3438 Y40.0399 
G00 Z1.0000 
G00 X22.0050 Y37.0250 
G01 Z-4.5000 F200.00 
G01 X22.0142 Y37.0212 
G01 X22.0212 Y37.0142 
G01 X22.0250 Y37.0050 
G01 X22.0250 Y35.4950 
G01 X22.0212 Y35.4858 
G01 X22.0142 Y35.4788 
G01 X22.0050 Y35.4750 
G01 X11.9950 Y35.4750 
G01 X11.9858 Y35.4788 
G01 X11.9788 Y35.4858 
G01 X11.9750 Y35.4950 
G01 X11.9750 Y37.0050 
G01 X11.9788 Y37.0142 
G01 X11.9858 Y37.0212 
G01 X11.9950 Y37.0250 
G01 X21.6488 Y37.0250 
G01 X22.0050 Y37.0250 
G00 Z1.0000 
G00 X17.1162 Y24.9999 
G01 Z-4.5000 F200.00 
G01 X16.9999 Y25.1162 
G01 X16.9176 Y25.2588 
G01 X16.8750 Y25.4177 
G01 X16.8750 Y25.5823 
G01 X16.9176 Y25.7412 
G01 X16.9999 Y25.8838 
G01 X17.1162 Y26.0001 
G01 X17.2588 Y26.0824 
G01 X17.4177 Y26.1250 
G01 X17.5823 Y26.1250 
G01 X17.7412 Y26.0824 
G01 X17.8838 Y26.0001 
G01 X18.0001 Y25.8838 
G01 X18.0824 Y25.7412 
G01 X18.1250 Y25.5823 
G01 X18.1250 Y25.4177 
G01 X18.0824 Y25.2588 
G01 X18.0001 Y25.1162 
G01 X17.8838 Y24.9999 
G01 X17.7412 Y24.9176 
G01 X17.5823 Y24.8750 
G01 X17.4177 Y24.8750 
G01 X17.2588 Y24.9176 
G01 X17.1162 Y24.9999 
G00 Z1.0000 
G00 X22.0050 Y15.5250 
G01 Z-4.5000 F200.00 
G01 X22.0142 Y15.5212 
G01 X22.0212 Y15.5142 
G01 X22.0250 Y15.5050 
G01 X22.0250 Y13.9950 
G01 X22.0212 Y13.9858 
G01 X22.0142 Y13.9788 
G01 X22.0050 Y13.9750 
G01 X11.9950 Y13.9750 
G01 X11.9858 Y13.9788 
G01 X11.9788 Y13.9858 
G01 X11.9750 Y13.9950 
G01 X11.9750 Y15.5050 
G01 X11.9788 Y15.5142 
G01 X11.9858 Y15.5212 
G01 X11.9950 Y15.5250 
G01 X21.6488 Y15.5250 
G01 X22.0050 Y15.5250 
G00 Z1.0000 
G00 X59.2177 Y14.3750 
G01 Z-4.5000 F200.00 
G01 X59.0588 Y14.4176 
G01 X58.9162 Y14.4999 
G01 X58.7999 Y14.6162 
G01 X58.7176 Y14.7588 
G01 X58.6750 Y14.9177 
G01 X58.6750 Y15.0823 
G01 X58.7176 Y15.2412 
G01 X58.7999 Y15.3838 
G01 X58.9162 Y15.5001 
G01 X59.0588 Y15.5824 
G01 X59.2177 Y15.6250 
G01 X59.3823 Y15.6250 
G01 X59.5412 Y15.5824 
G01 X59.6838 Y15.5001 
G01 X59.8001 Y15.3838 
G01 X59.8824 Y15.2412 
G01 X59.9250 Y15.0823 
G01 X59.9250 Y14.9177 
G01 X59.8824 Y14.7588 
G01 X59.8001 Y14.6162 
G01 X59.6838 Y14.4999 
G01 X59.5412 Y14.4176 
G01 X59.3823 Y14.3750 
G01 X59.2177 Y14.3750 
G00 Z1.0000 
G00 X59.2177 Y35.1750 
G01 Z-4.5000 F200.00 
G01 X59.0588 Y35.2176 
G01 X58.9162 Y35.2999 
G01 X58.7999 Y35.4162 
G01 X58.7176 Y35.5588 
G01 X58.6750 Y35.7177 
G01 X58.6750 Y35.8823 
G01 X58.7176 Y36.0412 
G01 X58.7999 Y36.1838 
G01 X58.9162 Y36.3001 
G01 X59.0588 Y36.3824 
G01 X59.2177 Y36.4250 
G01 X59.3823 Y36.4250 
G01 X59.5412 Y36.3824 
G01 X59.6838 Y36.3001 
G01 X59.8001 Y36.1838 
G01 X59.8824 Y36.0412 
G01 X59.9250 Y35.8823 
G01 X59.9250 Y35.7177 
G01 X59.8824 Y35.5588 
G01 X59.8001 Y35.4162 
G01 X59.6838 Y35.2999 
G01 X59.5412 Y35.2176 
G01 X59.3823 Y35.1750 
G01 X59.2177 Y35.1750 
G00 Z1.0000 
G00 X79.0050 Y15.5250 
G01 Z-4.5000 F200.00 
G01 X79.0142 Y15.5212 
G01 X79.0212 Y15.5142 
G01 X79.0250 Y15.5050 
G01 X79.0250 Y13.9950 
G01 X79.0212 Y13.9858 
G01 X79.0142 Y13.9788 
G01 X79.0050 Y13.9750 
G01 X68.9950 Y13.9750 
G01 X68.9858 Y13.9788 
G01 X68.9788 Y13.9858 
G01 X68.9750 Y13.9950 
G01 X68.9750 Y15.5050 
G01 X68.9788 Y15.5142 
G01 X68.9858 Y15.5212 
G01 X68.9950 Y15.5250 
G01 X78.6488 Y15.5250 
G01 X79.0050 Y15.5250 
G00 Z1.0000 
G00 X55.1162 Y4.9999 
G01 Z-4.5000 F200.00 
G01 X54.9999 Y5.1162 
G01 X54.9176 Y5.2588 
G01 X54.8750 Y5.4177 
G01 X54.8750 Y5.5823 
G01 X54.9176 Y5.7412 
G01 X54.9999 Y5.8838 
G01 X55.1162 Y6.0001 
G01 X55.2588 Y6.0824 
G01 X55.4177 Y6.1250 
G01 X55.5823 Y6.1250 
G01 X55.7412 Y6.0824 
G01 X55.8838 Y6.0001 
G01 X56.0001 Y5.8838 
G01 X56.0824 Y5.7412 
G01 X56.1250 Y5.5823 
G01 X56.1250 Y5.4177 
G01 X56.0824 Y5.2588 
G01 X56.0001 Y5.1162 
G01 X55.8838 Y4.9999 
G01 X55.7412 Y4.9176 
G01 X55.5823 Y4.8750 
G01 X55.4177 Y4.8750 
G01 X55.2588 Y4.9176 
G01 X55.1162 Y4.9999 
G00 Z1.0000 
G00 X74.1162 Y24.9999 
G01 Z-4.5000 F200.00 
G01 X73.9999 Y25.1162 
G01 X73.9176 Y25.2588 
G01 X73.8750 Y25.4177 
G01 X73.8750 Y25.5823 
G01 X73.9176 Y25.7412 
G01 X73.9999 Y25.8838 
G01 X74.1162 Y26.0001 
G01 X74.2588 Y26.0824 
G01 X74.4177 Y26.1250 
G01 X74.5823 Y26.1250 
G01 X74.7412 Y26.0824 
G01 X74.8838 Y26.0001 
G01 X75.0001 Y25.8838 
G01 X75.0824 Y25.7412 
G01 X75.1250 Y25.5823 
G01 X75.1250 Y25.4177 
G01 X75.0824 Y25.2588 
G01 X75.0001 Y25.1162 
G01 X74.8838 Y24.9999 
G01 X74.7412 Y24.9176 
G01 X74.5823 Y24.8750 
G01 X74.4177 Y24.8750 
G01 X74.2588 Y24.9176 
G01 X74.1162 Y24.9999 
G00 Z1.0000 
G00 X68.9788 Y37.0142 
G01 Z-4.5000 F200.00 
G01 X68.9858 Y37.0212 
G01 X68.9950 Y37.0250 
G01 X79.0050 Y37.0250 
G01 X79.0142 Y37.0212 
G01 X79.0212 Y37.0142 
G01 X79.0250 Y37.0050 
G01 X79.0250 Y35.4950 
G01 X79.0212 Y35.4858 
G01 X79.0142 Y35.4788 
G01 X79.0050 Y35.4750 
G01 X68.9950 Y35.4750 
G01 X68.9858 Y35.4788 
G01 X68.9788 Y35.4858 
G01 X68.9750 Y35.4950 
G01 X68.9750 Y37.0050 
G01 X68.9788 Y37.0142 
G00 Z1.0000 
G00 X49.5006 Y27.4188 
G01 Z-4.5000 F200.00 
G01 X49.9120 Y26.7062 
G01 X50.1250 Y25.9114 
G01 X50.1250 Y25.0886 
G01 X49.9120 Y24.2938 
G01 X49.5006 Y23.5812 
G01 X48.9188 Y22.9994 
G01 X48.4161 Y22.7091 
G01 X48.3751 Y22.6894 
G01 X48.2982 Y22.6411 
G01 X48.2196 Y22.5957 
G01 X48.1830 Y22.5687 
G01 X48.1445 Y22.5445 
G01 X48.0735 Y22.4879 
G01 X48.0004 Y22.4339 
G01 X47.9671 Y22.4030 
G01 X47.9316 Y22.3747 
G01 X47.8673 Y22.3105 
G01 X47.8008 Y22.2487 
G01 X47.7711 Y22.2142 
G01 X47.7390 Y22.1821 
G01 X47.6823 Y22.1111 
G01 X47.6231 Y22.0422 
G01 X47.5975 Y22.0047 
G01 X47.5691 Y21.9691 
G01 X47.5208 Y21.8922 
G01 X47.4697 Y21.8172 
G01 X47.4484 Y21.7770 
G01 X47.4242 Y21.7385 
G01 X47.3848 Y21.6567 
G01 X47.3424 Y21.5764 
G01 X47.3258 Y21.5341 
G01 X47.3061 Y21.4931 
G01 X47.2761 Y21.4074 
G01 X47.2429 Y21.3228 
G01 X47.2311 Y21.2789 
G01 X47.2161 Y21.2360 
G01 X47.1959 Y21.1475 
G01 X47.1724 Y21.0598 
G01 X47.1656 Y21.0148 
G01 X47.1555 Y20.9705 
G01 X47.1453 Y20.8803 
G01 X47.1318 Y20.7904 
G01 X47.1301 Y20.7450 
G01 X47.1250 Y20.6998 
G01 X47.1250 Y20.6090 
G01 X47.1216 Y20.5182 
G01 X47.1250 Y20.4729 
G01 X47.1250 Y18.4751 
G01 X47.1060 Y18.4292 
G01 X47.0708 Y18.3940 
G01 X47.0249 Y18.3750 
G01 X46.9751 Y18.3750 
G01 X46.9292 Y18.3940 
G01 X46.8940 Y18.4292 
G01 X46.8750 Y18.4751 
G01 X46.8750 Y20.4729 
G01 X46.8784 Y20.5182 
G01 X46.8750 Y20.6090 
G01 X46.8750 Y20.6998 
G01 X46.8699 Y20.7450 
G01 X46.8682 Y20.7904 
G01 X46.8547 Y20.8803 
G01 X46.8445 Y20.9705 
G01 X46.8344 Y21.0148 
G01 X46.8276 Y21.0598 
G01 X46.8041 Y21.1475 
G01 X46.7839 Y21.2360 
G01 X46.7689 Y21.2789 
G01 X46.7571 Y21.3228 
G01 X46.7239 Y21.4074 
G01 X46.6939 Y21.4931 
G01 X46.6742 Y21.5341 
G01 X46.6576 Y21.5764 
G01 X46.6152 Y21.6567 
G01 X46.5758 Y21.7385 
G01 X46.5516 Y21.7770 
G01 X46.5303 Y21.8172 
G01 X46.4792 Y21.8922 
G01 X46.4308 Y21.9691 
G01 X46.4025 Y22.0047 
G01 X46.3769 Y22.0422 
G01 X46.3177 Y22.1111 
G01 X46.2610 Y22.1821 
G01 X46.2289 Y22.2142 
G01 X46.1992 Y22.2487 
G01 X46.1327 Y22.3105 
G01 X46.0684 Y22.3747 
G01 X46.0329 Y22.4030 
G01 X45.9996 Y22.4339 
G01 X45.9265 Y22.4879 
G01 X45.8555 Y22.5445 
G01 X45.8170 Y22.5687 
G01 X45.7804 Y22.5957 
G01 X45.7018 Y22.6411 
G01 X45.6249 Y22.6894 
G01 X45.5839 Y22.7091 
G01 X45.0812 Y22.9994 
G01 X44.4994 Y23.5812 
G01 X44.0880 Y24.2938 
G01 X43.8750 Y25.0886 
G01 X43.8750 Y25.9114 
G01 X44.0880 Y26.7062 
G01 X44.4994 Y27.4188 
G01 X45.0812 Y28.0006 
G01 X45.7938 Y28.4120 
G01 X45.9965 Y28.4663 
G01 X45.9965 Y28.4663 
G01 X46.0960 Y28.4930 
G01 X46.2596 Y28.5368 
G01 X46.5131 Y28.6363 
G01 X46.5131 Y28.6364 
G01 X46.6648 Y28.7165 
G01 X46.7539 Y28.7636 
G01 X46.7539 Y28.7636 
G01 X46.7539 Y28.7636 
G01 X46.8845 Y28.8526 
G01 X46.9790 Y28.9170 
G01 X46.9790 Y28.9171 
G01 X46.9790 Y28.9171 
G01 X47.0000 Y28.9352 
G01 X47.0210 Y28.9171 
G01 X47.0210 Y28.9171 
G01 X47.0210 Y28.9170 
G01 X47.1067 Y28.8587 
G01 X47.2461 Y28.7636 
G01 X47.2461 Y28.7636 
G01 X47.2461 Y28.7636 
G01 X47.3291 Y28.7197 
G01 X47.4869 Y28.6364 
G01 X47.4869 Y28.6363 
G01 X47.7404 Y28.5368 
G01 X47.8984 Y28.4945 
G01 X48.0035 Y28.4663 
G01 X48.0035 Y28.4663 
G01 X48.2062 Y28.4120 
G01 X48.9188 Y28.0006 
G01 X49.5006 Y27.4188 
G00 Z1.0000 
G00 X46.9196 Y32.8105 
G01 Z-4.5000 F200.00 
G01 X46.8308 Y32.8760 
G01 X46.8308 Y32.8760 
G01 X46.8308 Y32.8760 
G01 X46.7998 Y32.8939 
G01 X46.6162 Y32.9999 
G01 X46.4999 Y33.1162 
G01 X46.4176 Y33.2588 
G01 X46.3750 Y33.4177 
G01 X46.3750 Y33.5823 
G01 X46.4176 Y33.7412 
G01 X46.4999 Y33.8838 
G01 X46.6162 Y34.0001 
G01 X46.7588 Y34.0824 
G01 X46.9177 Y34.1250 
G01 X47.0823 Y34.1250 
G01 X47.2412 Y34.0824 
G01 X47.3838 Y34.0001 
G01 X47.5001 Y33.8838 
G01 X47.5824 Y33.7412 
G01 X47.6250 Y33.5823 
G01 X47.6250 Y33.4177 
G01 X47.5824 Y33.2588 
G01 X47.5001 Y33.1162 
G01 X47.3838 Y32.9999 
G01 X47.2081 Y32.8985 
G01 X47.1692 Y32.8760 
G01 X47.1692 Y32.8760 
G01 X47.1692 Y32.8760 
G01 X47.0839 Y32.8130 
G01 X47.0000 Y32.7511 
G01 X46.9196 Y32.8105 
G00 Z1.0000 
G00 X82.9750 Y-3.9950 
G01 Z-4.5000 F200.00 
G01 X82.9788 Y-3.9858 
G01 X82.9858 Y-3.9788 
G01 X82.9950 Y-3.9750 
G01 X83.0050 Y-3.9750 
G01 X83.0142 Y-3.9788 
G01 X83.0212 Y-3.9858 
G01 X83.0250 Y-3.9950 
G01 X83.0250 Y-4.0050 
G01 X83.0212 Y-4.0142 
G01 X83.0142 Y-4.0212 
G01 X83.0050 Y-4.0250 
G01 X82.9950 Y-4.0250 
G01 X82.9858 Y-4.0212 
G01 X82.9788 Y-4.0142 
G01 X82.9750 Y-4.0050 
G01 X82.9750 Y-3.9950 
G00 Z1.0000 
G00 X38.1162 Y4.9999 
G01 Z-4.5000 F200.00 
G01 X37.9999 Y5.1162 
G01 X37.9176 Y5.2588 
G01 X37.8750 Y5.4177 
G01 X37.8750 Y5.5823 
G01 X37.9176 Y5.7412 
G01 X37.9999 Y5.8838 
G01 X38.1162 Y6.0001 
G01 X38.2588 Y6.0824 
G01 X38.4177 Y6.1250 
G01 X38.5823 Y6.1250 
G01 X38.7412 Y6.0824 
G01 X38.8838 Y6.0001 
G01 X39.0001 Y5.8838 
G01 X39.0824 Y5.7412 
G01 X39.1250 Y5.5823 
G01 X39.1250 Y5.4177 
G01 X39.0824 Y5.2588 
G01 X39.0001 Y5.1162 
G01 X38.8838 Y4.9999 
G01 X38.7412 Y4.9176 
G01 X38.5823 Y4.8750 
G01 X38.4177 Y4.8750 
G01 X38.2588 Y4.9176 
G01 X38.1162 Y4.9999 
G00 Z1.0000 
G00 X46.9177 Y4.8750 
G01 Z-4.5000 F200.00 
G01 X46.7588 Y4.9176 
G01 X46.6162 Y4.9999 
G01 X46.4999 Y5.1162 
G01 X46.4176 Y5.2588 
G01 X46.3750 Y5.4177 
G01 X46.3750 Y5.5823 
G01 X46.4176 Y5.7412 
G01 X46.4999 Y5.8838 
G01 X46.6162 Y6.0001 
G01 X46.7588 Y6.0824 
G01 X46.9177 Y6.1250 
G01 X47.0823 Y6.1250 
G01 X47.2412 Y6.0824 
G01 X47.3838 Y6.0001 
G01 X47.5001 Y5.8838 
G01 X47.5824 Y5.7412 
G01 X47.6250 Y5.5823 
G01 X47.6250 Y5.4177 
G01 X47.5824 Y5.2588 
G01 X47.5001 Y5.1162 
G01 X47.3838 Y4.9999 
G01 X47.2412 Y4.9176 
G01 X47.0823 Y4.8750 
G01 X46.9177 Y4.8750 
G00 Z1.0000 
G00 X31.4177 Y35.1750 
G01 Z-4.5000 F200.00 
G01 X31.2588 Y35.2176 
G01 X31.1162 Y35.2999 
G01 X30.9999 Y35.4162 
G01 X30.9176 Y35.5588 
G01 X30.8750 Y35.7177 
G01 X30.8750 Y35.8823 
G01 X30.9176 Y36.0412 
G01 X30.9999 Y36.1838 
G01 X31.1162 Y36.3001 
G01 X31.2588 Y36.3824 
G01 X31.4177 Y36.4250 
G01 X31.5823 Y36.4250 
G01 X31.7412 Y36.3824 
G01 X31.8838 Y36.3001 
G01 X32.0001 Y36.1838 
G01 X32.0824 Y36.0412 
G01 X32.1250 Y35.8823 
G01 X32.1250 Y35.7177 
G01 X32.0824 Y35.5588 
G01 X32.0001 Y35.4162 
G01 X31.8838 Y35.2999 
G01 X31.7412 Y35.2176 
G01 X31.5823 Y35.1750 
G01 X31.4177 Y35.1750 
G00 Z1.0000 
G00 X31.4177 Y14.3750 
G01 Z-4.5000 F200.00 
G01 X31.2588 Y14.4176 
G01 X31.1162 Y14.4999 
G01 X30.9999 Y14.6162 
G01 X30.9176 Y14.7588 
G01 X30.8750 Y14.9177 
G01 X30.8750 Y15.0823 
G01 X30.9176 Y15.2412 
G01 X30.9999 Y15.3838 
G01 X31.1162 Y15.5001 
G01 X31.2588 Y15.5824 
G01 X31.4177 Y15.6250 
G01 X31.5823 Y15.6250 
G01 X31.7412 Y15.5824 
G01 X31.8838 Y15.5001 
G01 X32.0001 Y15.3838 
G01 X32.0824 Y15.2412 
G01 X32.1250 Y15.0823 
G01 X32.1250 Y14.9177 
G01 X32.0824 Y14.7588 
G01 X32.0001 Y14.6162 
G01 X31.8838 Y14.4999 
G01 X31.7412 Y14.4176 
G01 X31.5823 Y14.3750 
G01 X31.4177 Y14.3750 
G00 Z1.0000 
G00 X65.4750 Y55.0050 
G01 Z-4.5000 F200.00 
G01 X65.4788 Y55.0142 
G01 X65.4858 Y55.0212 
G01 X65.4950 Y55.0250 
G01 X65.5050 Y55.0250 
G01 X65.5142 Y55.0212 
G01 X65.5212 Y55.0142 
G01 X65.5250 Y55.0050 
G01 X65.5250 Y54.9950 
G01 X65.5212 Y54.9858 
G01 X65.5142 Y54.9788 
G01 X65.5050 Y54.9750 
G01 X65.4950 Y54.9750 
G01 X65.4858 Y54.9788 
G01 X65.4788 Y54.9858 
G01 X65.4750 Y54.9950 
G01 X65.4750 Y55.0050 
G00 Z1.0000 
G00 X8.9750 Y-3.9950 
G01 Z-4.5000 F200.00 
G01 X8.9788 Y-3.9858 
G01 X8.9858 Y-3.9788 
G01 X8.9950 Y-3.9750 
G01 X9.0050 Y-3.9750 
G01 X9.0142 Y-3.9788 
G01 X9.0212 Y-3.9858 
G01 X9.0250 Y-3.9950 
G01 X9.0250 Y-4.0050 
G01 X9.0212 Y-4.0142 
G01 X9.0142 Y-4.0212 
G01 X9.0050 Y-4.0250 
G01 X8.9950 Y-4.0250 
G01 X8.9858 Y-4.0212 
G01 X8.9788 Y-4.0142 
G01 X8.9750 Y-4.0050 
G01 X8.9750 Y-3.9950 
G00 Z1.0000 
G00 X8.9750 Y55.0050 
G01 Z-4.5000 F200.00 
G01 X8.9788 Y55.0142 
G01 X8.9858 Y55.0212 
G01 X8.9950 Y55.0250 
G01 X9.0050 Y55.0250 
G01 X9.0142 Y55.0212 
G01 X9.0212 Y55.0142 
G01 X9.0250 Y55.0050 
G01 X9.0250 Y54.9950 
G01 X9.0212 Y54.9858 
G01 X9.0142 Y54.9788 
G01 X9.0050 Y54.9750 
G01 X8.9950 Y54.9750 
G01 X8.9858 Y54.9788 
G01 X8.9788 Y54.9858 
G01 X8.9750 Y54.9950 
G01 X8.9750 Y55.0050 
G00 Z1.0000 
G00 X2.1562 Y48.3949 
G01 Z-4.5000 F200.00 
G01 X2.0399 Y48.5112 
G01 X1.9576 Y48.6538 
G01 X1.9150 Y48.8127 
G01 X1.9150 Y48.9773 
G01 X1.9576 Y49.1362 
G01 X2.0399 Y49.2788 
G01 X2.1562 Y49.3951 
G01 X2.2988 Y49.4774 
G01 X2.4577 Y49.5200 
G01 X2.6223 Y49.5200 
G01 X2.7812 Y49.4774 
G01 X2.9238 Y49.3951 
G01 X3.0401 Y49.2788 
G01 X3.1224 Y49.1362 
G01 X3.1650 Y48.9773 
G01 X3.1650 Y48.8127 
G01 X3.1224 Y48.6538 
G01 X3.0401 Y48.5112 
G01 X2.9238 Y48.3949 
G01 X2.7812 Y48.3126 
G01 X2.6223 Y48.2700 
G01 X2.4577 Y48.2700 
G01 X2.2988 Y48.3126 
G01 X2.1562 Y48.3949 
G00 Z1.0000 
G00 X89.1512 Y48.3949 
G01 Z-4.5000 F200.00 
G01 X89.0349 Y48.5112 
G01 X88.9526 Y48.6538 
G01 X88.9100 Y48.8127 
G01 X88.9100 Y48.9773 
G01 X88.9526 Y49.1362 
G01 X89.0349 Y49.2788 
G01 X89.1512 Y49.3951 
G01 X89.2938 Y49.4774 
G01 X89.4527 Y49.5200 
G01 X89.6173 Y49.5200 
G01 X89.7762 Y49.4774 
G01 X89.9188 Y49.3951 
G01 X90.0351 Y49.2788 
G01 X90.1174 Y49.1362 
G01 X90.1600 Y48.9773 
G01 X90.1600 Y48.8127 
G01 X90.1174 Y48.6538 
G01 X90.0351 Y48.5112 
G01 X89.9188 Y48.3949 
G01 X89.7762 Y48.3126 
G01 X89.6173 Y48.2700 
G01 X89.4527 Y48.2700 
G01 X89.2938 Y48.3126 
G01 X89.1512 Y48.3949 
G00 Z1.0000 
G00 X26.4750 Y55.0050 
G01 Z-4.5000 F200.00 
G01 X26.4788 Y55.0142 
G01 X26.4858 Y55.0212 
G01 X26.4950 Y55.0250 
G01 X26.5050 Y55.0250 
G01 X26.5142 Y55.0212 
G01 X26.5212 Y55.0142 
G01 X26.5250 Y55.0050 
G01 X26.5250 Y54.9950 
G01 X26.5212 Y54.9858 
G01 X26.5142 Y54.9788 
G01 X26.5050 Y54.9750 
G01 X26.4950 Y54.9750 
G01 X26.4858 Y54.9788 
G01 X26.4788 Y54.9858 
G01 X26.4750 Y54.9950 
G01 X26.4750 Y55.0050 
G00 Z1.0000 
G00 X26.4750 Y-3.9950 
G01 Z-4.5000 F200.00 
G01 X26.4788 Y-3.9858 
G01 X26.4858 Y-3.9788 
G01 X26.4950 Y-3.9750 
G01 X26.5050 Y-3.9750 
G01 X26.5142 Y-3.9788 
G01 X26.5212 Y-3.9858 
G01 X26.5250 Y-3.9950 
G01 X26.5250 Y-4.0050 
G01 X26.5212 Y-4.0142 
G01 X26.5142 Y-4.0212 
G01 X26.5050 Y-4.0250 
G01 X26.4950 Y-4.0250 
G01 X26.4858 Y-4.0212 
G01 X26.4788 Y-4.0142 
G01 X26.4750 Y-4.0050 
G01 X26.4750 Y-3.9950 
G00 Z1.0000 
G00 X82.9750 Y55.0050 
G01 Z-4.5000 F200.00 
G01 X82.9788 Y55.0142 
G01 X82.9858 Y55.0212 
G01 X82.9950 Y55.0250 
G01 X83.0050 Y55.0250 
G01 X83.0142 Y55.0212 
G01 X83.0212 Y55.0142 
G01 X83.0250 Y55.0050 
G01 X83.0250 Y54.9950 
G01 X83.0212 Y54.9858 
G01 X83.0142 Y54.9788 
G01 X83.0050 Y54.9750 
G01 X82.9950 Y54.9750 
G01 X82.9858 Y54.9788 
G01 X82.9788 Y54.9858 
G01 X82.9750 Y54.9950 
G01 X82.9750 Y55.0050 
G00 Z1.0000 
G00 X65.4750 Y-3.9950 
G01 Z-4.5000 F200.00 
G01 X65.4788 Y-3.9858 
G01 X65.4858 Y-3.9788 
G01 X65.4950 Y-3.9750 
G01 X65.5050 Y-3.9750 
G01 X65.5142 Y-3.9788 
G01 X65.5212 Y-3.9858 
G01 X65.5250 Y-3.9950 
G01 X65.5250 Y-4.0050 
G01 X65.5212 Y-4.0142 
G01 X65.5142 Y-4.0212 
G01 X65.5050 Y-4.0250 
G01 X65.4950 Y-4.0250 
G01 X65.4858 Y-4.0212 
G01 X65.4788 Y-4.0142 
G01 X65.4750 Y-4.0050 
G01 X65.4750 Y-3.9950 
G00 Z1.0000 
G00 X89.1512 Y2.0399 
G01 Z-4.5000 F200.00 
G01 X89.0349 Y2.1562 
G01 X88.9526 Y2.2988 
G01 X88.9100 Y2.4577 
G01 X88.9100 Y2.6223 
G01 X88.9526 Y2.7812 
G01 X89.0349 Y2.9238 
G01 X89.1512 Y3.0401 
G01 X89.2938 Y3.1224 
G01 X89.4527 Y3.1650 
G01 X89.6173 Y3.1650 
G01 X89.7762 Y3.1224 
G01 X89.9188 Y3.0401 
G01 X90.0351 Y2.9238 
G01 X90.1174 Y2.7812 
G01 X90.1600 Y2.6223 
G01 X90.1600 Y2.4577 
G01 X90.1174 Y2.2988 
G01 X90.0351 Y2.1562 
G01 X89.9188 Y2.0399 
G01 X89.7762 Y1.9576 
G01 X89.6173 Y1.9150 
G01 X89.4527 Y1.9150 
G01 X89.2938 Y1.9576 
G01 X89.1512 Y2.0399 
G00 Z1.0000 
G00 X1.9150 Y2.4577 
G01 Z-4.5000 F200.00 
G01 X1.9150 Y2.6223 
G01 X1.9576 Y2.7812 
G01 X2.0399 Y2.9238 
G01 X2.1562 Y3.0401 
G01 X2.2988 Y3.1224 
G01 X2.4577 Y3.1650 
G01 X2.6223 Y3.1650 
G01 X2.7812 Y3.1224 
G01 X2.9238 Y3.0401 
G01 X3.0401 Y2.9238 
G01 X3.1224 Y2.7812 
G01 X3.1650 Y2.6223 
G01 X3.1650 Y2.4577 
G01 X3.1224 Y2.2988 
G01 X3.0401 Y2.1562 
G01 X2.9238 Y2.0399 
G01 X2.7812 Y1.9576 
G01 X2.6223 Y1.9150 
G01 X2.4577 Y1.9150 
G01 X2.2988 Y1.9576 
G01 X2.1562 Y2.0399 
G01 X2.0399 Y2.1562 
G01 X1.9576 Y2.2988 
G01 X1.9150 Y2.4577 
G00 Z1.0000 
G00 X-4.4188 Y28.0006 
G01 Z-4.5000 F200.00 
G01 X-3.7062 Y28.4120 
G01 X-2.9114 Y28.6250 
G01 X-2.0886 Y28.6250 
G01 X-1.2938 Y28.4120 
G01 X-0.5812 Y28.0006 
G01 X0.0006 Y27.4188 
G01 X0.2909 Y26.9161 
G01 X0.3106 Y26.8751 
G01 X0.3589 Y26.7982 
G01 X0.4043 Y26.7196 
G01 X0.4313 Y26.6830 
G01 X0.4555 Y26.6445 
G01 X0.5121 Y26.5735 
G01 X0.5661 Y26.5004 
G01 X0.5970 Y26.4671 
G01 X0.6253 Y26.4316 
G01 X0.6895 Y26.3673 
G01 X0.7513 Y26.3007 
G01 X0.7858 Y26.2711 
G01 X0.8179 Y26.2390 
G01 X0.8889 Y26.1823 
G01 X0.9578 Y26.1231 
G01 X0.9953 Y26.0975 
G01 X1.0309 Y26.0691 
G01 X1.1078 Y26.0208 
G01 X1.1828 Y25.9697 
G01 X1.2230 Y25.9484 
G01 X1.2615 Y25.9242 
G01 X1.3433 Y25.8848 
G01 X1.4236 Y25.8424 
G01 X1.4659 Y25.8258 
G01 X1.5069 Y25.8061 
G01 X1.5926 Y25.7761 
G01 X1.6772 Y25.7429 
G01 X1.7210 Y25.7311 
G01 X1.7640 Y25.7161 
G01 X1.8525 Y25.6959 
G01 X1.9403 Y25.6724 
G01 X1.9852 Y25.6656 
G01 X2.0295 Y25.6555 
G01 X2.1197 Y25.6453 
G01 X2.2096 Y25.6318 
G01 X2.2550 Y25.6301 
G01 X2.3002 Y25.6250 
G01 X2.3910 Y25.6250 
G01 X2.4818 Y25.6216 
G01 X2.5271 Y25.6250 
G01 X4.5249 Y25.6250 
G01 X4.5708 Y25.6060 
G01 X4.6060 Y25.5708 
G01 X4.6250 Y25.5249 
G01 X4.6250 Y25.4751 
G01 X4.6060 Y25.4292 
G01 X4.5708 Y25.3940 
G01 X4.5249 Y25.3750 
G01 X2.5271 Y25.3750 
G01 X2.4818 Y25.3784 
G01 X2.3910 Y25.3750 
G01 X2.3002 Y25.3750 
G01 X2.2550 Y25.3699 
G01 X2.2096 Y25.3682 
G01 X2.1197 Y25.3547 
G01 X2.0295 Y25.3445 
G01 X1.9852 Y25.3344 
G01 X1.9403 Y25.3276 
G01 X1.8525 Y25.3041 
G01 X1.7640 Y25.2839 
G01 X1.7210 Y25.2689 
G01 X1.6772 Y25.2571 
G01 X1.5926 Y25.2239 
G01 X1.5069 Y25.1939 
G01 X1.4659 Y25.1742 
G01 X1.4236 Y25.1576 
G01 X1.3433 Y25.1152 
G01 X1.2615 Y25.0758 
G01 X1.2230 Y25.0516 
G01 X1.1828 Y25.0303 
G01 X1.1078 Y24.9792 
G01 X1.0309 Y24.9308 
G01 X0.9953 Y24.9025 
G01 X0.9578 Y24.8769 
G01 X0.8889 Y24.8177 
G01 X0.8179 Y24.7610 
G01 X0.7858 Y24.7289 
G01 X0.7513 Y24.6992 
G01 X0.6895 Y24.6327 
G01 X0.6253 Y24.5684 
G01 X0.5970 Y24.5329 
G01 X0.5661 Y24.4996 
G01 X0.5121 Y24.4265 
G01 X0.4555 Y24.3555 
G01 X0.4313 Y24.3170 
G01 X0.4043 Y24.2804 
G01 X0.3589 Y24.2018 
G01 X0.3106 Y24.1249 
G01 X0.2909 Y24.0839 
G01 X0.0006 Y23.5812 
G01 X-0.5812 Y22.9994 
G01 X-1.2938 Y22.5880 
G01 X-2.0886 Y22.3750 
G01 X-2.9114 Y22.3750 
G01 X-3.7062 Y22.5880 
G01 X-4.4188 Y22.9994 
G01 X-5.0006 Y23.5812 
G01 X-5.4120 Y24.2938 
G01 X-5.4663 Y24.4965 
G01 X-5.4663 Y24.4965 
G01 X-5.4930 Y24.5960 
G01 X-5.5368 Y24.7596 
G01 X-5.6363 Y25.0131 
G01 X-5.6364 Y25.0131 
G01 X-5.7165 Y25.1648 
G01 X-5.7636 Y25.2539 
G01 X-5.7636 Y25.2539 
G01 X-5.7636 Y25.2539 
G01 X-5.8526 Y25.3845 
G01 X-5.9170 Y25.4790 
G01 X-5.9171 Y25.4790 
G01 X-5.9171 Y25.4790 
G01 X-5.9352 Y25.5000 
G01 X-5.9171 Y25.5210 
G01 X-5.9171 Y25.5210 
G01 X-5.9170 Y25.5210 
G01 X-5.8587 Y25.6067 
G01 X-5.7636 Y25.7461 
G01 X-5.7636 Y25.7461 
G01 X-5.7636 Y25.7461 
G01 X-5.7197 Y25.8291 
G01 X-5.6364 Y25.9869 
G01 X-5.6363 Y25.9869 
G01 X-5.5368 Y26.2404 
G01 X-5.4945 Y26.3984 
G01 X-5.4663 Y26.5035 
G01 X-5.4663 Y26.5035 
G01 X-5.4120 Y26.7062 
G01 X-5.0006 Y27.4188 
G01 X-4.4188 Y28.0006 
G00 Z1.0000 
G00 X-10.1162 Y24.9999 
G01 Z-4.5000 F200.00 
G01 X-10.2588 Y24.9176 
G01 X-10.4177 Y24.8750 
G01 X-10.5823 Y24.8750 
G01 X-10.7412 Y24.9176 
G01 X-10.8838 Y24.9999 
G01 X-11.0001 Y25.1162 
G01 X-11.0824 Y25.2588 
G01 X-11.1250 Y25.4177 
G01 X-11.1250 Y25.5823 
G01 X-11.0824 Y25.7412 
G01 X-11.0001 Y25.8838 
G01 X-10.8838 Y26.0001 
G01 X-10.7412 Y26.0824 
G01 X-10.5823 Y26.1250 
G01 X-10.4177 Y26.1250 
G01 X-10.2588 Y26.0824 
G01 X-10.1162 Y26.0001 
G01 X-9.9999 Y25.8838 
G01 X-9.8985 Y25.7081 
G01 X-9.8760 Y25.6692 
G01 X-9.8760 Y25.6692 
G01 X-9.8760 Y25.6692 
G01 X-9.8130 Y25.5839 
G01 X-9.7511 Y25.5000 
G01 X-9.8105 Y25.4196 
G01 X-9.8760 Y25.3308 
G01 X-9.8760 Y25.3308 
G01 X-9.8760 Y25.3308 
G01 X-9.8939 Y25.2998 
G01 X-9.9999 Y25.1162 
G01 X-10.1162 Y24.9999 
G00 Z1.0000 
G00 X46.6162 Y44.9999 
G01 Z-4.5000 F200.00 
G01 X46.4999 Y45.1162 
G01 X46.4176 Y45.2588 
G01 X46.3750 Y45.4177 
G01 X46.3750 Y45.5823 
G01 X46.4176 Y45.7412 
G01 X46.4999 Y45.8838 
G01 X46.6162 Y46.0001 
G01 X46.7588 Y46.0824 
G01 X46.9177 Y46.1250 
G01 X47.0823 Y46.1250 
G01 X47.2412 Y46.0824 
G01 X47.3838 Y46.0001 
G01 X47.5001 Y45.8838 
G01 X47.5824 Y45.7412 
G01 X47.6250 Y45.5823 
G01 X47.6250 Y45.4177 
G01 X47.5824 Y45.2588 
G01 X47.5001 Y45.1162 
G01 X47.3838 Y44.9999 
G01 X47.2412 Y44.9176 
G01 X47.0823 Y44.8750 
G01 X46.9177 Y44.8750 
G01 X46.7588 Y44.9176 
G01 X46.6162 Y44.9999 
G00 Z1.0000 
G00 X38.1162 Y44.9999 
G01 Z-4.5000 F200.00 
G01 X37.9999 Y45.1162 
G01 X37.9176 Y45.2588 
G01 X37.8750 Y45.4177 
G01 X37.8750 Y45.5823 
G01 X37.9176 Y45.7412 
G01 X37.9999 Y45.8838 
G01 X38.1162 Y46.0001 
G01 X38.2588 Y46.0824 
G01 X38.4177 Y46.1250 
G01 X38.5823 Y46.1250 
G01 X38.7412 Y46.0824 
G01 X38.8838 Y46.0001 
G01 X39.0001 Y45.8838 
G01 X39.0824 Y45.7412 
G01 X39.1250 Y45.5823 
G01 X39.1250 Y45.4177 
G01 X39.0824 Y45.2588 
G01 X39.0001 Y45.1162 
G01 X38.8838 Y44.9999 
G01 X38.7412 Y44.9176 
G01 X38.5823 Y44.8750 
G01 X38.4177 Y44.8750 
G01 X38.2588 Y44.9176 
G01 X38.1162 Y44.9999 
G00 Z1.0000 
G00 X55.4177 Y44.8750 
G01 Z-4.5000 F200.00 
G01 X55.2588 Y44.9176 
G01 X55.1162 Y44.9999 
G01 X54.9999 Y45.1162 
G01 X54.9176 Y45.2588 
G01 X54.8750 Y45.4177 
G01 X54.8750 Y45.5823 
G01 X54.9176 Y45.7412 
G01 X54.9999 Y45.8838 
G01 X55.1162 Y46.0001 
G01 X55.2588 Y46.0824 
G01 X55.4177 Y46.1250 
G01 X55.5823 Y46.1250 
G01 X55.7412 Y46.0824 
G01 X55.8838 Y46.0001 
G01 X56.0001 Y45.8838 
G01 X56.0824 Y45.7412 
G01 X56.1250 Y45.5823 
G01 X56.1250 Y45.4177 
G01 X56.0824 Y45.2588 
G01 X56.0001 Y45.1162 
G01 X55.8838 Y44.9999 
G01 X55.7412 Y44.9176 
G01 X55.5823 Y44.8750 
G01 X55.4177 Y44.8750 
G00 Z1.0000 
G00 X93.4527 Y35.2700 
G01 Z-4.5000 F200.00 
G01 X93.2938 Y35.3126 
G01 X93.1512 Y35.3949 
G01 X93.0349 Y35.5112 
G01 X92.9526 Y35.6538 
G01 X92.9100 Y35.8127 
G01 X92.9100 Y35.9773 
G01 X92.9526 Y36.1362 
G01 X93.0349 Y36.2788 
G01 X93.1512 Y36.3951 
G01 X93.2938 Y36.4774 
G01 X93.4527 Y36.5200 
G01 X93.6173 Y36.5200 
G01 X93.7762 Y36.4774 
G01 X93.9188 Y36.3951 
G01 X94.0351 Y36.2788 
G01 X94.1174 Y36.1362 
G01 X94.1600 Y35.9773 
G01 X94.1600 Y35.8127 
G01 X94.1174 Y35.6538 
G01 X94.0351 Y35.5112 
G01 X93.9188 Y35.3949 
G01 X93.7762 Y35.3126 
G01 X93.6173 Y35.2700 
G01 X93.4527 Y35.2700 
G00 Z1.0000 
G00 X97.9858 Y43.0212 
G01 Z-4.5000 F200.00 
G01 X97.9950 Y43.0250 
G01 X98.0050 Y43.0250 
G01 X98.0142 Y43.0212 
G01 X98.0212 Y43.0142 
G01 X98.0250 Y43.0050 
G01 X98.0250 Y42.9950 
G01 X98.0212 Y42.9858 
G01 X98.0142 Y42.9788 
G01 X98.0050 Y42.9750 
G01 X97.9950 Y42.9750 
G01 X97.9858 Y42.9788 
G01 X97.9788 Y42.9858 
G01 X97.9750 Y42.9950 
G01 X97.9750 Y43.0050 
G01 X97.9788 Y43.0142 
G01 X97.9858 Y43.0212 
G00 Z1.0000 
G00 X98.0212 Y8.0142 
G01 Z-4.5000 F200.00 
G01 X98.0250 Y8.0050 
G01 X98.0250 Y7.9950 
G01 X98.0212 Y7.9858 
G01 X98.0142 Y7.9788 
G01 X98.0050 Y7.9750 
G01 X97.9950 Y7.9750 
G01 X97.9858 Y7.9788 
G01 X97.9788 Y7.9858 
G01 X97.9750 Y7.9950 
G01 X97.9750 Y8.0050 
G01 X97.9788 Y8.0142 
G01 X97.9858 Y8.0212 
G01 X97.9950 Y8.0250 
G01 X98.0050 Y8.0250 
G01 X98.0142 Y8.0212 
G01 X98.0212 Y8.0142 
G00 Z1.0000 
G00 X74.4750 Y55.0050 
G01 Z-4.5000 F200.00 
G01 X74.4788 Y55.0142 
G01 X74.4858 Y55.0212 
G01 X74.4950 Y55.0250 
G01 X74.5050 Y55.0250 
G01 X74.5142 Y55.0212 
G01 X74.5212 Y55.0142 
G01 X74.5250 Y55.0050 
G01 X74.5250 Y54.9950 
G01 X74.5212 Y54.9858 
G01 X74.5142 Y54.9788 
G01 X74.5050 Y54.9750 
G01 X74.4950 Y54.9750 
G01 X74.4858 Y54.9788 
G01 X74.4788 Y54.9858 
G01 X74.4750 Y54.9950 
G01 X74.4750 Y55.0050 
G00 Z1.0000 
G00 X17.4750 Y55.0050 
G01 Z-4.5000 F200.00 
G01 X17.4788 Y55.0142 
G01 X17.4858 Y55.0212 
G01 X17.4950 Y55.0250 
G01 X17.5050 Y55.0250 
G01 X17.5142 Y55.0212 
G01 X17.5212 Y55.0142 
G01 X17.5250 Y55.0050 
G01 X17.5250 Y54.9950 
G01 X17.5212 Y54.9858 
G01 X17.5142 Y54.9788 
G01 X17.5050 Y54.9750 
G01 X17.4950 Y54.9750 
G01 X17.4858 Y54.9788 
G01 X17.4788 Y54.9858 
G01 X17.4750 Y54.9950 
G01 X17.4750 Y55.0050 
G00 Z1.0000 
G00 X17.4950 Y-3.9750 
G01 Z-4.5000 F200.00 
G01 X17.5050 Y-3.9750 
G01 X17.5142 Y-3.9788 
G01 X17.5212 Y-3.9858 
G01 X17.5250 Y-3.9950 
G01 X17.5250 Y-4.0050 
G01 X17.5212 Y-4.0142 
G01 X17.5142 Y-4.0212 
G01 X17.5050 Y-4.0250 
G01 X17.4950 Y-4.0250 
G01 X17.4858 Y-4.0212 
G01 X17.4788 Y-4.0142 
G01 X17.4750 Y-4.0050 
G01 X17.4750 Y-3.9950 
G01 X17.4788 Y-3.9858 
G01 X17.4858 Y-3.9788 
G01 X17.4950 Y-3.9750 
G00 Z1.0000 
G00 X74.4950 Y-3.9750 
G01 Z-4.5000 F200.00 
G01 X74.5050 Y-3.9750 
G01 X74.5142 Y-3.9788 
G01 X74.5212 Y-3.9858 
G01 X74.5250 Y-3.9950 
G01 X74.5250 Y-4.0050 
G01 X74.5212 Y-4.0142 
G01 X74.5142 Y-4.0212 
G01 X74.5050 Y-4.0250 
G01 X74.4950 Y-4.0250 
G01 X74.4858 Y-4.0212 
G01 X74.4788 Y-4.0142 
G01 X74.4750 Y-4.0050 
G01 X74.4750 Y-3.9950 
G01 X74.4788 Y-3.9858 
G01 X74.4858 Y-3.9788 
G01 X74.4950 Y-3.9750 
G00 Z1.0000 
G00 X93.4177 Y14.8750 
G01 Z-4.5000 F200.00 
G01 X93.2588 Y14.9176 
G01 X93.1162 Y14.9999 
G01 X92.9999 Y15.1162 
G01 X92.9176 Y15.2588 
G01 X92.8750 Y15.4177 
G01 X92.8750 Y15.5823 
G01 X92.9176 Y15.7412 
G01 X92.9999 Y15.8838 
G01 X93.1162 Y16.0001 
G01 X93.2588 Y16.0824 
G01 X93.4177 Y16.1250 
G01 X93.5823 Y16.1250 
G01 X93.7412 Y16.0824 
G01 X93.8838 Y16.0001 
G01 X94.0001 Y15.8838 
G01 X94.0824 Y15.7412 
G01 X94.1250 Y15.5823 
G01 X94.1250 Y15.4177 
G01 X94.0824 Y15.2588 
G01 X94.0001 Y15.1162 
G01 X93.8838 Y14.9999 
G01 X93.7412 Y14.9176 
G01 X93.5823 Y14.8750 
G01 X93.4177 Y14.8750 
G00 Z1.0000 
G00 X-18.7890 Y33.8333 
G01 Z-4.5000 F200.00 
G01 X-18.7990 Y33.7745 
G01 X-18.8128 Y33.7165 
G01 X-18.8219 Y33.6404 
G01 X-19.4641 Y29.8793 
G01 X-19.4807 Y29.8045 
G01 X-19.4870 Y29.7452 
G01 X-19.4970 Y29.6864 
G01 X-19.5014 Y29.6099 
G01 X-19.9098 Y25.7715 
G01 X-19.9241 Y25.6512 
G01 X-19.9242 Y25.6362 
G01 X-19.9258 Y25.6212 
G01 X-19.9250 Y25.5000 
G01 X-19.9258 Y25.3788 
G01 X-19.9242 Y25.3638 
G01 X-19.9241 Y25.3488 
G01 X-19.9098 Y25.2285 
G01 X-19.5014 Y21.3901 
G01 X-19.4970 Y21.3136 
G01 X-19.4870 Y21.2548 
G01 X-19.4807 Y21.1955 
G01 X-19.4641 Y21.1207 
G01 X-18.8219 Y17.3596 
G01 X-18.8128 Y17.2835 
G01 X-18.7990 Y17.2255 
G01 X-18.7890 Y17.1667 
G01 X-18.7677 Y17.0931 
G01 X-17.8898 Y13.3800 
G01 X-17.8758 Y13.3046 
G01 X-17.8584 Y13.2475 
G01 X-17.8447 Y13.1895 
G01 X-17.8188 Y13.1174 
G01 X-16.7085 Y9.4670 
G01 X-16.6898 Y9.3927 
G01 X-16.6689 Y9.3368 
G01 X-16.6515 Y9.2797 
G01 X-16.6212 Y9.2094 
G01 X-15.2829 Y5.6363 
G01 X-15.2596 Y5.5633 
G01 X-15.2352 Y5.5089 
G01 X-15.2142 Y5.4530 
G01 X-15.1795 Y5.3846 
G01 X-13.6186 Y1.9031 
G01 X-13.5907 Y1.8317 
G01 X-13.5629 Y1.7789 
G01 X-13.5385 Y1.7245 
G01 X-13.4995 Y1.6585 
G01 X-11.7222 Y-1.7177 
G01 X-11.6899 Y-1.7872 
G01 X-11.6588 Y-1.8381 
G01 X-11.6311 Y-1.8909 
G01 X-11.5880 Y-1.9543 
G01 X-9.6328 Y-5.1602 
G01 X-9.6258 Y-5.1749 
G01 X-9.5619 Y-5.2766 
G01 X-9.4994 Y-5.3789 
G01 X-9.4895 Y-5.3917 
G01 X-9.4809 Y-5.4055 
G01 X-9.4060 Y-5.4994 
G01 X-9.3325 Y-5.5941 
G01 X-9.3212 Y-5.6057 
G01 X-9.3110 Y-5.6184 
G01 X-9.2262 Y-5.7032 
G01 X-9.1425 Y-5.7893 
G01 X-9.1299 Y-5.7996 
G01 X-9.1184 Y-5.8110 
G01 X-9.0246 Y-5.8859 
G01 X-8.9318 Y-5.9619 
G01 X-8.9182 Y-5.9707 
G01 X-8.9055 Y-5.9809 
G01 X-8.8038 Y-6.0447 
G01 X-8.7031 Y-6.1099 
G01 X-8.6886 Y-6.1171 
G01 X-8.6749 Y-6.1258 
G01 X-8.5667 Y-6.1778 
G01 X-8.4594 Y-6.2313 
G01 X-8.4441 Y-6.2369 
G01 X-8.4295 Y-6.2439 
G01 X-8.3162 Y-6.2836 
G01 X-8.2035 Y-6.3247 
G01 X-8.1877 Y-6.3285 
G01 X-8.1724 Y-6.3339 
G01 X-8.0555 Y-6.3606 
G01 X-7.9388 Y-6.3889 
G01 X-7.9226 Y-6.3909 
G01 X-7.9068 Y-6.3945 
G01 X-7.7877 Y-6.4079 
G01 X-7.6686 Y-6.4230 
G01 X-7.6523 Y-6.4232 
G01 X-7.6362 Y-6.4250 
G01 X-7.5162 Y-6.4250 
G01 X-7.3962 Y-6.4266 
G01 X-7.3800 Y-6.4250 
G01 X1.4955 Y-6.4250 
G01 X6.3816 Y-11.3110 
G01 X6.5945 Y-11.4809 
G01 X6.8251 Y-11.6258 
G01 X7.0705 Y-11.7439 
G01 X7.3276 Y-11.8339 
G01 X7.5932 Y-11.8945 
G01 X7.8638 Y-11.9250 
G01 X27.6362 Y-11.9250 
G01 X27.9068 Y-11.8945 
G01 X28.1724 Y-11.8339 
G01 X28.4295 Y-11.7439 
G01 X28.6749 Y-11.6258 
G01 X28.9055 Y-11.4809 
G01 X29.1184 Y-11.3110 
G01 X29.3110 Y-11.1184 
G01 X34.0045 Y-6.4250 
G01 X57.9955 Y-6.4250 
G01 X62.8816 Y-11.3110 
G01 X63.0945 Y-11.4809 
G01 X63.3251 Y-11.6258 
G01 X63.5705 Y-11.7439 
G01 X63.8276 Y-11.8339 
G01 X64.0932 Y-11.8945 
G01 X64.3638 Y-11.9250 
G01 X84.1362 Y-11.9250 
G01 X84.4068 Y-11.8945 
G01 X84.6724 Y-11.8339 
G01 X84.9295 Y-11.7439 
G01 X85.1749 Y-11.6258 
G01 X85.4055 Y-11.4809 
G01 X85.6184 Y-11.3110 
G01 X85.8110 Y-11.1184 
G01 X90.5045 Y-6.4250 
G01 X99.6362 Y-6.4250 
G01 X99.9068 Y-6.3945 
G01 X100.1724 Y-6.3339 
